(G-CODE GENERATED BY FLATCAM v8.994 - www.flatcam.org - Version Date: 2020/11/7)

(Name: PiHat.drl_cnc)
(Type: G-code from Geometry)
(Units: MM)

(Created on Sunday, 28 March 2021 at 12:35)

G21
G90
G94

F300.00
M03 S20000.0

G00 X13.3860 Y7.2250
G01 Z-1.7000
G01 Z0
G00 Z2.0000
G00 X13.3860 Y9.7650
G01 Z-1.7000
G01 Z0
G00 Z2.0000
G00 X13.3860 Y12.3050
G01 Z-1.7000
G01 Z0
G00 Z2.0000
G00 X13.3860 Y14.8450
G01 Z-1.7000
G01 Z0
G00 Z2.0000
G00 X13.7160 Y21.2950
G01 Z-1.7000
G01 Z0
G00 Z2.0000
G00 X13.7160 Y23.8350
G01 Z-1.7000
G01 Z0
G00 Z2.0000
G00 X13.7160 Y26.3750
G01 Z-1.7000
G01 Z0
G00 Z2.0000
G00 X18.2880 Y26.8830
G01 Z-1.7000
G01 Z0
G00 Z2.0000
G00 X20.3200 Y20.2790
G01 Z-1.7000
G01 Z0
G00 Z2.0000
G00 X30.4800 Y20.2790
G01 Z-1.7000
G01 Z0
G00 Z2.0000
G00 X32.0040 Y28.4070
G01 Z-1.7000
G01 Z0
G00 Z2.0000
G00 X34.5440 Y28.4070
G01 Z-1.7000
G01 Z0
G00 Z2.0000
G00 X44.1960 Y29.9310
G01 Z-1.7000
G01 Z0
G00 Z2.0000
G00 X44.1960 Y27.3910
G01 Z-1.7000
G01 Z0
G00 Z2.0000
G00 X44.1960 Y24.8510
G01 Z-1.7000
G01 Z0
G00 Z2.0000
G00 X44.1960 Y22.3110
G01 Z-1.7000
G01 Z0
G00 Z2.0000
G00 X44.1960 Y19.7710
G01 Z-1.7000
G01 Z0
G00 Z2.0000
G00 X44.1960 Y17.2310
G01 Z-1.7000
G01 Z0
G00 Z2.0000
G00 X44.1960 Y14.6910
G01 Z-1.7000
G01 Z0
G00 Z2.0000
G00 X44.1960 Y12.1510
G01 Z-1.7000
G01 Z0
G00 Z2.0000
G00 X44.1960 Y9.6110
G01 Z-1.7000
G01 Z0
G00 Z2.0000
G00 X46.7360 Y9.6110
G01 Z-1.7000
G01 Z0
G00 Z2.0000
G00 X46.7360 Y12.1510
G01 Z-1.7000
G01 Z0
G00 Z2.0000
G00 X46.7360 Y14.6910
G01 Z-1.7000
G01 Z0
G00 Z2.0000
G00 X46.7360 Y17.2310
G01 Z-1.7000
G01 Z0
G00 Z2.0000
G00 X46.7360 Y19.7710
G01 Z-1.7000
G01 Z0
G00 Z2.0000
G00 X46.7360 Y22.3110
G01 Z-1.7000
G01 Z0
G00 Z2.0000
G00 X46.7360 Y24.8510
G01 Z-1.7000
G01 Z0
G00 Z2.0000
G00 X46.7360 Y27.3910
G01 Z-1.7000
G01 Z0
G00 Z2.0000
G00 X46.7360 Y29.9310
G01 Z-1.7000
G01 Z0
G00 Z2.0000
G00 X46.7360 Y32.4710
G01 Z-1.7000
G01 Z0
G00 Z2.0000
G00 X46.7360 Y35.0110
G01 Z-1.7000
G01 Z0
G00 Z2.0000
G00 X46.7360 Y37.5510
G01 Z-1.7000
G01 Z0
G00 Z2.0000
G00 X46.7360 Y40.0910
G01 Z-1.7000
G01 Z0
G00 Z2.0000
G00 X46.7360 Y42.6310
G01 Z-1.7000
G01 Z0
G00 Z2.0000
G00 X46.7360 Y45.1710
G01 Z-1.7000
G01 Z0
G00 Z2.0000
G00 X46.7360 Y47.7110
G01 Z-1.7000
G01 Z0
G00 Z2.0000
G00 X46.7360 Y50.2510
G01 Z-1.7000
G01 Z0
G00 Z2.0000
G00 X46.7360 Y52.7910
G01 Z-1.7000
G01 Z0
G00 Z2.0000
G00 X46.7360 Y55.3310
G01 Z-1.7000
G01 Z0
G00 Z2.0000
G00 X46.7360 Y57.8710
G01 Z-1.7000
G01 Z0
G00 Z2.0000
G00 X44.1960 Y57.8710
G01 Z-1.7000
G01 Z0
G00 Z2.0000
G00 X44.1960 Y55.3310
G01 Z-1.7000
G01 Z0
G00 Z2.0000
G00 X44.1960 Y52.7910
G01 Z-1.7000
G01 Z0
G00 Z2.0000
G00 X44.1960 Y50.2510
G01 Z-1.7000
G01 Z0
G00 Z2.0000
G00 X44.1960 Y47.7110
G01 Z-1.7000
G01 Z0
G00 Z2.0000
G00 X44.1960 Y45.1710
G01 Z-1.7000
G01 Z0
G00 Z2.0000
G00 X44.1960 Y42.6310
G01 Z-1.7000
G01 Z0
G00 Z2.0000
G00 X44.1960 Y40.0910
G01 Z-1.7000
G01 Z0
G00 Z2.0000
G00 X44.1960 Y37.5510
G01 Z-1.7000
G01 Z0
G00 Z2.0000
G00 X44.1960 Y35.0110
G01 Z-1.7000
G01 Z0
G00 Z2.0000
G00 X44.1960 Y32.4710
G01 Z-1.7000
G01 Z0
G00 Z2.0000
G00 X34.5440 Y30.9470
G01 Z-1.7000
G01 Z0
G00 Z2.0000
G00 X34.5440 Y33.4870
G01 Z-1.7000
G01 Z0
G00 Z2.0000
G00 X34.5440 Y36.0270
G01 Z-1.7000
G01 Z0
G00 Z2.0000
G00 X34.5440 Y38.5670
G01 Z-1.7000
G01 Z0
G00 Z2.0000
G00 X34.5440 Y41.1070
G01 Z-1.7000
G01 Z0
G00 Z2.0000
G00 X34.5440 Y43.6470
G01 Z-1.7000
G01 Z0
G00 Z2.0000
G00 X34.5440 Y46.1870
G01 Z-1.7000
G01 Z0
G00 Z2.0000
G00 X32.0040 Y46.1870
G01 Z-1.7000
G01 Z0
G00 Z2.0000
G00 X32.0040 Y43.6470
G01 Z-1.7000
G01 Z0
G00 Z2.0000
G00 X32.0040 Y41.1070
G01 Z-1.7000
G01 Z0
G00 Z2.0000
G00 X32.0040 Y38.5670
G01 Z-1.7000
G01 Z0
G00 Z2.0000
G00 X32.0040 Y36.0270
G01 Z-1.7000
G01 Z0
G00 Z2.0000
G00 X32.0040 Y33.4870
G01 Z-1.7000
G01 Z0
G00 Z2.0000
G00 X32.0040 Y30.9470
G01 Z-1.7000
G01 Z0
G00 Z2.0000
G00 X18.2880 Y37.0430
G01 Z-1.7000
G01 Z0
G00 Z2.0000
G00 X5.3340 Y44.1150
G01 Z-1.7000
G01 Z0
G00 Z2.0000
G00 X5.3340 Y41.6150
G01 Z-1.7000
G01 Z0
G00 Z2.0000
G00 X5.3340 Y33.9550
G01 Z-1.7000
G01 Z0
G00 Z2.0000
G00 X5.3340 Y31.4550
G01 Z-1.7000
G01 Z0
G00 Z2.0000
G00 X5.3340 Y23.7950
G01 Z-1.7000
G01 Z0
G00 Z2.0000
G00 X5.3340 Y21.2950
G01 Z-1.7000
G01 Z0
G00 Z2.0000
G00 X5.3340 Y13.6350
G01 Z-1.7000
G01 Z0
G00 Z2.0000
G00 X5.3340 Y11.1350
G01 Z-1.7000
G01 Z0
G00 Z2.0000

G00 Z5
M05
