(G-CODE GENERATED BY FLATCAM v8.994 - www.flatcam.org - Version Date: 2020/11/7)

(Name: PiHat-B_Cu.gbr_0.7000_iso_cnc)
(Type: G-code from Geometry)
(Units: MM)

(Created on Tuesday, 18 May 2021 at 13:03)

(This preprocessor is the default preprocessor used by FlatCAM.)
(It is made to work with MACH3 compatible motion controllers.)

(TOOL DIAMETER: 0.7 mm)
(Feedrate_XY: 100.0 mm/min)
(Feedrate_Z: 60.0 mm/min)
(Feedrate rapids 900.0 mm/min)

(Z_Cut: -0.28 mm)
(Z_Move: 1.7 mm)
(Z Start: None mm)
(Z End: 15.0 mm)
(X,Y End: None mm)
(Steps per circle: 64)
(Preprocessor Geometry: default)

(X range:    1.1496 ...   48.9753  mm)
(Y range:    1.7900 ...   60.9753  mm)

(Spindle Speed: 20000.0 RPM)
G21
G90
G94

F100.00

M5
G00 Z15.0000
G00 X0.0000 Y0.0000

M03 S20000.0
G4 P2.0
F100.00
G00 X5.3168 Y6.8157
F60.00
G01 Z-0.2800
F100.00
G01 X5.3340 Y6.8153
G01 X5.6964 Y6.8153
G01 X5.7238 Y6.7990
G01 X5.7389 Y6.7909
G01 X5.8210 Y6.7521
G01 X5.8449 Y6.7425
G01 X5.9143 Y6.7177
G01 X5.9388 Y6.7099
G01 X6.0186 Y6.6898
G01 X6.0353 Y6.6861
G01 X6.0523 Y6.6831
G01 X6.1251 Y6.6723
G01 X6.1507 Y6.6695
G01 X6.2414 Y6.6650
G01 X11.5000 Y6.6649
G01 X11.5172 Y6.6654
G01 X11.5907 Y6.6690
G01 X11.6079 Y6.6702
G01 X11.6249 Y6.6723
G01 X11.6977 Y6.6831
G01 X11.7147 Y6.6861
G01 X11.7314 Y6.6898
G01 X11.8029 Y6.7077
G01 X11.8194 Y6.7123
G01 X11.8357 Y6.7177
G01 X11.9051 Y6.7425
G01 X11.9211 Y6.7487
G01 X11.9368 Y6.7557
G01 X12.0027 Y6.7868
G01 X12.0197 Y6.7889
G01 X12.0652 Y6.7958
G01 X12.0904 Y6.8011
G01 X12.1266 Y6.8102
G01 X12.1432 Y6.8148
G01 X12.1595 Y6.8202
G01 X12.2028 Y6.8358
G01 X12.2264 Y6.8459
G01 X12.2602 Y6.8619
G01 X12.2756 Y6.8696
G01 X12.2905 Y6.8781
G01 X12.3226 Y6.8973
G01 X12.3371 Y6.9065
G01 X12.3491 Y6.9149
G01 X28.2942 Y6.9149
G01 X30.7219 Y4.4872
G01 X30.7344 Y4.4754
G01 X30.7889 Y4.4259
G01 X30.8019 Y4.4147
G01 X30.8155 Y4.4041
G01 X30.8746 Y4.3603
G01 X30.8887 Y4.3504
G01 X30.9032 Y4.3412
G01 X30.9663 Y4.3033
G01 X30.9813 Y4.2949
G01 X30.9966 Y4.2871
G01 X31.0632 Y4.2557
G01 X31.0789 Y4.2487
G01 X31.0949 Y4.2425
G01 X31.1643 Y4.2177
G01 X31.1806 Y4.2123
G01 X31.1971 Y4.2077
G01 X31.2686 Y4.1898
G01 X31.2853 Y4.1861
G01 X31.3023 Y4.1831
G01 X31.3751 Y4.1723
G01 X31.3921 Y4.1702
G01 X31.4093 Y4.1690
G01 X31.4828 Y4.1654
G01 X31.5000 Y4.1649
G01 X33.1820 Y4.1649
G01 X33.1974 Y4.1467
G01 X33.2257 Y4.1160
G01 X33.2382 Y4.1042
G01 X33.2694 Y4.0765
G01 X33.3026 Y4.0513
G01 X33.3239 Y4.0367
G01 X33.3596 Y4.0153
G01 X33.3825 Y4.0034
G01 X33.4204 Y3.9860
G01 X33.4595 Y3.9715
G01 X33.4841 Y3.9638
G01 X33.5245 Y3.9536
G01 X33.5499 Y3.9489
G01 X33.5912 Y3.9432
G01 X33.6083 Y3.9419
G01 X33.6500 Y3.9403
G01 X34.8500 Y3.9403
G01 X34.8917 Y3.9419
G01 X34.9088 Y3.9432
G01 X34.9259 Y3.9453
G01 X34.9671 Y3.9518
G01 X34.9838 Y3.9556
G01 X35.0242 Y3.9661
G01 X35.0636 Y3.9798
G01 X35.0796 Y3.9860
G01 X35.0953 Y3.9929
G01 X35.1328 Y4.0112
G01 X35.1688 Y4.0322
G01 X35.1833 Y4.0414
G01 X35.1974 Y4.0513
G01 X35.2306 Y4.0765
G01 X35.2618 Y4.1042
G01 X35.2743 Y4.1160
G01 X35.3026 Y4.1467
G01 X35.3180 Y4.1649
G01 X36.0524 Y4.1649
G01 X36.0762 Y4.1474
G01 X36.0905 Y4.1379
G01 X36.1694 Y4.0905
G01 X36.1919 Y4.0781
G01 X36.2751 Y4.0386
G01 X36.2908 Y4.0317
G01 X36.3068 Y4.0255
G01 X36.3853 Y3.9974
G01 X36.4099 Y3.9896
G01 X36.4991 Y3.9671
G01 X36.5159 Y3.9634
G01 X36.5328 Y3.9604
G01 X36.6153 Y3.9482
G01 X36.6324 Y3.9461
G01 X36.6495 Y3.9448
G01 X36.7328 Y3.9407
G01 X36.7500 Y3.9403
G01 X36.7672 Y3.9407
G01 X36.8505 Y3.9448
G01 X36.8762 Y3.9470
G01 X36.9672 Y3.9604
G01 X36.9841 Y3.9634
G01 X37.0009 Y3.9671
G01 X37.0818 Y3.9874
G01 X37.0983 Y3.9920
G01 X37.1147 Y3.9974
G01 X37.1932 Y4.0255
G01 X37.2092 Y4.0317
G01 X37.2249 Y4.0386
G01 X37.3003 Y4.0743
G01 X37.3232 Y4.0861
G01 X37.4022 Y4.1334
G01 X37.4167 Y4.1425
G01 X37.4307 Y4.1524
G01 X37.4977 Y4.2021
G01 X37.5113 Y4.2127
G01 X37.5243 Y4.2239
G01 X37.5861 Y4.2799
G01 X37.5985 Y4.2918
G01 X37.6104 Y4.3042
G01 X37.6664 Y4.3660
G01 X37.6776 Y4.3790
G01 X37.6882 Y4.3926
G01 X37.7379 Y4.4596
G01 X37.7478 Y4.4736
G01 X37.7570 Y4.4881
G01 X37.7998 Y4.5597
G01 X37.8083 Y4.5746
G01 X37.8160 Y4.5900
G01 X37.8517 Y4.6654
G01 X37.8618 Y4.6891
G01 X37.8929 Y4.7757
G01 X37.8983 Y4.7920
G01 X37.9029 Y4.8085
G01 X37.9232 Y4.8894
G01 X37.9285 Y4.9146
G01 X37.9433 Y5.0142
G01 X37.9455 Y5.0398
G01 X37.9499 Y5.1317
G01 X37.9499 Y5.3989
G01 X37.9455 Y5.4908
G01 X37.9442 Y5.5079
G01 X37.9421 Y5.5250
G01 X37.9299 Y5.6075
G01 X37.9269 Y5.6244
G01 X37.9232 Y5.6412
G01 X37.9029 Y5.7221
G01 X37.8983 Y5.7387
G01 X37.8929 Y5.7550
G01 X37.8648 Y5.8335
G01 X37.8587 Y5.8495
G01 X37.8517 Y5.8652
G01 X37.8160 Y5.9406
G01 X37.8083 Y5.9560
G01 X37.7998 Y5.9709
G01 X37.7524 Y6.0498
G01 X37.7379 Y6.0710
G01 X37.6882 Y6.1380
G01 X37.6776 Y6.1516
G01 X37.6664 Y6.1646
G01 X37.6104 Y6.2264
G01 X37.5985 Y6.2388
G01 X37.5861 Y6.2507
G01 X37.5243 Y6.3067
G01 X37.5113 Y6.3179
G01 X37.4977 Y6.3285
G01 X37.4307 Y6.3782
G01 X37.4167 Y6.3881
G01 X37.4022 Y6.3973
G01 X37.3306 Y6.4402
G01 X37.3157 Y6.4486
G01 X37.3003 Y6.4563
G01 X37.2249 Y6.4920
G01 X37.2092 Y6.4990
G01 X37.1932 Y6.5052
G01 X37.1147 Y6.5333
G01 X37.0983 Y6.5386
G01 X37.0818 Y6.5432
G01 X36.9925 Y6.5655
G01 X36.9672 Y6.5702
G01 X36.8847 Y6.5824
G01 X36.8676 Y6.5845
G01 X36.8505 Y6.5858
G01 X36.7672 Y6.5899
G01 X36.7500 Y6.5903
G01 X36.7328 Y6.5899
G01 X36.6495 Y6.5858
G01 X36.6324 Y6.5845
G01 X36.6153 Y6.5824
G01 X36.5328 Y6.5702
G01 X36.5075 Y6.5655
G01 X36.4182 Y6.5432
G01 X36.4017 Y6.5386
G01 X36.3853 Y6.5333
G01 X36.3068 Y6.5052
G01 X36.2829 Y6.4956
G01 X36.1997 Y6.4563
G01 X36.1768 Y6.4445
G01 X36.0905 Y6.3928
G01 X36.0762 Y6.3832
G01 X36.0524 Y6.3657
G01 X35.3180 Y6.3657
G01 X35.3026 Y6.3840
G01 X35.2743 Y6.4146
G01 X35.2618 Y6.4264
G01 X35.2306 Y6.4541
G01 X35.1974 Y6.4793
G01 X35.1833 Y6.4892
G01 X35.1688 Y6.4984
G01 X35.1328 Y6.5195
G01 X35.1175 Y6.5272
G01 X35.0796 Y6.5446
G01 X35.0405 Y6.5591
G01 X35.0242 Y6.5645
G01 X34.9838 Y6.5750
G01 X34.9671 Y6.5788
G01 X34.9259 Y6.5853
G01 X34.9088 Y6.5874
G01 X34.8917 Y6.5887
G01 X34.8500 Y6.5903
G01 X33.6500 Y6.5903
G01 X33.6083 Y6.5887
G01 X33.5912 Y6.5874
G01 X33.5499 Y6.5817
G01 X33.5245 Y6.5770
G01 X33.4841 Y6.5669
G01 X33.4595 Y6.5591
G01 X33.4204 Y6.5446
G01 X33.3825 Y6.5272
G01 X33.3596 Y6.5153
G01 X33.3239 Y6.4939
G01 X33.3026 Y6.4793
G01 X33.2694 Y6.4541
G01 X33.2382 Y6.4264
G01 X33.2257 Y6.4146
G01 X33.1974 Y6.3840
G01 X33.1820 Y6.3657
G01 X31.9558 Y6.3657
G01 X29.5281 Y8.7934
G01 X29.5156 Y8.8052
G01 X29.4546 Y8.8604
G01 X29.4345 Y8.8765
G01 X29.3754 Y8.9203
G01 X29.3613 Y8.9302
G01 X29.3468 Y8.9394
G01 X29.2837 Y8.9773
G01 X29.2687 Y8.9858
G01 X29.2534 Y8.9935
G01 X29.1868 Y9.0250
G01 X29.1711 Y9.0319
G01 X29.1551 Y9.0381
G01 X29.0857 Y9.0629
G01 X29.0694 Y9.0683
G01 X29.0529 Y9.0729
G01 X28.9814 Y9.0908
G01 X28.9647 Y9.0945
G01 X28.9477 Y9.0975
G01 X28.8664 Y9.1094
G01 X28.8407 Y9.1117
G01 X28.7672 Y9.1153
G01 X28.7500 Y9.1157
G01 X11.7500 Y9.1157
G01 X11.7328 Y9.1153
G01 X11.6593 Y9.1117
G01 X11.6421 Y9.1104
G01 X11.6251 Y9.1083
G01 X11.5523 Y9.0975
G01 X11.5269 Y9.0928
G01 X11.4471 Y9.0729
G01 X11.4224 Y9.0657
G01 X11.3369 Y9.0351
G01 X11.3210 Y9.0285
G01 X11.2759 Y9.0073
G01 X11.1604 Y9.0072
G01 X11.1059 Y9.0045
G01 X11.0888 Y9.0028
G01 X11.0433 Y8.9962
G01 X11.0264 Y8.9933
G01 X11.0096 Y8.9895
G01 X10.9651 Y8.9782
G01 X10.9486 Y8.9732
G01 X10.9053 Y8.9579
G01 X10.8814 Y8.9483
G01 X10.8398 Y8.9287
G01 X10.8169 Y8.9169
G01 X10.7701 Y8.8888
G01 X10.7558 Y8.8793
G01 X10.7404 Y8.8679
G01 X7.3789 Y8.8659
G01 X7.3632 Y8.8982
G01 X7.3421 Y8.9341
G01 X7.3280 Y8.9557
G01 X7.3032 Y8.9892
G01 X7.2866 Y9.0090
G01 X7.2583 Y9.0396
G01 X7.2276 Y9.0679
G01 X7.2079 Y9.0845
G01 X7.1744 Y9.1093
G01 X7.1528 Y9.1234
G01 X7.1168 Y9.1445
G01 X7.1015 Y9.1522
G01 X7.0715 Y9.1663
G01 X7.0476 Y9.1758
G01 X7.0082 Y9.1895
G01 X6.9678 Y9.2000
G01 X6.9426 Y9.2054
G01 X6.9099 Y9.2103
G01 X6.8928 Y9.2124
G01 X6.8757 Y9.2137
G01 X6.8340 Y9.2153
G01 X5.3340 Y9.2153
G01 X5.2923 Y9.2137
G01 X5.2752 Y9.2124
G01 X5.2581 Y9.2103
G01 X5.2254 Y9.2054
G01 X5.2002 Y9.2000
G01 X5.1681 Y9.1919
G01 X5.1516 Y9.1869
G01 X5.1204 Y9.1758
G01 X5.1044 Y9.1696
G01 X5.0887 Y9.1627
G01 X5.0588 Y9.1484
G01 X5.0436 Y9.1403
G01 X5.0152 Y9.1234
G01 X4.9936 Y9.1093
G01 X4.9669 Y9.0897
G01 X4.9534 Y9.0791
G01 X4.9404 Y9.0679
G01 X4.9159 Y9.0456
G01 X4.8979 Y9.0271
G01 X4.8757 Y9.0025
G01 X4.8648 Y8.9892
G01 X4.8450 Y8.9627
G01 X4.8351 Y8.9487
G01 X4.8259 Y8.9341
G01 X4.8090 Y8.9057
G01 X4.7971 Y8.8828
G01 X4.7831 Y8.8528
G01 X4.7765 Y8.8369
G01 X4.7652 Y8.8058
G01 X4.7598 Y8.7895
G01 X4.7553 Y8.7729
G01 X4.7473 Y8.7408
G01 X4.7426 Y8.7154
G01 X4.7369 Y8.6741
G01 X4.7356 Y8.6570
G01 X4.7341 Y8.6239
G01 X4.7341 Y7.4067
G01 X4.7356 Y7.3736
G01 X4.7369 Y7.3565
G01 X4.7390 Y7.3395
G01 X4.7455 Y7.2983
G01 X4.7493 Y7.2815
G01 X4.7598 Y7.2411
G01 X4.7735 Y7.2017
G01 X4.7797 Y7.1857
G01 X4.7866 Y7.1700
G01 X4.8048 Y7.1325
G01 X4.8259 Y7.0965
G01 X4.8351 Y7.0820
G01 X4.8450 Y7.0679
G01 X4.8702 Y7.0347
G01 X4.8979 Y7.0035
G01 X4.9097 Y6.9910
G01 X4.9222 Y6.9792
G01 X4.9534 Y6.9515
G01 X4.9866 Y6.9263
G01 X5.0007 Y6.9164
G01 X5.0152 Y6.9072
G01 X5.0512 Y6.8862
G01 X5.0665 Y6.8784
G01 X5.0965 Y6.8644
G01 X5.1124 Y6.8578
G01 X5.1516 Y6.8437
G01 X5.1681 Y6.8388
G01 X5.2085 Y6.8286
G01 X5.2254 Y6.8253
G01 X5.2667 Y6.8191
G01 X5.2837 Y6.8175
G01 X5.3168 Y6.8157
G00 Z1.7000
G00 X11.9482 Y6.4669
F60.00
G01 Z-0.2800
F100.00
G01 X11.9310 Y6.4673
G01 X11.1604 Y6.4672
G01 X11.1059 Y6.4645
G01 X11.0803 Y6.4617
G01 X11.0433 Y6.4562
G01 X11.0264 Y6.4533
G01 X11.0096 Y6.4495
G01 X10.9651 Y6.4382
G01 X10.9405 Y6.4304
G01 X10.9053 Y6.4179
G01 X10.8893 Y6.4117
G01 X10.8736 Y6.4047
G01 X10.8398 Y6.3887
G01 X10.8244 Y6.3810
G01 X10.8095 Y6.3725
G01 X10.7774 Y6.3533
G01 X10.7629 Y6.3441
G01 X10.7488 Y6.3342
G01 X10.7188 Y6.3120
G01 X10.7053 Y6.3014
G01 X10.6923 Y6.2902
G01 X10.6645 Y6.2651
G01 X10.6521 Y6.2532
G01 X10.6403 Y6.2408
G01 X10.6152 Y6.2131
G01 X10.6039 Y6.2001
G01 X10.5934 Y6.1865
G01 X10.5711 Y6.1565
G01 X10.5612 Y6.1424
G01 X10.5520 Y6.1279
G01 X10.5328 Y6.0959
G01 X10.5243 Y6.0809
G01 X10.5166 Y6.0656
G01 X10.5006 Y6.0318
G01 X10.4936 Y6.0161
G01 X10.4875 Y6.0000
G01 X10.4749 Y5.9648
G01 X10.4671 Y5.9403
G01 X10.4558 Y5.8957
G01 X10.4505 Y5.8705
G01 X10.4425 Y5.8165
G01 X10.4403 Y5.7908
G01 X10.4384 Y5.7535
G01 X10.4380 Y5.7363
G01 X10.4380 Y4.9743
G01 X10.4384 Y4.9571
G01 X10.4403 Y4.9198
G01 X10.4415 Y4.9027
G01 X10.4436 Y4.8856
G01 X10.4505 Y4.8401
G01 X10.4558 Y4.8149
G01 X10.4649 Y4.7787
G01 X10.4695 Y4.7621
G01 X10.4749 Y4.7458
G01 X10.4875 Y4.7106
G01 X10.4936 Y4.6946
G01 X10.5006 Y4.6789
G01 X10.5166 Y4.6451
G01 X10.5285 Y4.6222
G01 X10.5565 Y4.5754
G01 X10.5711 Y4.5541
G01 X10.5986 Y4.5173
G01 X10.6152 Y4.4976
G01 X10.6403 Y4.4699
G01 X10.6521 Y4.4574
G01 X10.6645 Y4.4456
G01 X10.6923 Y4.4205
G01 X10.7120 Y4.4039
G01 X10.7558 Y4.3714
G01 X10.7774 Y4.3573
G01 X10.8095 Y4.3381
G01 X10.8244 Y4.3296
G01 X10.8398 Y4.3219
G01 X10.8736 Y4.3059
G01 X10.8893 Y4.2990
G01 X10.9053 Y4.2928
G01 X10.9405 Y4.2802
G01 X10.9651 Y4.2724
G01 X11.0096 Y4.2611
G01 X11.0348 Y4.2558
G01 X11.0888 Y4.2478
G01 X11.1145 Y4.2456
G01 X11.1518 Y4.2437
G01 X11.1690 Y4.2433
G01 X11.9310 Y4.2433
G01 X11.9482 Y4.2437
G01 X11.9855 Y4.2456
G01 X12.0027 Y4.2468
G01 X12.0197 Y4.2489
G01 X12.0652 Y4.2558
G01 X12.0904 Y4.2611
G01 X12.1266 Y4.2702
G01 X12.1432 Y4.2748
G01 X12.1595 Y4.2802
G01 X12.1947 Y4.2928
G01 X12.2107 Y4.2990
G01 X12.2264 Y4.3059
G01 X12.2602 Y4.3219
G01 X12.2831 Y4.3338
G01 X12.3299 Y4.3618
G01 X12.3512 Y4.3764
G01 X12.3880 Y4.4039
G01 X12.4077 Y4.4205
G01 X12.4355 Y4.4456
G01 X12.4479 Y4.4574
G01 X12.4597 Y4.4699
G01 X12.4848 Y4.4976
G01 X12.5014 Y4.5173
G01 X12.5339 Y4.5611
G01 X12.5480 Y4.5827
G01 X12.5672 Y4.6148
G01 X12.5757 Y4.6297
G01 X12.5834 Y4.6451
G01 X12.5994 Y4.6789
G01 X12.6095 Y4.7025
G01 X12.6279 Y4.7539
G01 X12.6351 Y4.7787
G01 X12.6442 Y4.8149
G01 X12.6480 Y4.8317
G01 X12.6509 Y4.8486
G01 X12.6564 Y4.8856
G01 X12.6592 Y4.9112
G01 X12.6616 Y4.9571
G01 X12.6620 Y4.9743
G01 X12.6619 Y5.7449
G01 X12.6597 Y5.7908
G01 X12.6585 Y5.8080
G01 X12.6564 Y5.8250
G01 X12.6509 Y5.8620
G01 X12.6480 Y5.8789
G01 X12.6442 Y5.8957
G01 X12.6329 Y5.9403
G01 X12.6279 Y5.9567
G01 X12.6125 Y6.0000
G01 X12.6064 Y6.0161
G01 X12.5994 Y6.0318
G01 X12.5834 Y6.0656
G01 X12.5757 Y6.0809
G01 X12.5672 Y6.0959
G01 X12.5435 Y6.1352
G01 X12.5339 Y6.1495
G01 X12.5066 Y6.1865
G01 X12.4961 Y6.2001
G01 X12.4848 Y6.2131
G01 X12.4539 Y6.2471
G01 X12.4417 Y6.2592
G01 X12.4077 Y6.2902
G01 X12.3947 Y6.3014
G01 X12.3812 Y6.3120
G01 X12.3512 Y6.3342
G01 X12.3371 Y6.3441
G01 X12.3226 Y6.3533
G01 X12.2905 Y6.3725
G01 X12.2756 Y6.3810
G01 X12.2602 Y6.3887
G01 X12.2264 Y6.4047
G01 X12.2107 Y6.4117
G01 X12.1947 Y6.4179
G01 X12.1595 Y6.4304
G01 X12.1432 Y6.4358
G01 X12.1266 Y6.4404
G01 X12.0820 Y6.4515
G01 X12.0652 Y6.4548
G01 X12.0197 Y6.4617
G01 X12.0027 Y6.4638
G01 X11.9855 Y6.4651
G01 X11.9482 Y6.4669
G00 Z1.7000
G00 X10.7880 Y14.0873
F60.00
G01 Z-0.2800
F100.00
G01 X10.7708 Y14.0869
G01 X10.7537 Y14.0856
G01 X10.7366 Y14.0835
G01 X10.7197 Y14.0806
G01 X10.7030 Y14.0768
G01 X10.6864 Y14.0722
G01 X10.6701 Y14.0669
G01 X10.6541 Y14.0607
G01 X10.6384 Y14.0537
G01 X10.6230 Y14.0460
G01 X10.6008 Y14.0330
G01 X10.5865 Y14.0235
G01 X10.5727 Y14.0132
G01 X10.5594 Y14.0023
G01 X10.5467 Y13.9908
G01 X10.5345 Y13.9787
G01 X10.5230 Y13.9659
G01 X10.5121 Y13.9526
G01 X10.5018 Y13.9388
G01 X10.4923 Y13.9246
G01 X10.4835 Y13.9098
G01 X10.4716 Y13.8870
G01 X10.4615 Y13.8633
G01 X10.4557 Y13.8471
G01 X10.4507 Y13.8307
G01 X10.4465 Y13.8140
G01 X10.4432 Y13.7971
G01 X10.4406 Y13.7802
G01 X10.4389 Y13.7631
G01 X10.4380 Y13.7373
G01 X10.4380 Y12.2133
G01 X10.4384 Y12.1961
G01 X10.4397 Y12.1790
G01 X10.4418 Y12.1620
G01 X10.4465 Y12.1366
G01 X10.4531 Y12.1117
G01 X10.4585 Y12.0954
G01 X10.4646 Y12.0794
G01 X10.4754 Y12.0559
G01 X10.4878 Y12.0334
G01 X10.4970 Y12.0189
G01 X10.5069 Y12.0048
G01 X10.5230 Y11.9847
G01 X10.5345 Y11.9720
G01 X10.5530 Y11.9540
G01 X10.5660 Y11.9428
G01 X10.5865 Y11.9272
G01 X10.6008 Y11.9176
G01 X10.6230 Y11.9046
G01 X10.6462 Y11.8933
G01 X10.6620 Y11.8868
G01 X10.6782 Y11.8810
G01 X10.6947 Y11.8760
G01 X10.7113 Y11.8718
G01 X10.7366 Y11.8671
G01 X10.7623 Y11.8643
G01 X10.7794 Y11.8634
G01 X12.3206 Y11.8634
G01 X12.3463 Y11.8650
G01 X12.3718 Y11.8685
G01 X12.3887 Y11.8718
G01 X12.4136 Y11.8784
G01 X12.4299 Y11.8838
G01 X12.4538 Y11.8933
G01 X12.4770 Y11.9046
G01 X12.4949 Y11.9149
G01 X14.2500 Y11.9149
G01 X14.2672 Y11.9154
G01 X14.3407 Y11.9190
G01 X14.3664 Y11.9212
G01 X14.4477 Y11.9331
G01 X14.4647 Y11.9361
G01 X14.4814 Y11.9398
G01 X14.5529 Y11.9577
G01 X14.5694 Y11.9623
G01 X14.5857 Y11.9677
G01 X14.6551 Y11.9925
G01 X14.6790 Y12.0021
G01 X14.7534 Y12.0371
G01 X14.7687 Y12.0449
G01 X14.7837 Y12.0533
G01 X14.8468 Y12.0912
G01 X14.8613 Y12.1004
G01 X14.8754 Y12.1103
G01 X14.9345 Y12.1541
G01 X14.9481 Y12.1647
G01 X14.9611 Y12.1759
G01 X15.0219 Y12.2312
G01 X19.1372 Y16.3464
G01 X19.2444 Y16.3732
G01 X19.2609 Y16.3777
G01 X19.2772 Y16.3831
G01 X19.3789 Y16.4195
G01 X19.3949 Y16.4257
G01 X19.4106 Y16.4326
G01 X19.5082 Y16.4788
G01 X19.5235 Y16.4865
G01 X19.5385 Y16.4950
G01 X19.6311 Y16.5505
G01 X19.6456 Y16.5597
G01 X19.6596 Y16.5696
G01 X19.7463 Y16.6339
G01 X19.7599 Y16.6444
G01 X19.7729 Y16.6557
G01 X19.8529 Y16.7282
G01 X19.8653 Y16.7400
G01 X19.8772 Y16.7524
G01 X19.9553 Y16.8389
G01 X19.9714 Y16.8590
G01 X20.0357 Y16.9457
G01 X20.0456 Y16.9597
G01 X20.0548 Y16.9742
G01 X20.1103 Y17.0668
G01 X20.1188 Y17.0818
G01 X20.1265 Y17.0971
G01 X20.1727 Y17.1947
G01 X20.1796 Y17.2104
G01 X20.1858 Y17.2264
G01 X20.2222 Y17.3281
G01 X20.2276 Y17.3444
G01 X20.2321 Y17.3610
G01 X20.2584 Y17.4657
G01 X20.2621 Y17.4824
G01 X20.2651 Y17.4994
G01 X20.2809 Y17.6061
G01 X20.2830 Y17.6232
G01 X20.2843 Y17.6403
G01 X20.2896 Y17.7481
G01 X20.2900 Y17.7653
G01 X20.2896 Y17.7825
G01 X20.2843 Y17.8903
G01 X20.2830 Y17.9074
G01 X20.2809 Y17.9245
G01 X20.2651 Y18.0313
G01 X20.2621 Y18.0482
G01 X20.2584 Y18.0650
G01 X20.2321 Y18.1697
G01 X20.2276 Y18.1862
G01 X20.2222 Y18.2025
G01 X20.1858 Y18.3042
G01 X20.1762 Y18.3281
G01 X20.1265 Y18.4335
G01 X20.1188 Y18.4488
G01 X20.1103 Y18.4638
G01 X20.0548 Y18.5564
G01 X20.0456 Y18.5709
G01 X20.0357 Y18.5849
G01 X19.9714 Y18.6716
G01 X19.9609 Y18.6852
G01 X19.9496 Y18.6982
G01 X19.8772 Y18.7782
G01 X19.8653 Y18.7906
G01 X19.8529 Y18.8025
G01 X19.7729 Y18.8750
G01 X19.7599 Y18.8862
G01 X19.7463 Y18.8967
G01 X19.6596 Y18.9611
G01 X19.6456 Y18.9709
G01 X19.6311 Y18.9801
G01 X19.5385 Y19.0356
G01 X19.5235 Y19.0441
G01 X19.5082 Y19.0518
G01 X19.4106 Y19.0980
G01 X19.3949 Y19.1049
G01 X19.3789 Y19.1111
G01 X19.2772 Y19.1475
G01 X19.2609 Y19.1529
G01 X19.2444 Y19.1575
G01 X19.1396 Y19.1837
G01 X19.1229 Y19.1875
G01 X19.1060 Y19.1904
G01 X18.9992 Y19.2062
G01 X18.9821 Y19.2083
G01 X18.9650 Y19.2096
G01 X18.8572 Y19.2149
G01 X18.8400 Y19.2153
G01 X18.8228 Y19.2149
G01 X18.7150 Y19.2096
G01 X18.6979 Y19.2083
G01 X18.6808 Y19.2062
G01 X18.5740 Y19.1904
G01 X18.5571 Y19.1875
G01 X18.5404 Y19.1837
G01 X18.4356 Y19.1575
G01 X18.4191 Y19.1529
G01 X18.4028 Y19.1475
G01 X18.3011 Y19.1111
G01 X18.2772 Y19.1016
G01 X18.1718 Y19.0518
G01 X18.1565 Y19.0441
G01 X18.1415 Y19.0356
G01 X18.0489 Y18.9801
G01 X18.0344 Y18.9709
G01 X18.0204 Y18.9611
G01 X17.9337 Y18.8967
G01 X17.9201 Y18.8862
G01 X17.9071 Y18.8750
G01 X17.8271 Y18.8025
G01 X17.8147 Y18.7906
G01 X17.8028 Y18.7782
G01 X17.7304 Y18.6982
G01 X17.7191 Y18.6852
G01 X17.7086 Y18.6716
G01 X17.6443 Y18.5849
G01 X17.6297 Y18.5637
G01 X17.5697 Y18.4638
G01 X17.5612 Y18.4488
G01 X17.5535 Y18.4335
G01 X17.5073 Y18.3359
G01 X17.5004 Y18.3202
G01 X17.4942 Y18.3042
G01 X17.4578 Y18.2025
G01 X17.4500 Y18.1780
G01 X17.4216 Y18.0650
G01 X17.4179 Y18.0482
G01 X17.4149 Y18.0313
G01 X17.3979 Y17.9160
G01 X17.3957 Y17.8903
G01 X17.3901 Y17.7739
G01 X17.3901 Y17.7567
G01 X17.3921 Y17.7136
G01 X13.7942 Y14.1157
G01 X11.7500 Y14.1157
G01 X11.7328 Y14.1153
G01 X11.6593 Y14.1117
G01 X11.6336 Y14.1094
G01 X11.5438 Y14.0961
G01 X11.5269 Y14.0928
G01 X11.5047 Y14.0873
G01 X10.7880 Y14.0873
G00 Z1.7000
G00 X8.1250 Y25.4653
F60.00
G01 Z-0.2800
F100.00
G01 X8.1078 Y25.4649
G01 X8.0245 Y25.4608
G01 X8.0074 Y25.4595
G01 X7.9903 Y25.4574
G01 X7.9078 Y25.4452
G01 X7.8909 Y25.4423
G01 X7.8741 Y25.4385
G01 X7.7932 Y25.4182
G01 X7.7767 Y25.4136
G01 X7.7603 Y25.4083
G01 X7.6818 Y25.3802
G01 X7.6658 Y25.3740
G01 X7.6501 Y25.3670
G01 X7.5747 Y25.3313
G01 X7.5593 Y25.3236
G01 X7.5444 Y25.3152
G01 X7.4728 Y25.2723
G01 X7.4583 Y25.2631
G01 X7.4443 Y25.2532
G01 X7.3773 Y25.2035
G01 X7.3637 Y25.1929
G01 X7.3507 Y25.1817
G01 X7.2889 Y25.1257
G01 X7.2765 Y25.1138
G01 X7.2646 Y25.1014
G01 X7.2086 Y25.0396
G01 X7.1974 Y25.0266
G01 X7.1868 Y25.0130
G01 X7.1371 Y24.9460
G01 X7.1272 Y24.9320
G01 X7.1180 Y24.9175
G01 X7.0752 Y24.8459
G01 X7.0667 Y24.8310
G01 X7.0590 Y24.8156
G01 X7.0233 Y24.7402
G01 X7.0163 Y24.7245
G01 X7.0102 Y24.7085
G01 X6.9821 Y24.6300
G01 X6.9767 Y24.6137
G01 X6.9721 Y24.5971
G01 X6.9518 Y24.5162
G01 X6.9481 Y24.4994
G01 X6.9451 Y24.4825
G01 X6.9329 Y24.4000
G01 X6.9308 Y24.3829
G01 X6.9295 Y24.3658
G01 X6.9254 Y24.2825
G01 X6.9250 Y24.2653
G01 X6.9254 Y24.2481
G01 X6.9295 Y24.1648
G01 X6.9308 Y24.1477
G01 X6.9329 Y24.1306
G01 X6.9451 Y24.0481
G01 X6.9481 Y24.0312
G01 X6.9518 Y24.0144
G01 X6.9721 Y23.9335
G01 X6.9767 Y23.9170
G01 X6.9821 Y23.9007
G01 X7.0102 Y23.8221
G01 X7.0163 Y23.8061
G01 X7.0233 Y23.7904
G01 X7.0590 Y23.7150
G01 X7.0667 Y23.6996
G01 X7.0752 Y23.6847
G01 X7.1180 Y23.6131
G01 X7.1272 Y23.5986
G01 X7.1371 Y23.5846
G01 X7.1868 Y23.5176
G01 X7.1974 Y23.5040
G01 X7.2086 Y23.4910
G01 X7.2646 Y23.4292
G01 X7.2765 Y23.4168
G01 X7.2889 Y23.4049
G01 X7.3507 Y23.3489
G01 X7.3637 Y23.3377
G01 X7.3773 Y23.3271
G01 X7.4443 Y23.2774
G01 X7.4583 Y23.2675
G01 X7.4728 Y23.2584
G01 X7.5444 Y23.2155
G01 X7.5593 Y23.2070
G01 X7.5747 Y23.1993
G01 X7.6501 Y23.1636
G01 X7.6658 Y23.1567
G01 X7.6818 Y23.1505
G01 X7.7603 Y23.1224
G01 X7.7767 Y23.1170
G01 X7.7932 Y23.1124
G01 X7.8741 Y23.0921
G01 X7.8909 Y23.0884
G01 X7.9078 Y23.0854
G01 X7.9903 Y23.0732
G01 X8.0074 Y23.0711
G01 X8.0245 Y23.0698
G01 X8.1078 Y23.0657
G01 X8.1250 Y23.0653
G01 X8.3836 Y23.0654
G01 X8.4841 Y23.0704
G01 X8.5097 Y23.0732
G01 X8.5922 Y23.0854
G01 X8.6091 Y23.0884
G01 X8.6259 Y23.0921
G01 X8.7151 Y23.1146
G01 X8.7397 Y23.1224
G01 X8.8182 Y23.1505
G01 X8.8342 Y23.1567
G01 X8.8527 Y23.1649
G01 X9.5000 Y23.1649
G01 X9.5172 Y23.1654
G01 X9.5907 Y23.1690
G01 X9.6164 Y23.1712
G01 X9.6977 Y23.1831
G01 X9.7147 Y23.1861
G01 X9.7314 Y23.1898
G01 X9.8029 Y23.2077
G01 X9.8194 Y23.2123
G01 X9.8357 Y23.2177
G01 X9.9051 Y23.2425
G01 X9.9211 Y23.2487
G01 X9.9368 Y23.2557
G01 X10.0034 Y23.2871
G01 X10.0262 Y23.2990
G01 X10.0968 Y23.3412
G01 X10.1113 Y23.3504
G01 X10.1254 Y23.3603
G01 X10.1845 Y23.4041
G01 X10.2046 Y23.4202
G01 X10.2719 Y23.4812
G01 X12.2058 Y25.4149
G01 X15.3547 Y25.4149
G01 X15.3465 Y25.4067
G01 X15.3350 Y25.3939
G01 X15.3241 Y25.3806
G01 X15.3138 Y25.3668
G01 X15.3043 Y25.3526
G01 X15.2955 Y25.3378
G01 X15.2874 Y25.3227
G01 X15.2800 Y25.3071
G01 X15.2735 Y25.2913
G01 X15.2677 Y25.2751
G01 X15.2605 Y25.2504
G01 X15.2567 Y25.2336
G01 X15.2538 Y25.2167
G01 X15.2517 Y25.1996
G01 X15.2504 Y25.1825
G01 X15.2500 Y25.1653
G01 X15.2500 Y23.3653
G01 X15.2504 Y23.3481
G01 X15.2526 Y23.3225
G01 X15.2567 Y23.2970
G01 X15.2605 Y23.2803
G01 X15.2651 Y23.2637
G01 X15.2735 Y23.2393
G01 X15.2836 Y23.2157
G01 X15.2913 Y23.2003
G01 X15.3043 Y23.1781
G01 X15.3138 Y23.1638
G01 X15.3294 Y23.1433
G01 X15.3407 Y23.1303
G01 X15.3587 Y23.1118
G01 X15.3714 Y23.1003
G01 X15.3847 Y23.0894
G01 X15.3996 Y23.0784
G01 X15.3996 Y20.2211
G01 X13.7702 Y18.5917
G01 X3.3744 Y18.5917
G01 X3.3744 Y27.2413
G01 X3.3740 Y27.2585
G01 X3.3703 Y27.3320
G01 X3.3691 Y27.3492
G01 X3.3670 Y27.3662
G01 X3.3562 Y27.4391
G01 X3.3532 Y27.4560
G01 X3.3504 Y27.4689
G01 X3.3504 Y36.9149
G01 X5.8723 Y36.9149
G01 X5.8908 Y36.9067
G01 X5.9068 Y36.9005
G01 X5.9935 Y36.8696
G01 X6.0182 Y36.8624
G01 X6.0991 Y36.8421
G01 X6.1159 Y36.8384
G01 X6.1328 Y36.8354
G01 X6.2153 Y36.8232
G01 X6.2409 Y36.8204
G01 X6.3328 Y36.8157
G01 X6.3500 Y36.8153
G01 X6.6586 Y36.8154
G01 X6.7505 Y36.8198
G01 X6.7676 Y36.8211
G01 X6.7847 Y36.8232
G01 X6.8672 Y36.8354
G01 X6.8841 Y36.8384
G01 X6.9009 Y36.8421
G01 X6.9818 Y36.8624
G01 X6.9983 Y36.8670
G01 X7.0147 Y36.8724
G01 X7.0932 Y36.9005
G01 X7.1092 Y36.9067
G01 X7.1249 Y36.9136
G01 X7.2003 Y36.9493
G01 X7.2157 Y36.9570
G01 X7.2306 Y36.9655
G01 X7.3022 Y37.0084
G01 X7.3167 Y37.0175
G01 X7.3307 Y37.0274
G01 X7.4046 Y37.0823
G01 X7.4243 Y37.0989
G01 X7.4861 Y37.1549
G01 X7.4985 Y37.1668
G01 X7.5104 Y37.1792
G01 X7.5664 Y37.2410
G01 X7.5776 Y37.2540
G01 X7.5882 Y37.2676
G01 X7.6379 Y37.3346
G01 X7.6478 Y37.3486
G01 X7.6570 Y37.3631
G01 X7.6998 Y37.4347
G01 X7.7083 Y37.4496
G01 X7.7160 Y37.4650
G01 X7.7517 Y37.5404
G01 X7.7587 Y37.5561
G01 X7.7648 Y37.5721
G01 X7.7929 Y37.6507
G01 X7.7983 Y37.6670
G01 X7.8029 Y37.6835
G01 X7.8252 Y37.7728
G01 X7.8299 Y37.7981
G01 X7.8421 Y37.8806
G01 X7.8442 Y37.8977
G01 X7.8455 Y37.9148
G01 X7.8496 Y37.9981
G01 X7.8500 Y38.0153
G01 X7.8496 Y38.0325
G01 X7.8455 Y38.1158
G01 X7.8442 Y38.1329
G01 X7.8421 Y38.1500
G01 X7.8299 Y38.2325
G01 X7.8252 Y38.2578
G01 X7.8029 Y38.3471
G01 X7.7983 Y38.3637
G01 X7.7929 Y38.3800
G01 X7.7648 Y38.4585
G01 X7.7587 Y38.4745
G01 X7.7517 Y38.4902
G01 X7.7160 Y38.5656
G01 X7.7083 Y38.5810
G01 X7.6998 Y38.5959
G01 X7.6570 Y38.6675
G01 X7.6478 Y38.6820
G01 X7.6379 Y38.6960
G01 X7.5882 Y38.7630
G01 X7.5776 Y38.7766
G01 X7.5664 Y38.7896
G01 X7.5104 Y38.8514
G01 X7.4985 Y38.8638
G01 X7.4861 Y38.8757
G01 X7.4243 Y38.9317
G01 X7.4046 Y38.9483
G01 X7.3307 Y39.0032
G01 X7.3167 Y39.0131
G01 X7.3022 Y39.0223
G01 X7.2306 Y39.0652
G01 X7.2157 Y39.0736
G01 X7.2003 Y39.0813
G01 X7.1249 Y39.1170
G01 X7.1092 Y39.1240
G01 X7.0932 Y39.1302
G01 X7.0147 Y39.1583
G01 X6.9983 Y39.1636
G01 X6.9818 Y39.1682
G01 X6.9009 Y39.1885
G01 X6.8841 Y39.1923
G01 X6.8672 Y39.1952
G01 X6.7847 Y39.2074
G01 X6.7676 Y39.2095
G01 X6.7505 Y39.2108
G01 X6.6586 Y39.2152
G01 X6.3500 Y39.2153
G01 X6.3328 Y39.2149
G01 X6.2409 Y39.2103
G01 X6.2153 Y39.2074
G01 X6.1328 Y39.1952
G01 X6.1159 Y39.1923
G01 X6.0991 Y39.1885
G01 X6.0182 Y39.1682
G01 X5.9935 Y39.1610
G01 X5.9068 Y39.1302
G01 X5.8908 Y39.1240
G01 X5.8723 Y39.1157
G01 X3.3504 Y39.1157
G01 X3.3504 Y47.4149
G01 X5.6223 Y47.4149
G01 X5.6408 Y47.4067
G01 X5.6568 Y47.4005
G01 X5.7353 Y47.3724
G01 X5.7517 Y47.3670
G01 X5.7682 Y47.3624
G01 X5.8491 Y47.3421
G01 X5.8743 Y47.3368
G01 X5.9653 Y47.3232
G01 X5.9909 Y47.3204
G01 X6.0914 Y47.3154
G01 X6.1712 Y47.3153
G01 X6.0949 Y47.2881
G01 X6.0710 Y47.2785
G01 X5.9889 Y47.2397
G01 X5.9738 Y47.2316
G01 X5.9464 Y47.2153
G01 X5.5000 Y47.2153
G01 X5.4828 Y47.2149
G01 X5.4497 Y47.2132
G01 X5.4241 Y47.2103
G01 X5.3914 Y47.2054
G01 X5.3745 Y47.2020
G01 X5.3424 Y47.1941
G01 X5.3258 Y47.1895
G01 X5.3095 Y47.1841
G01 X5.2784 Y47.1728
G01 X5.2547 Y47.1627
G01 X5.2172 Y47.1445
G01 X5.1812 Y47.1234
G01 X5.1667 Y47.1142
G01 X5.1526 Y47.1043
G01 X5.1194 Y47.0791
G01 X5.0882 Y47.0514
G01 X5.0757 Y47.0396
G01 X5.0639 Y47.0271
G01 X5.0362 Y46.9959
G01 X5.0110 Y46.9627
G01 X4.9964 Y46.9415
G01 X4.9750 Y46.9057
G01 X4.9669 Y46.8905
G01 X4.9491 Y46.8528
G01 X4.9395 Y46.8289
G01 X4.9284 Y46.7977
G01 X4.9234 Y46.7812
G01 X4.9153 Y46.7491
G01 X4.9115 Y46.7324
G01 X4.9050 Y46.6912
G01 X4.9029 Y46.6741
G01 X4.9016 Y46.6570
G01 X4.9001 Y46.6239
G01 X4.9000 Y45.4153
G01 X4.9016 Y45.3736
G01 X4.9029 Y45.3565
G01 X4.9050 Y45.3395
G01 X4.9100 Y45.3067
G01 X4.9153 Y45.2815
G01 X4.9258 Y45.2411
G01 X4.9312 Y45.2248
G01 X4.9425 Y45.1937
G01 X4.9526 Y45.1700
G01 X4.9708 Y45.1325
G01 X4.9793 Y45.1175
G01 X4.9964 Y45.0892
G01 X5.0110 Y45.0679
G01 X5.0362 Y45.0347
G01 X5.0639 Y45.0035
G01 X5.0819 Y44.9850
G01 X5.1064 Y44.9627
G01 X5.1194 Y44.9515
G01 X5.1526 Y44.9263
G01 X5.1739 Y44.9117
G01 X5.2096 Y44.8903
G01 X5.2325 Y44.8784
G01 X5.2704 Y44.8610
G01 X5.3095 Y44.8465
G01 X5.3258 Y44.8411
G01 X5.3662 Y44.8306
G01 X5.3829 Y44.8268
G01 X5.4241 Y44.8203
G01 X5.4412 Y44.8182
G01 X5.4583 Y44.8169
G01 X5.4914 Y44.8154
G01 X7.0086 Y44.8154
G01 X7.0417 Y44.8169
G01 X7.0588 Y44.8182
G01 X7.1001 Y44.8239
G01 X7.1255 Y44.8286
G01 X7.1576 Y44.8366
G01 X7.1742 Y44.8411
G01 X7.1905 Y44.8465
G01 X7.2216 Y44.8578
G01 X7.2453 Y44.8679
G01 X7.2828 Y44.8862
G01 X7.2978 Y44.8946
G01 X7.3310 Y44.9149
G01 X9.3996 Y44.9149
G01 X9.3996 Y36.3657
G01 X7.7950 Y36.3657
G01 X7.7792 Y36.3982
G01 X7.7707 Y36.4131
G01 X7.7536 Y36.4415
G01 X7.7390 Y36.4627
G01 X7.7138 Y36.4959
G01 X7.7026 Y36.5090
G01 X7.6803 Y36.5334
G01 X7.6618 Y36.5514
G01 X7.6306 Y36.5791
G01 X7.6171 Y36.5897
G01 X7.5904 Y36.6093
G01 X7.5688 Y36.6234
G01 X7.5328 Y36.6445
G01 X7.5175 Y36.6522
G01 X7.4875 Y36.6663
G01 X7.4636 Y36.6758
G01 X7.4242 Y36.6895
G01 X7.4076 Y36.6941
G01 X7.3755 Y36.7020
G01 X7.3586 Y36.7054
G01 X7.3259 Y36.7103
G01 X7.3003 Y36.7132
G01 X7.2672 Y36.7149
G01 X7.2500 Y36.7153
G01 X5.7414 Y36.7152
G01 X5.7083 Y36.7137
G01 X5.6912 Y36.7124
G01 X5.6741 Y36.7103
G01 X5.6329 Y36.7038
G01 X5.6162 Y36.7000
G01 X5.5758 Y36.6895
G01 X5.5595 Y36.6841
G01 X5.5284 Y36.6728
G01 X5.5047 Y36.6627
G01 X5.4672 Y36.6445
G01 X5.4312 Y36.6234
G01 X5.4167 Y36.6142
G01 X5.3829 Y36.5897
G01 X5.3628 Y36.5736
G01 X5.3319 Y36.5456
G01 X5.3139 Y36.5271
G01 X5.2862 Y36.4959
G01 X5.2610 Y36.4627
G01 X5.2464 Y36.4415
G01 X5.2250 Y36.4057
G01 X5.2131 Y36.3828
G01 X5.1957 Y36.3449
G01 X5.1812 Y36.3058
G01 X5.1758 Y36.2895
G01 X5.1713 Y36.2729
G01 X5.1633 Y36.2408
G01 X5.1586 Y36.2154
G01 X5.1529 Y36.1741
G01 X5.1516 Y36.1570
G01 X5.1501 Y36.1239
G01 X5.1500 Y35.4715
G01 X4.7159 Y35.0372
G01 X4.6606 Y34.9764
G01 X4.6494 Y34.9634
G01 X4.6388 Y34.9498
G01 X4.5950 Y34.8907
G01 X4.5851 Y34.8766
G01 X4.5759 Y34.8621
G01 X4.5380 Y34.7990
G01 X4.5296 Y34.7840
G01 X4.5218 Y34.7687
G01 X4.4903 Y34.7021
G01 X4.4834 Y34.6864
G01 X4.4772 Y34.6704
G01 X4.4524 Y34.6010
G01 X4.4470 Y34.5847
G01 X4.4424 Y34.5682
G01 X4.4245 Y34.4967
G01 X4.4208 Y34.4800
G01 X4.4178 Y34.4631
G01 X4.4070 Y34.3902
G01 X4.4049 Y34.3732
G01 X4.4037 Y34.3560
G01 X4.4000 Y34.2825
G01 X4.3996 Y34.2653
G01 X4.3997 Y21.7567
G01 X4.4037 Y21.6746
G01 X4.4049 Y21.6575
G01 X4.4070 Y21.6404
G01 X4.4178 Y21.5676
G01 X4.4208 Y21.5506
G01 X4.4245 Y21.5339
G01 X4.4424 Y21.4624
G01 X4.4470 Y21.4459
G01 X4.4524 Y21.4296
G01 X4.4772 Y21.3602
G01 X4.4834 Y21.3442
G01 X4.4903 Y21.3285
G01 X4.5218 Y21.2619
G01 X4.5296 Y21.2466
G01 X4.5380 Y21.2317
G01 X4.5759 Y21.1685
G01 X4.5851 Y21.1540
G01 X4.5950 Y21.1399
G01 X4.6388 Y21.0808
G01 X4.6494 Y21.0672
G01 X4.6606 Y21.0542
G01 X4.7101 Y20.9997
G01 X4.7281 Y20.9812
G01 X4.7889 Y20.9259
G01 X4.8019 Y20.9147
G01 X4.8155 Y20.9041
G01 X4.8746 Y20.8603
G01 X4.8887 Y20.8504
G01 X4.9032 Y20.8412
G01 X4.9663 Y20.8033
G01 X4.9813 Y20.7949
G01 X4.9966 Y20.7871
G01 X5.0632 Y20.7557
G01 X5.0869 Y20.7455
G01 X5.1643 Y20.7177
G01 X5.1806 Y20.7123
G01 X5.1971 Y20.7077
G01 X5.2686 Y20.6898
G01 X5.2853 Y20.6861
G01 X5.3023 Y20.6831
G01 X5.3751 Y20.6723
G01 X5.3921 Y20.6702
G01 X5.4093 Y20.6690
G01 X5.4828 Y20.6654
G01 X5.5000 Y20.6649
G01 X7.1940 Y20.6649
G01 X7.2062 Y20.6572
G01 X7.2346 Y20.6403
G01 X7.2575 Y20.6284
G01 X7.2954 Y20.6110
G01 X7.3114 Y20.6048
G01 X7.3426 Y20.5937
G01 X7.3674 Y20.5866
G01 X7.4079 Y20.5768
G01 X7.4249 Y20.5739
G01 X7.4577 Y20.5691
G01 X7.4833 Y20.5669
G01 X7.5250 Y20.5653
G01 X8.9836 Y20.5654
G01 X9.0167 Y20.5669
G01 X9.0338 Y20.5682
G01 X9.0509 Y20.5703
G01 X9.0921 Y20.5768
G01 X9.1088 Y20.5806
G01 X9.1492 Y20.5911
G01 X9.1655 Y20.5965
G01 X9.1966 Y20.6078
G01 X9.2125 Y20.6144
G01 X9.2502 Y20.6322
G01 X9.2654 Y20.6403
G01 X9.2938 Y20.6572
G01 X9.3083 Y20.6664
G01 X9.3224 Y20.6763
G01 X9.3489 Y20.6961
G01 X9.3622 Y20.7070
G01 X9.3868 Y20.7292
G01 X9.3993 Y20.7410
G01 X9.4111 Y20.7535
G01 X9.4388 Y20.7847
G01 X9.4640 Y20.8179
G01 X9.4739 Y20.8320
G01 X9.4831 Y20.8465
G01 X9.5000 Y20.8749
G01 X9.5081 Y20.8901
G01 X9.5259 Y20.9278
G01 X9.5325 Y20.9437
G01 X9.5438 Y20.9748
G01 X9.5492 Y20.9911
G01 X9.5537 Y21.0077
G01 X9.5617 Y21.0399
G01 X9.5650 Y21.0567
G01 X9.5700 Y21.0895
G01 X9.5721 Y21.1065
G01 X9.5734 Y21.1236
G01 X9.5750 Y21.1653
G01 X9.5750 Y22.3653
G01 X9.5746 Y22.3825
G01 X9.5728 Y22.4156
G01 X9.5712 Y22.4327
G01 X9.5664 Y22.4654
G01 X9.5617 Y22.4908
G01 X9.5516 Y22.5312
G01 X9.5466 Y22.5477
G01 X9.5325 Y22.5869
G01 X9.5224 Y22.6106
G01 X9.5042 Y22.6482
G01 X9.4831 Y22.6841
G01 X9.4739 Y22.6987
G01 X9.4640 Y22.7127
G01 X9.4388 Y22.7459
G01 X9.4111 Y22.7771
G01 X9.3931 Y22.7956
G01 X9.3622 Y22.8236
G01 X9.3489 Y22.8345
G01 X9.3154 Y22.8593
G01 X9.2938 Y22.8734
G01 X9.2578 Y22.8945
G01 X9.2203 Y22.9127
G01 X9.1966 Y22.9228
G01 X9.1574 Y22.9369
G01 X9.1326 Y22.9441
G01 X9.0921 Y22.9538
G01 X9.0751 Y22.9567
G01 X9.0423 Y22.9615
G01 X9.0167 Y22.9637
G01 X8.9750 Y22.9653
G01 X7.5250 Y22.9653
G01 X7.5078 Y22.9649
G01 X7.4747 Y22.9632
G01 X7.4491 Y22.9603
G01 X7.4164 Y22.9554
G01 X7.3995 Y22.9520
G01 X7.3674 Y22.9441
G01 X7.3508 Y22.9395
G01 X7.3345 Y22.9341
G01 X7.3034 Y22.9228
G01 X7.2797 Y22.9127
G01 X7.2422 Y22.8945
G01 X7.2272 Y22.8860
G01 X7.1940 Y22.8657
G01 X6.6004 Y22.8657
G01 X6.6004 Y33.8095
G01 X6.9575 Y34.1666
G01 X6.9828 Y34.1654
G01 X7.0000 Y34.1649
G01 X9.3996 Y34.1649
G01 X9.3997 Y31.7567
G01 X9.4042 Y31.6660
G01 X9.4070 Y31.6404
G01 X9.4178 Y31.5676
G01 X9.4208 Y31.5506
G01 X9.4245 Y31.5339
G01 X9.4424 Y31.4624
G01 X9.4470 Y31.4459
G01 X9.4524 Y31.4296
G01 X9.4772 Y31.3602
G01 X9.4834 Y31.3442
G01 X9.4903 Y31.3285
G01 X9.5218 Y31.2619
G01 X9.5296 Y31.2466
G01 X9.5380 Y31.2317
G01 X9.5759 Y31.1685
G01 X9.5851 Y31.1540
G01 X9.5950 Y31.1399
G01 X9.6440 Y31.0739
G01 X9.6606 Y31.0542
G01 X9.7101 Y30.9997
G01 X9.7219 Y30.9872
G01 X9.7344 Y30.9754
G01 X9.7889 Y30.9259
G01 X9.8019 Y30.9147
G01 X9.8155 Y30.9041
G01 X9.8746 Y30.8603
G01 X9.8887 Y30.8504
G01 X9.9032 Y30.8412
G01 X9.9663 Y30.8033
G01 X9.9813 Y30.7949
G01 X9.9966 Y30.7871
G01 X10.0632 Y30.7557
G01 X10.0789 Y30.7487
G01 X10.0949 Y30.7425
G01 X10.1643 Y30.7177
G01 X10.1806 Y30.7123
G01 X10.1971 Y30.7077
G01 X10.2686 Y30.6898
G01 X10.2853 Y30.6861
G01 X10.3023 Y30.6831
G01 X10.3751 Y30.6723
G01 X10.3921 Y30.6702
G01 X10.4093 Y30.6690
G01 X10.4828 Y30.6654
G01 X10.5000 Y30.6649
G01 X24.0442 Y30.6649
G01 X24.7746 Y29.9345
G01 X24.7746 Y20.8903
G01 X24.7750 Y20.8731
G01 X24.7787 Y20.7996
G01 X24.7799 Y20.7825
G01 X24.7820 Y20.7654
G01 X24.7928 Y20.6926
G01 X24.7958 Y20.6756
G01 X24.7995 Y20.6589
G01 X24.8196 Y20.5791
G01 X24.8274 Y20.5546
G01 X24.8522 Y20.4852
G01 X24.8584 Y20.4692
G01 X24.8653 Y20.4535
G01 X24.8968 Y20.3869
G01 X24.9087 Y20.3641
G01 X24.9509 Y20.2935
G01 X24.9649 Y20.2719
G01 X25.0190 Y20.1989
G01 X25.0356 Y20.1792
G01 X25.0909 Y20.1184
G01 X27.5500 Y17.6591
G01 X27.5500 Y16.6653
G01 X27.5509 Y16.6396
G01 X27.5526 Y16.6225
G01 X27.5552 Y16.6055
G01 X27.5605 Y16.5803
G01 X27.5677 Y16.5555
G01 X27.5735 Y16.5393
G01 X27.5800 Y16.5235
G01 X27.5913 Y16.5003
G01 X27.5998 Y16.4854
G01 X27.6090 Y16.4709
G01 X27.6241 Y16.4500
G01 X27.6350 Y16.4367
G01 X27.6465 Y16.4240
G01 X27.6587 Y16.4118
G01 X27.6714 Y16.4003
G01 X27.6847 Y16.3894
G01 X27.6985 Y16.3792
G01 X27.7128 Y16.3696
G01 X27.7275 Y16.3608
G01 X27.7504 Y16.3489
G01 X27.7661 Y16.3420
G01 X27.7821 Y16.3358
G01 X27.8067 Y16.3280
G01 X27.8317 Y16.3220
G01 X27.8486 Y16.3191
G01 X27.8657 Y16.3170
G01 X27.8828 Y16.3157
G01 X27.9000 Y16.3153
G01 X28.6438 Y16.3153
G01 X31.6496 Y13.3095
G01 X31.6496 Y9.0153
G01 X31.6500 Y8.9981
G01 X31.6537 Y8.9246
G01 X31.6559 Y8.8989
G01 X31.6678 Y8.8176
G01 X31.6708 Y8.8006
G01 X31.6745 Y8.7839
G01 X31.6924 Y8.7124
G01 X31.6970 Y8.6959
G01 X31.7024 Y8.6796
G01 X31.7272 Y8.6102
G01 X31.7334 Y8.5942
G01 X31.7403 Y8.5785
G01 X31.7718 Y8.5119
G01 X31.7796 Y8.4966
G01 X31.7880 Y8.4817
G01 X31.8259 Y8.4185
G01 X31.8399 Y8.3969
G01 X31.8888 Y8.3308
G01 X31.8994 Y8.3172
G01 X31.9106 Y8.3042
G01 X31.9601 Y8.2497
G01 X31.9781 Y8.2312
G01 X32.0454 Y8.1702
G01 X32.0655 Y8.1541
G01 X32.1246 Y8.1103
G01 X32.1387 Y8.1004
G01 X32.1532 Y8.0912
G01 X32.2163 Y8.0533
G01 X32.2389 Y8.0409
G01 X32.3132 Y8.0057
G01 X32.3289 Y7.9987
G01 X32.3449 Y7.9925
G01 X32.4143 Y7.9677
G01 X32.4306 Y7.9623
G01 X32.4471 Y7.9577
G01 X32.5186 Y7.9398
G01 X32.5353 Y7.9361
G01 X32.5523 Y7.9331
G01 X32.6251 Y7.9223
G01 X32.6421 Y7.9202
G01 X32.6593 Y7.9190
G01 X32.7328 Y7.9154
G01 X32.7500 Y7.9149
G01 X43.2586 Y7.9150
G01 X43.3407 Y7.9190
G01 X43.3579 Y7.9202
G01 X43.3749 Y7.9223
G01 X43.4477 Y7.9331
G01 X43.4647 Y7.9361
G01 X43.4814 Y7.9398
G01 X43.5529 Y7.9577
G01 X43.5694 Y7.9623
G01 X43.5857 Y7.9677
G01 X43.6551 Y7.9925
G01 X43.6711 Y7.9987
G01 X43.6868 Y8.0057
G01 X43.7534 Y8.0371
G01 X43.7687 Y8.0449
G01 X43.7837 Y8.0533
G01 X43.8468 Y8.0912
G01 X43.8613 Y8.1004
G01 X43.8754 Y8.1103
G01 X43.9345 Y8.1541
G01 X43.9481 Y8.1647
G01 X43.9611 Y8.1759
G01 X44.0156 Y8.2254
G01 X44.0341 Y8.2434
G01 X44.0894 Y8.3042
G01 X44.1006 Y8.3172
G01 X44.1112 Y8.3308
G01 X44.1601 Y8.3969
G01 X44.1741 Y8.4185
G01 X44.2120 Y8.4817
G01 X44.2204 Y8.4966
G01 X44.2282 Y8.5119
G01 X44.2597 Y8.5785
G01 X44.2666 Y8.5942
G01 X44.2728 Y8.6102
G01 X44.2976 Y8.6796
G01 X44.3030 Y8.6959
G01 X44.3076 Y8.7124
G01 X44.3255 Y8.7839
G01 X44.3292 Y8.8006
G01 X44.3322 Y8.8176
G01 X44.3441 Y8.8989
G01 X44.3463 Y8.9246
G01 X44.3500 Y8.9981
G01 X44.3504 Y9.0153
G01 X44.3504 Y10.9536
G01 X44.3917 Y11.0404
G01 X44.3987 Y11.0561
G01 X44.4048 Y11.0721
G01 X44.4329 Y11.1507
G01 X44.4383 Y11.1670
G01 X44.4429 Y11.1835
G01 X44.4632 Y11.2644
G01 X44.4669 Y11.2812
G01 X44.4699 Y11.2981
G01 X44.4821 Y11.3806
G01 X44.4842 Y11.3977
G01 X44.4855 Y11.4148
G01 X44.4896 Y11.4981
G01 X44.4900 Y11.5153
G01 X44.4896 Y11.5325
G01 X44.4855 Y11.6158
G01 X44.4833 Y11.6415
G01 X44.4699 Y11.7325
G01 X44.4669 Y11.7494
G01 X44.4632 Y11.7662
G01 X44.4429 Y11.8471
G01 X44.4383 Y11.8637
G01 X44.4329 Y11.8800
G01 X44.4018 Y11.9666
G01 X44.3917 Y11.9902
G01 X44.3560 Y12.0656
G01 X44.3483 Y12.0810
G01 X44.3398 Y12.0959
G01 X44.2970 Y12.1675
G01 X44.2878 Y12.1820
G01 X44.2779 Y12.1960
G01 X44.2282 Y12.2630
G01 X44.2176 Y12.2766
G01 X44.2064 Y12.2896
G01 X44.1504 Y12.3514
G01 X44.1324 Y12.3698
G01 X44.0643 Y12.4317
G01 X44.0513 Y12.4429
G01 X44.0377 Y12.4535
G01 X43.9707 Y12.5032
G01 X43.9567 Y12.5131
G01 X43.9422 Y12.5223
G01 X43.8706 Y12.5652
G01 X43.8557 Y12.5736
G01 X43.8403 Y12.5813
G01 X43.7649 Y12.6170
G01 X43.7492 Y12.6240
G01 X43.7332 Y12.6302
G01 X43.6547 Y12.6583
G01 X43.6383 Y12.6636
G01 X43.6218 Y12.6682
G01 X43.5409 Y12.6885
G01 X43.5157 Y12.6938
G01 X43.4247 Y12.7074
G01 X43.4076 Y12.7095
G01 X43.3905 Y12.7108
G01 X43.3072 Y12.7149
G01 X43.2814 Y12.7152
G01 X43.1895 Y12.7108
G01 X43.1724 Y12.7095
G01 X43.1553 Y12.7074
G01 X43.0728 Y12.6952
G01 X43.0559 Y12.6923
G01 X43.0391 Y12.6885
G01 X42.9582 Y12.6682
G01 X42.9417 Y12.6636
G01 X42.9253 Y12.6583
G01 X42.8468 Y12.6302
G01 X42.8308 Y12.6240
G01 X42.8151 Y12.6170
G01 X42.7397 Y12.5813
G01 X42.7168 Y12.5695
G01 X42.6378 Y12.5223
G01 X42.6233 Y12.5131
G01 X42.6093 Y12.5032
G01 X42.5423 Y12.4535
G01 X42.5287 Y12.4429
G01 X42.5157 Y12.4317
G01 X42.4539 Y12.3757
G01 X42.4415 Y12.3638
G01 X42.4296 Y12.3514
G01 X42.3736 Y12.2896
G01 X42.3624 Y12.2766
G01 X42.3518 Y12.2630
G01 X42.3021 Y12.1960
G01 X42.2922 Y12.1820
G01 X42.2830 Y12.1675
G01 X42.2402 Y12.0959
G01 X42.2317 Y12.0810
G01 X42.2240 Y12.0656
G01 X42.1883 Y11.9902
G01 X42.1813 Y11.9745
G01 X42.1752 Y11.9585
G01 X42.1471 Y11.8800
G01 X42.1417 Y11.8637
G01 X42.1371 Y11.8471
G01 X42.1168 Y11.7662
G01 X42.1131 Y11.7494
G01 X42.1101 Y11.7325
G01 X42.0979 Y11.6500
G01 X42.0950 Y11.6244
G01 X42.0904 Y11.5325
G01 X42.0901 Y11.5067
G01 X42.0950 Y11.4063
G01 X42.0979 Y11.3806
G01 X42.1101 Y11.2981
G01 X42.1148 Y11.2728
G01 X42.1371 Y11.1835
G01 X42.1417 Y11.1670
G01 X42.1496 Y11.1435
G01 X42.1496 Y10.1157
G01 X33.8504 Y10.1157
G01 X33.8503 Y13.7739
G01 X33.8463 Y13.8560
G01 X33.8451 Y13.8732
G01 X33.8430 Y13.8902
G01 X33.8322 Y13.9631
G01 X33.8292 Y13.9800
G01 X33.8255 Y13.9967
G01 X33.8076 Y14.0682
G01 X33.8030 Y14.0847
G01 X33.7976 Y14.1010
G01 X33.7728 Y14.1704
G01 X33.7632 Y14.1943
G01 X33.7282 Y14.2687
G01 X33.7204 Y14.2840
G01 X33.7120 Y14.2990
G01 X33.6741 Y14.3621
G01 X33.6649 Y14.3766
G01 X33.6550 Y14.3907
G01 X33.6112 Y14.4498
G01 X33.6006 Y14.4634
G01 X33.5894 Y14.4764
G01 X33.5341 Y14.5372
G01 X30.4500 Y17.6215
G01 X30.4500 Y18.5108
G01 X30.4719 Y18.4872
G01 X34.6496 Y14.3095
G01 X34.6496 Y11.5153
G01 X34.6500 Y11.4981
G01 X34.6537 Y11.4246
G01 X34.6559 Y11.3989
G01 X34.6678 Y11.3176
G01 X34.6725 Y11.2922
G01 X34.6946 Y11.2041
G01 X34.7024 Y11.1796
G01 X34.7272 Y11.1102
G01 X34.7334 Y11.0942
G01 X34.7403 Y11.0785
G01 X34.7718 Y11.0119
G01 X34.7837 Y10.9891
G01 X34.8259 Y10.9185
G01 X34.8351 Y10.9040
G01 X34.8450 Y10.8899
G01 X34.8888 Y10.8308
G01 X34.8994 Y10.8172
G01 X34.9106 Y10.8042
G01 X34.9601 Y10.7497
G01 X34.9719 Y10.7372
G01 X34.9844 Y10.7254
G01 X35.0389 Y10.6759
G01 X35.0519 Y10.6647
G01 X35.0655 Y10.6541
G01 X35.1246 Y10.6103
G01 X35.1459 Y10.5957
G01 X35.2163 Y10.5533
G01 X35.2313 Y10.5449
G01 X35.2466 Y10.5371
G01 X35.3132 Y10.5057
G01 X35.3289 Y10.4987
G01 X35.3449 Y10.4925
G01 X35.4143 Y10.4677
G01 X35.4306 Y10.4623
G01 X35.4471 Y10.4577
G01 X35.5186 Y10.4398
G01 X35.5353 Y10.4361
G01 X35.5523 Y10.4331
G01 X35.6251 Y10.4223
G01 X35.6421 Y10.4202
G01 X35.6593 Y10.4190
G01 X35.7414 Y10.4150
G01 X39.6555 Y10.4149
G01 X39.6650 Y10.4060
G01 X39.6780 Y10.3948
G01 X39.6915 Y10.3842
G01 X39.7056 Y10.3743
G01 X39.7201 Y10.3651
G01 X39.7350 Y10.3566
G01 X39.7504 Y10.3489
G01 X39.7661 Y10.3420
G01 X39.7821 Y10.3358
G01 X39.7984 Y10.3304
G01 X39.8150 Y10.3258
G01 X39.8317 Y10.3220
G01 X39.8486 Y10.3191
G01 X39.8657 Y10.3170
G01 X39.8828 Y10.3157
G01 X39.9000 Y10.3153
G01 X41.6000 Y10.3153
G01 X41.6172 Y10.3157
G01 X41.6343 Y10.3170
G01 X41.6514 Y10.3191
G01 X41.6767 Y10.3238
G01 X41.6933 Y10.3280
G01 X41.7098 Y10.3330
G01 X41.7339 Y10.3420
G01 X41.7496 Y10.3489
G01 X41.7650 Y10.3566
G01 X41.7872 Y10.3696
G01 X41.8015 Y10.3792
G01 X41.8153 Y10.3894
G01 X41.8350 Y10.4060
G01 X41.8475 Y10.4178
G01 X41.8593 Y10.4303
G01 X41.8706 Y10.4433
G01 X41.8811 Y10.4568
G01 X41.8910 Y10.4709
G01 X41.9002 Y10.4854
G01 X41.9087 Y10.5003
G01 X41.9164 Y10.5157
G01 X41.9234 Y10.5314
G01 X41.9295 Y10.5474
G01 X41.9349 Y10.5637
G01 X41.9395 Y10.5803
G01 X41.9433 Y10.5970
G01 X41.9462 Y10.6140
G01 X41.9483 Y10.6310
G01 X41.9496 Y10.6481
G01 X41.9500 Y10.6653
G01 X41.9500 Y12.3653
G01 X41.9496 Y12.3825
G01 X41.9474 Y12.4082
G01 X41.9433 Y12.4336
G01 X41.9373 Y12.4587
G01 X41.9323 Y12.4751
G01 X41.9234 Y12.4993
G01 X41.9126 Y12.5227
G01 X41.9045 Y12.5378
G01 X41.8910 Y12.5598
G01 X41.8759 Y12.5806
G01 X41.8593 Y12.6004
G01 X41.8413 Y12.6188
G01 X41.8220 Y12.6359
G01 X41.8015 Y12.6515
G01 X41.7799 Y12.6655
G01 X41.7574 Y12.6779
G01 X41.7418 Y12.6853
G01 X41.7260 Y12.6919
G01 X41.7098 Y12.6976
G01 X41.6933 Y12.7026
G01 X41.6767 Y12.7068
G01 X41.6598 Y12.7102
G01 X41.6428 Y12.7127
G01 X41.6257 Y12.7144
G01 X41.6086 Y12.7152
G01 X39.8914 Y12.7152
G01 X39.8657 Y12.7136
G01 X39.8486 Y12.7115
G01 X39.8317 Y12.7086
G01 X39.8150 Y12.7048
G01 X39.7984 Y12.7002
G01 X39.7821 Y12.6949
G01 X39.7661 Y12.6887
G01 X39.7504 Y12.6817
G01 X39.7350 Y12.6740
G01 X39.7201 Y12.6655
G01 X39.7056 Y12.6563
G01 X39.6915 Y12.6464
G01 X39.6780 Y12.6359
G01 X39.6650 Y12.6246
G01 X39.6555 Y12.6157
G01 X36.8504 Y12.6157
G01 X36.8504 Y14.7653
G01 X36.8500 Y14.7825
G01 X36.8458 Y14.8646
G01 X36.8430 Y14.8902
G01 X36.8322 Y14.9631
G01 X36.8292 Y14.9800
G01 X36.8255 Y14.9967
G01 X36.8076 Y15.0682
G01 X36.8030 Y15.0847
G01 X36.7976 Y15.1010
G01 X36.7728 Y15.1704
G01 X36.7666 Y15.1864
G01 X36.7597 Y15.2021
G01 X36.7282 Y15.2687
G01 X36.7163 Y15.2916
G01 X36.6696 Y15.3694
G01 X36.6550 Y15.3907
G01 X36.6112 Y15.4498
G01 X36.6006 Y15.4634
G01 X36.5894 Y15.4764
G01 X36.5399 Y15.5310
G01 X36.5281 Y15.5434
G01 X32.3504 Y19.7211
G01 X32.3504 Y26.4149
G01 X33.7500 Y26.4149
G01 X33.7672 Y26.4154
G01 X33.8407 Y26.4190
G01 X33.8664 Y26.4212
G01 X33.9477 Y26.4331
G01 X33.9647 Y26.4361
G01 X33.9814 Y26.4398
G01 X34.0529 Y26.4577
G01 X34.0776 Y26.4649
G01 X34.1631 Y26.4955
G01 X34.1868 Y26.5057
G01 X34.2534 Y26.5371
G01 X34.2687 Y26.5449
G01 X34.2837 Y26.5533
G01 X34.3468 Y26.5912
G01 X34.3613 Y26.6004
G01 X34.3754 Y26.6103
G01 X34.4345 Y26.6541
G01 X34.4546 Y26.6702
G01 X34.5219 Y26.7312
G01 X34.5399 Y26.7497
G01 X34.5865 Y26.8011
G01 X34.6261 Y26.8369
G01 X34.6445 Y26.8549
G01 X34.7064 Y26.9230
G01 X34.7176 Y26.9360
G01 X34.7282 Y26.9496
G01 X34.7829 Y27.0235
G01 X34.7970 Y27.0451
G01 X34.8398 Y27.1167
G01 X34.8483 Y27.1316
G01 X34.8560 Y27.1470
G01 X34.8917 Y27.2224
G01 X34.8987 Y27.2381
G01 X34.9048 Y27.2541
G01 X34.9357 Y27.3408
G01 X34.9429 Y27.3655
G01 X34.9632 Y27.4464
G01 X34.9685 Y27.4716
G01 X34.9821 Y27.5626
G01 X34.9842 Y27.5797
G01 X34.9855 Y27.5968
G01 X34.9880 Y27.6480
G01 X39.0603 Y23.5757
G01 X39.0728 Y23.5638
G01 X39.1183 Y23.5226
G01 X39.1380 Y23.5060
G01 X39.1941 Y23.4643
G01 X39.2081 Y23.4544
G01 X39.2227 Y23.4452
G01 X39.2753 Y23.4136
G01 X39.2979 Y23.4012
G01 X39.3611 Y23.3712
G01 X39.3847 Y23.3611
G01 X39.4587 Y23.3346
G01 X39.4834 Y23.3274
G01 X39.5430 Y23.3125
G01 X39.5597 Y23.3087
G01 X39.5767 Y23.3058
G01 X39.6374 Y23.2968
G01 X39.6630 Y23.2940
G01 X39.7328 Y23.2904
G01 X39.7500 Y23.2900
G01 X39.9860 Y23.2900
G01 X40.0023 Y23.2771
G01 X40.0693 Y23.2274
G01 X40.0833 Y23.2175
G01 X40.0978 Y23.2084
G01 X40.1694 Y23.1655
G01 X40.1843 Y23.1570
G01 X40.1997 Y23.1493
G01 X40.2751 Y23.1136
G01 X40.2908 Y23.1067
G01 X40.3068 Y23.1005
G01 X40.3853 Y23.0724
G01 X40.4099 Y23.0646
G01 X40.4991 Y23.0421
G01 X40.5159 Y23.0384
G01 X40.5328 Y23.0354
G01 X40.6153 Y23.0232
G01 X40.6324 Y23.0211
G01 X40.6495 Y23.0198
G01 X40.7328 Y23.0157
G01 X40.7500 Y23.0153
G01 X40.7672 Y23.0157
G01 X40.8505 Y23.0198
G01 X40.8676 Y23.0211
G01 X40.8847 Y23.0232
G01 X40.9672 Y23.0354
G01 X40.9841 Y23.0384
G01 X41.0009 Y23.0421
G01 X41.0818 Y23.0624
G01 X41.1065 Y23.0696
G01 X41.1932 Y23.1005
G01 X41.2092 Y23.1067
G01 X41.2249 Y23.1136
G01 X41.3003 Y23.1493
G01 X41.3157 Y23.1570
G01 X41.3306 Y23.1655
G01 X41.4022 Y23.2084
G01 X41.4167 Y23.2175
G01 X41.4307 Y23.2274
G01 X41.4977 Y23.2771
G01 X41.5113 Y23.2877
G01 X41.5243 Y23.2989
G01 X41.5861 Y23.3549
G01 X41.5985 Y23.3668
G01 X41.6104 Y23.3792
G01 X41.6664 Y23.4410
G01 X41.6776 Y23.4540
G01 X41.6882 Y23.4676
G01 X41.7379 Y23.5346
G01 X41.7478 Y23.5486
G01 X41.7570 Y23.5631
G01 X41.7998 Y23.6347
G01 X41.8083 Y23.6496
G01 X41.8160 Y23.6650
G01 X41.8517 Y23.7404
G01 X41.8587 Y23.7561
G01 X41.8648 Y23.7721
G01 X41.8929 Y23.8507
G01 X41.8983 Y23.8670
G01 X41.9029 Y23.8835
G01 X41.9232 Y23.9644
G01 X41.9269 Y23.9812
G01 X41.9299 Y23.9981
G01 X41.9421 Y24.0806
G01 X41.9442 Y24.0977
G01 X41.9455 Y24.1148
G01 X41.9496 Y24.1981
G01 X41.9500 Y24.2153
G01 X41.9496 Y24.2325
G01 X41.9455 Y24.3158
G01 X41.9442 Y24.3329
G01 X41.9421 Y24.3500
G01 X41.9299 Y24.4325
G01 X41.9269 Y24.4494
G01 X41.9232 Y24.4662
G01 X41.9029 Y24.5471
G01 X41.8983 Y24.5637
G01 X41.8929 Y24.5800
G01 X41.8648 Y24.6585
G01 X41.8553 Y24.6824
G01 X41.8123 Y24.7734
G01 X41.7998 Y24.7959
G01 X41.7570 Y24.8675
G01 X41.7478 Y24.8820
G01 X41.7379 Y24.8960
G01 X41.6882 Y24.9630
G01 X41.6776 Y24.9766
G01 X41.6664 Y24.9896
G01 X41.6104 Y25.0514
G01 X41.5985 Y25.0638
G01 X41.5861 Y25.0757
G01 X41.5243 Y25.1317
G01 X41.5113 Y25.1429
G01 X41.4977 Y25.1535
G01 X41.4307 Y25.2032
G01 X41.4167 Y25.2131
G01 X41.4022 Y25.2223
G01 X41.3306 Y25.2652
G01 X41.3157 Y25.2736
G01 X41.3003 Y25.2813
G01 X41.2249 Y25.3170
G01 X41.2092 Y25.3240
G01 X41.1932 Y25.3302
G01 X41.1147 Y25.3583
G01 X41.0901 Y25.3660
G01 X41.0009 Y25.3885
G01 X40.9841 Y25.3923
G01 X40.9672 Y25.3952
G01 X40.8847 Y25.4074
G01 X40.8676 Y25.4095
G01 X40.8505 Y25.4108
G01 X40.7672 Y25.4149
G01 X40.7500 Y25.4153
G01 X40.7328 Y25.4149
G01 X40.6495 Y25.4108
G01 X40.6238 Y25.4086
G01 X40.5328 Y25.3952
G01 X40.5159 Y25.3923
G01 X40.4991 Y25.3885
G01 X40.4182 Y25.3682
G01 X40.3935 Y25.3610
G01 X40.3068 Y25.3302
G01 X40.2829 Y25.3206
G01 X40.1919 Y25.2776
G01 X40.1768 Y25.2695
G01 X40.1444 Y25.2502
G01 X39.3906 Y26.0040
G01 X39.4441 Y25.9643
G01 X39.4581 Y25.9544
G01 X39.4727 Y25.9452
G01 X39.5253 Y25.9136
G01 X39.5402 Y25.9052
G01 X39.5556 Y25.8974
G01 X39.6111 Y25.8712
G01 X39.6268 Y25.8642
G01 X39.6428 Y25.8581
G01 X39.7006 Y25.8374
G01 X39.7251 Y25.8296
G01 X39.8013 Y25.8105
G01 X39.8267 Y25.8058
G01 X39.8874 Y25.7968
G01 X39.9130 Y25.7940
G01 X39.9828 Y25.7904
G01 X40.0000 Y25.7900
G01 X40.0389 Y25.7900
G01 X40.0762 Y25.7624
G01 X40.0905 Y25.7529
G01 X40.1768 Y25.7011
G01 X40.1997 Y25.6893
G01 X40.2751 Y25.6536
G01 X40.2988 Y25.6435
G01 X40.3853 Y25.6124
G01 X40.4017 Y25.6070
G01 X40.4182 Y25.6024
G01 X40.4991 Y25.5821
G01 X40.5159 Y25.5784
G01 X40.5328 Y25.5754
G01 X40.6153 Y25.5632
G01 X40.6409 Y25.5604
G01 X40.7328 Y25.5557
G01 X40.7500 Y25.5553
G01 X40.7672 Y25.5557
G01 X40.8505 Y25.5598
G01 X40.8676 Y25.5611
G01 X40.8847 Y25.5632
G01 X40.9672 Y25.5754
G01 X40.9841 Y25.5784
G01 X41.0009 Y25.5821
G01 X41.0818 Y25.6024
G01 X41.0983 Y25.6070
G01 X41.1147 Y25.6124
G01 X41.1932 Y25.6405
G01 X41.2092 Y25.6467
G01 X41.2249 Y25.6536
G01 X41.3003 Y25.6893
G01 X41.3157 Y25.6970
G01 X41.3306 Y25.7055
G01 X41.4022 Y25.7484
G01 X41.4167 Y25.7575
G01 X41.4307 Y25.7674
G01 X41.5046 Y25.8223
G01 X41.5243 Y25.8389
G01 X41.5861 Y25.8949
G01 X41.5985 Y25.9068
G01 X41.6104 Y25.9192
G01 X41.6664 Y25.9810
G01 X41.6776 Y25.9940
G01 X41.6882 Y26.0076
G01 X41.7379 Y26.0746
G01 X41.7478 Y26.0886
G01 X41.7570 Y26.1031
G01 X41.7998 Y26.1747
G01 X41.8083 Y26.1896
G01 X41.8160 Y26.2050
G01 X41.8517 Y26.2804
G01 X41.8587 Y26.2961
G01 X41.8648 Y26.3121
G01 X41.8929 Y26.3907
G01 X41.9007 Y26.4152
G01 X41.9232 Y26.5044
G01 X41.9269 Y26.5212
G01 X41.9299 Y26.5381
G01 X41.9421 Y26.6206
G01 X41.9442 Y26.6377
G01 X41.9455 Y26.6548
G01 X41.9496 Y26.7381
G01 X41.9500 Y26.7553
G01 X41.9496 Y26.7725
G01 X41.9455 Y26.8558
G01 X41.9442 Y26.8729
G01 X41.9421 Y26.8900
G01 X41.9299 Y26.9725
G01 X41.9269 Y26.9894
G01 X41.9232 Y27.0062
G01 X41.9029 Y27.0871
G01 X41.8983 Y27.1037
G01 X41.8929 Y27.1200
G01 X41.8648 Y27.1985
G01 X41.8587 Y27.2145
G01 X41.8517 Y27.2302
G01 X41.8160 Y27.3056
G01 X41.8042 Y27.3285
G01 X41.7524 Y27.4148
G01 X41.7379 Y27.4360
G01 X41.6830 Y27.5099
G01 X41.6664 Y27.5296
G01 X41.6104 Y27.5914
G01 X41.5985 Y27.6038
G01 X41.5861 Y27.6157
G01 X41.5243 Y27.6717
G01 X41.5113 Y27.6829
G01 X41.4977 Y27.6935
G01 X41.4307 Y27.7432
G01 X41.4167 Y27.7531
G01 X41.4022 Y27.7623
G01 X41.3306 Y27.8052
G01 X41.3157 Y27.8136
G01 X41.3003 Y27.8213
G01 X41.2249 Y27.8570
G01 X41.2092 Y27.8640
G01 X41.1932 Y27.8702
G01 X41.1065 Y27.9010
G01 X41.0818 Y27.9082
G01 X41.0009 Y27.9285
G01 X40.9841 Y27.9323
G01 X40.9672 Y27.9352
G01 X40.8847 Y27.9474
G01 X40.8676 Y27.9495
G01 X40.8505 Y27.9508
G01 X40.7672 Y27.9549
G01 X40.7500 Y27.9553
G01 X40.7328 Y27.9549
G01 X40.6495 Y27.9508
G01 X40.6324 Y27.9495
G01 X40.6153 Y27.9474
G01 X40.5328 Y27.9352
G01 X40.5159 Y27.9323
G01 X40.4991 Y27.9285
G01 X40.4182 Y27.9082
G01 X40.4017 Y27.9036
G01 X40.3853 Y27.8983
G01 X40.3068 Y27.8702
G01 X40.2837 Y27.8609
G01 X34.8911 Y33.2535
G01 X34.8560 Y33.3276
G01 X34.8483 Y33.3430
G01 X34.8398 Y33.3579
G01 X34.7970 Y33.4295
G01 X34.7878 Y33.4440
G01 X34.7779 Y33.4580
G01 X34.7282 Y33.5250
G01 X34.7176 Y33.5386
G01 X34.7064 Y33.5516
G01 X34.6504 Y33.6134
G01 X34.6385 Y33.6258
G01 X34.6261 Y33.6377
G01 X34.5643 Y33.6937
G01 X34.5513 Y33.7049
G01 X34.5377 Y33.7155
G01 X34.4707 Y33.7652
G01 X34.4567 Y33.7751
G01 X34.4422 Y33.7843
G01 X34.3632 Y33.8315
G01 X34.3403 Y33.8433
G01 X34.2649 Y33.8790
G01 X34.2492 Y33.8860
G01 X34.2332 Y33.8922
G01 X34.1547 Y33.9203
G01 X34.1383 Y33.9256
G01 X34.1218 Y33.9302
G01 X34.0409 Y33.9505
G01 X34.0241 Y33.9543
G01 X34.0072 Y33.9572
G01 X33.9247 Y33.9694
G01 X33.9076 Y33.9715
G01 X33.8905 Y33.9728
G01 X33.8072 Y33.9769
G01 X33.7900 Y33.9773
G01 X33.7728 Y33.9769
G01 X33.6895 Y33.9728
G01 X33.6724 Y33.9715
G01 X33.6553 Y33.9694
G01 X33.5728 Y33.9572
G01 X33.5559 Y33.9543
G01 X33.5391 Y33.9505
G01 X33.4582 Y33.9302
G01 X33.4417 Y33.9256
G01 X33.4253 Y33.9203
G01 X33.3468 Y33.8922
G01 X33.3308 Y33.8860
G01 X33.3151 Y33.8790
G01 X33.2397 Y33.8433
G01 X33.2243 Y33.8356
G01 X33.2094 Y33.8272
G01 X33.1378 Y33.7843
G01 X33.1233 Y33.7751
G01 X33.1093 Y33.7652
G01 X33.0423 Y33.7155
G01 X33.0287 Y33.7049
G01 X33.0157 Y33.6937
G01 X32.9539 Y33.6377
G01 X32.9355 Y33.6197
G01 X32.8736 Y33.5516
G01 X32.8624 Y33.5386
G01 X32.8518 Y33.5250
G01 X32.8021 Y33.4580
G01 X32.7922 Y33.4440
G01 X32.7830 Y33.4295
G01 X32.7402 Y33.3579
G01 X32.7317 Y33.3430
G01 X32.7240 Y33.3276
G01 X32.6883 Y33.2522
G01 X32.6813 Y33.2365
G01 X32.6752 Y33.2205
G01 X32.6471 Y33.1420
G01 X32.6417 Y33.1257
G01 X32.6371 Y33.1091
G01 X32.6148 Y33.0198
G01 X32.6101 Y32.9945
G01 X32.5979 Y32.9120
G01 X32.5958 Y32.8949
G01 X32.5945 Y32.8778
G01 X32.5904 Y32.7945
G01 X32.5900 Y32.7773
G01 X32.5904 Y32.7601
G01 X32.5945 Y32.6768
G01 X32.5958 Y32.6597
G01 X32.5979 Y32.6426
G01 X32.6101 Y32.5601
G01 X32.6148 Y32.5348
G01 X32.6371 Y32.4455
G01 X32.6417 Y32.4290
G01 X32.6471 Y32.4127
G01 X32.6752 Y32.3341
G01 X32.6813 Y32.3181
G01 X32.6883 Y32.3024
G01 X32.7240 Y32.2270
G01 X32.7317 Y32.2116
G01 X32.7402 Y32.1967
G01 X32.7830 Y32.1251
G01 X32.7971 Y32.1035
G01 X32.8518 Y32.0296
G01 X32.8624 Y32.0160
G01 X32.8736 Y32.0030
G01 X32.9296 Y31.9412
G01 X32.9476 Y31.9228
G01 X33.0157 Y31.8609
G01 X33.0287 Y31.8497
G01 X33.0423 Y31.8391
G01 X33.1093 Y31.7894
G01 X33.1233 Y31.7795
G01 X33.1378 Y31.7704
G01 X33.2094 Y31.7275
G01 X33.2243 Y31.7190
G01 X33.2397 Y31.7113
G01 X33.3151 Y31.6756
G01 X33.3308 Y31.6687
G01 X33.3468 Y31.6625
G01 X33.4335 Y31.6316
G01 X33.4582 Y31.6244
G01 X33.5391 Y31.6041
G01 X33.5559 Y31.6004
G01 X33.5728 Y31.5974
G01 X33.6553 Y31.5852
G01 X33.6809 Y31.5824
G01 X33.7728 Y31.5777
G01 X33.7900 Y31.5773
G01 X33.8082 Y31.5778
G01 X33.9621 Y31.4239
G01 X33.9162 Y31.4306
G01 X33.8991 Y31.4323
G01 X33.7986 Y31.4372
G01 X33.7728 Y31.4369
G01 X33.6809 Y31.4323
G01 X33.6553 Y31.4294
G01 X33.5728 Y31.4172
G01 X33.5559 Y31.4143
G01 X33.5391 Y31.4105
G01 X33.4582 Y31.3902
G01 X33.4335 Y31.3830
G01 X33.3388 Y31.3492
G01 X33.3151 Y31.3390
G01 X33.2397 Y31.3033
G01 X33.2243 Y31.2956
G01 X33.2094 Y31.2872
G01 X33.1378 Y31.2443
G01 X33.1233 Y31.2351
G01 X33.1093 Y31.2252
G01 X33.0423 Y31.1755
G01 X33.0287 Y31.1649
G01 X33.0157 Y31.1537
G01 X32.9476 Y31.0918
G01 X32.9296 Y31.0734
G01 X32.8736 Y31.0116
G01 X32.8624 Y30.9986
G01 X32.8518 Y30.9850
G01 X32.8021 Y30.9180
G01 X32.7922 Y30.9040
G01 X32.7830 Y30.8895
G01 X32.7358 Y30.8105
G01 X32.7240 Y30.7876
G01 X32.6883 Y30.7122
G01 X32.6813 Y30.6965
G01 X32.6752 Y30.6805
G01 X32.6471 Y30.6020
G01 X32.6417 Y30.5857
G01 X32.6371 Y30.5691
G01 X32.6168 Y30.4882
G01 X32.6131 Y30.4714
G01 X32.6101 Y30.4545
G01 X32.5979 Y30.3720
G01 X32.5958 Y30.3549
G01 X32.5945 Y30.3378
G01 X32.5904 Y30.2545
G01 X32.5900 Y30.2373
G01 X32.5904 Y30.2201
G01 X32.5945 Y30.1368
G01 X32.5967 Y30.1112
G01 X32.6101 Y30.0201
G01 X32.6131 Y30.0032
G01 X32.6168 Y29.9864
G01 X32.6371 Y29.9055
G01 X32.6417 Y29.8890
G01 X32.6471 Y29.8727
G01 X32.6752 Y29.7941
G01 X32.6813 Y29.7781
G01 X32.6883 Y29.7624
G01 X32.7240 Y29.6870
G01 X32.7358 Y29.6641
G01 X32.7830 Y29.5851
G01 X32.7922 Y29.5706
G01 X32.8021 Y29.5566
G01 X32.8518 Y29.4896
G01 X32.8624 Y29.4760
G01 X32.8736 Y29.4630
G01 X32.9355 Y29.3949
G01 X32.9539 Y29.3769
G01 X33.0157 Y29.3209
G01 X33.0287 Y29.3097
G01 X33.0423 Y29.2991
G01 X33.1093 Y29.2494
G01 X33.1233 Y29.2395
G01 X33.1378 Y29.2304
G01 X33.2094 Y29.1875
G01 X33.2243 Y29.1790
G01 X33.2397 Y29.1713
G01 X33.3151 Y29.1356
G01 X33.3308 Y29.1287
G01 X33.3468 Y29.1225
G01 X33.4253 Y29.0944
G01 X33.4499 Y29.0866
G01 X33.5391 Y29.0641
G01 X33.5559 Y29.0604
G01 X33.5796 Y29.0564
G01 X33.7407 Y28.8953
G01 X33.6809 Y28.8923
G01 X33.6638 Y28.8906
G01 X33.5728 Y28.8772
G01 X33.5475 Y28.8725
G01 X33.4582 Y28.8502
G01 X33.4417 Y28.8456
G01 X33.4253 Y28.8403
G01 X33.3388 Y28.8092
G01 X33.3151 Y28.7990
G01 X33.2397 Y28.7633
G01 X33.2243 Y28.7556
G01 X33.2094 Y28.7472
G01 X33.1378 Y28.7043
G01 X33.1233 Y28.6951
G01 X33.1093 Y28.6852
G01 X33.0354 Y28.6303
G01 X33.0180 Y28.6157
G01 X32.3585 Y28.6157
G01 X32.3336 Y28.6524
G01 X32.3188 Y28.6716
G01 X32.2934 Y28.7015
G01 X32.2659 Y28.7296
G01 X32.2482 Y28.7461
G01 X32.2180 Y28.7712
G01 X32.1985 Y28.7856
G01 X32.1659 Y28.8074
G01 X32.1317 Y28.8269
G01 X32.1102 Y28.8379
G01 X32.0742 Y28.8538
G01 X32.0515 Y28.8623
G01 X32.0142 Y28.8744
G01 X31.9761 Y28.8838
G01 X31.9523 Y28.8885
G01 X31.9134 Y28.8939
G01 X31.8892 Y28.8959
G01 X31.8500 Y28.8973
G01 X30.6500 Y28.8973
G01 X30.6083 Y28.8957
G01 X30.5912 Y28.8944
G01 X30.5499 Y28.8887
G01 X30.5245 Y28.8840
G01 X30.4924 Y28.8761
G01 X30.4758 Y28.8715
G01 X30.4364 Y28.8578
G01 X30.4125 Y28.8483
G01 X30.3825 Y28.8342
G01 X30.3672 Y28.8265
G01 X30.3312 Y28.8054
G01 X30.3096 Y28.7913
G01 X30.2829 Y28.7717
G01 X30.2694 Y28.7611
G01 X30.2382 Y28.7334
G01 X30.2197 Y28.7154
G01 X30.1917 Y28.6845
G01 X30.1756 Y28.6644
G01 X30.1511 Y28.6307
G01 X30.1419 Y28.6161
G01 X30.1250 Y28.5877
G01 X30.1131 Y28.5648
G01 X30.0957 Y28.5269
G01 X30.0812 Y28.4878
G01 X30.0734 Y28.4632
G01 X30.0653 Y28.4311
G01 X30.0600 Y28.4059
G01 X30.0538 Y28.3647
G01 X30.0522 Y28.3476
G01 X30.0504 Y28.3145
G01 X30.0500 Y28.2973
G01 X30.0500 Y27.0973
G01 X30.0504 Y27.0801
G01 X30.0522 Y27.0471
G01 X30.0550 Y27.0215
G01 X30.0600 Y26.9887
G01 X30.0633 Y26.9719
G01 X30.0713 Y26.9397
G01 X30.0758 Y26.9231
G01 X30.0812 Y26.9068
G01 X30.0925 Y26.8757
G01 X30.1026 Y26.8520
G01 X30.1208 Y26.8145
G01 X30.1293 Y26.7995
G01 X30.1496 Y26.7663
G01 X30.1496 Y19.2653
G01 X30.1500 Y19.2481
G01 X30.1518 Y19.2114
G01 X30.1257 Y19.2144
G01 X30.1000 Y19.2153
G01 X29.1062 Y19.2153
G01 X26.9754 Y21.3461
G01 X26.9754 Y29.8654
G01 X26.9802 Y29.8522
G01 X26.9868 Y29.8363
G01 X27.0218 Y29.7619
G01 X27.0296 Y29.7466
G01 X27.0380 Y29.7317
G01 X27.0759 Y29.6685
G01 X27.0851 Y29.6540
G01 X27.0950 Y29.6399
G01 X27.1388 Y29.5808
G01 X27.1494 Y29.5672
G01 X27.1606 Y29.5542
G01 X27.2101 Y29.4997
G01 X27.2219 Y29.4872
G01 X27.2344 Y29.4754
G01 X27.2889 Y29.4259
G01 X27.3019 Y29.4147
G01 X27.3155 Y29.4041
G01 X27.3746 Y29.3603
G01 X27.3887 Y29.3504
G01 X27.4032 Y29.3412
G01 X27.4663 Y29.3033
G01 X27.4813 Y29.2949
G01 X27.4966 Y29.2871
G01 X27.5632 Y29.2557
G01 X27.5789 Y29.2487
G01 X27.5949 Y29.2425
G01 X27.6643 Y29.2177
G01 X27.6806 Y29.2123
G01 X27.6971 Y29.2077
G01 X27.7686 Y29.1898
G01 X27.7938 Y29.1845
G01 X27.8751 Y29.1723
G01 X27.8921 Y29.1702
G01 X27.9093 Y29.1690
G01 X27.9828 Y29.1654
G01 X28.0000 Y29.1649
G01 X30.7131 Y29.1649
G01 X30.7751 Y29.1356
G01 X30.7908 Y29.1287
G01 X30.8068 Y29.1225
G01 X30.8853 Y29.0944
G01 X30.9017 Y29.0890
G01 X30.9182 Y29.0844
G01 X30.9991 Y29.0641
G01 X31.0159 Y29.0604
G01 X31.0328 Y29.0574
G01 X31.1238 Y29.0440
G01 X31.1495 Y29.0418
G01 X31.2328 Y29.0377
G01 X31.2500 Y29.0373
G01 X31.2672 Y29.0377
G01 X31.3505 Y29.0418
G01 X31.3676 Y29.0431
G01 X31.3847 Y29.0452
G01 X31.4672 Y29.0574
G01 X31.4925 Y29.0621
G01 X31.5818 Y29.0844
G01 X31.5983 Y29.0890
G01 X31.6147 Y29.0944
G01 X31.6932 Y29.1225
G01 X31.7092 Y29.1287
G01 X31.7249 Y29.1356
G01 X31.8003 Y29.1713
G01 X31.8157 Y29.1790
G01 X31.8306 Y29.1875
G01 X31.9022 Y29.2304
G01 X31.9167 Y29.2395
G01 X31.9307 Y29.2494
G01 X31.9977 Y29.2991
G01 X32.0113 Y29.3097
G01 X32.0243 Y29.3209
G01 X32.0861 Y29.3769
G01 X32.0985 Y29.3888
G01 X32.1104 Y29.4012
G01 X32.1664 Y29.4630
G01 X32.1776 Y29.4760
G01 X32.1882 Y29.4896
G01 X32.2379 Y29.5566
G01 X32.2478 Y29.5706
G01 X32.2570 Y29.5851
G01 X32.2998 Y29.6567
G01 X32.3083 Y29.6716
G01 X32.3160 Y29.6870
G01 X32.3517 Y29.7624
G01 X32.3587 Y29.7781
G01 X32.3648 Y29.7941
G01 X32.3929 Y29.8727
G01 X32.3983 Y29.8890
G01 X32.4029 Y29.9055
G01 X32.4232 Y29.9864
G01 X32.4269 Y30.0032
G01 X32.4299 Y30.0201
G01 X32.4421 Y30.1026
G01 X32.4442 Y30.1197
G01 X32.4455 Y30.1368
G01 X32.4496 Y30.2201
G01 X32.4500 Y30.2373
G01 X32.4496 Y30.2545
G01 X32.4455 Y30.3378
G01 X32.4442 Y30.3549
G01 X32.4421 Y30.3720
G01 X32.4299 Y30.4545
G01 X32.4269 Y30.4714
G01 X32.4232 Y30.4882
G01 X32.4029 Y30.5691
G01 X32.3983 Y30.5857
G01 X32.3929 Y30.6020
G01 X32.3648 Y30.6805
G01 X32.3587 Y30.6965
G01 X32.3517 Y30.7122
G01 X32.3160 Y30.7876
G01 X32.3083 Y30.8030
G01 X32.2998 Y30.8179
G01 X32.2570 Y30.8895
G01 X32.2478 Y30.9040
G01 X32.2379 Y30.9180
G01 X32.1882 Y30.9850
G01 X32.1776 Y30.9986
G01 X32.1664 Y31.0116
G01 X32.1045 Y31.0797
G01 X32.0861 Y31.0977
G01 X32.0243 Y31.1537
G01 X32.0113 Y31.1649
G01 X31.9977 Y31.1755
G01 X31.9307 Y31.2252
G01 X31.9167 Y31.2351
G01 X31.9022 Y31.2443
G01 X31.8232 Y31.2915
G01 X31.8003 Y31.3033
G01 X31.7249 Y31.3390
G01 X31.7092 Y31.3460
G01 X31.6932 Y31.3522
G01 X31.6147 Y31.3803
G01 X31.5983 Y31.3856
G01 X31.5818 Y31.3902
G01 X31.5009 Y31.4105
G01 X31.4841 Y31.4143
G01 X31.4672 Y31.4172
G01 X31.3847 Y31.4294
G01 X31.3676 Y31.4315
G01 X31.3505 Y31.4328
G01 X31.2672 Y31.4369
G01 X31.2500 Y31.4373
G01 X31.2328 Y31.4369
G01 X31.1495 Y31.4328
G01 X31.1238 Y31.4306
G01 X31.0328 Y31.4172
G01 X31.0075 Y31.4125
G01 X30.9099 Y31.3880
G01 X30.8935 Y31.3830
G01 X30.8446 Y31.3657
G01 X29.1004 Y31.3657
G01 X29.1003 Y31.7739
G01 X29.0963 Y31.8560
G01 X29.0951 Y31.8732
G01 X29.0930 Y31.8902
G01 X29.0822 Y31.9631
G01 X29.0775 Y31.9884
G01 X29.0554 Y32.0765
G01 X29.0476 Y32.1010
G01 X29.0228 Y32.1704
G01 X29.0166 Y32.1864
G01 X29.0097 Y32.2021
G01 X28.9782 Y32.2687
G01 X28.9704 Y32.2840
G01 X28.9620 Y32.2990
G01 X28.9241 Y32.3621
G01 X28.9149 Y32.3766
G01 X28.9050 Y32.3907
G01 X28.8612 Y32.4498
G01 X28.8451 Y32.4700
G01 X28.7899 Y32.5310
G01 X28.7781 Y32.5434
G01 X26.2781 Y35.0434
G01 X26.2656 Y35.0552
G01 X26.2111 Y35.1047
G01 X26.1981 Y35.1159
G01 X26.1845 Y35.1265
G01 X26.1254 Y35.1703
G01 X26.1113 Y35.1802
G01 X26.0968 Y35.1894
G01 X26.0337 Y35.2273
G01 X26.0187 Y35.2358
G01 X26.0034 Y35.2435
G01 X25.9368 Y35.2750
G01 X25.9211 Y35.2819
G01 X25.9051 Y35.2881
G01 X25.8357 Y35.3129
G01 X25.8194 Y35.3183
G01 X25.8029 Y35.3229
G01 X25.7231 Y35.3428
G01 X25.6977 Y35.3475
G01 X25.6249 Y35.3583
G01 X25.6079 Y35.3604
G01 X25.5907 Y35.3617
G01 X25.5172 Y35.3653
G01 X25.5000 Y35.3657
G01 X13.8504 Y35.3657
G01 X13.8504 Y58.1649
G01 X17.1496 Y58.1649
G01 X17.1496 Y55.2595
G01 X17.1449 Y55.2426
G01 X17.1259 Y55.1664
G01 X17.1221 Y55.1497
G01 X17.1192 Y55.1327
G01 X17.1076 Y55.0551
G01 X17.1055 Y55.0380
G01 X17.1043 Y55.0209
G01 X17.1004 Y54.9425
G01 X17.1000 Y54.9253
G01 X17.1004 Y54.9081
G01 X17.1043 Y54.8297
G01 X17.1055 Y54.8126
G01 X17.1076 Y54.7955
G01 X17.1192 Y54.7179
G01 X17.1221 Y54.7010
G01 X17.1259 Y54.6842
G01 X17.1449 Y54.6080
G01 X17.1495 Y54.5915
G01 X17.1549 Y54.5752
G01 X17.1843 Y54.4932
G01 X17.1945 Y54.4695
G01 X17.2281 Y54.3986
G01 X17.2358 Y54.3832
G01 X17.2443 Y54.3683
G01 X17.2846 Y54.3009
G01 X17.2938 Y54.2864
G01 X17.3037 Y54.2724
G01 X17.3505 Y54.2093
G01 X17.3610 Y54.1958
G01 X17.3723 Y54.1828
G01 X17.4250 Y54.1246
G01 X17.4430 Y54.1061
G01 X17.5074 Y54.0476
G01 X17.5204 Y54.0364
G01 X17.5340 Y54.0258
G01 X17.5970 Y53.9790
G01 X17.6111 Y53.9691
G01 X17.6256 Y53.9599
G01 X17.6929 Y53.9196
G01 X17.7079 Y53.9111
G01 X17.7232 Y53.9034
G01 X17.7942 Y53.8698
G01 X17.8099 Y53.8629
G01 X17.8259 Y53.8567
G01 X17.8999 Y53.8302
G01 X17.9162 Y53.8248
G01 X17.9327 Y53.8202
G01 X18.0172 Y53.7992
G01 X18.0426 Y53.7945
G01 X18.1202 Y53.7830
G01 X18.1373 Y53.7809
G01 X18.1544 Y53.7796
G01 X18.2328 Y53.7757
G01 X18.2500 Y53.7753
G01 X18.2672 Y53.7757
G01 X18.3456 Y53.7796
G01 X18.3627 Y53.7809
G01 X18.3798 Y53.7830
G01 X18.4574 Y53.7945
G01 X18.4828 Y53.7992
G01 X18.5673 Y53.8202
G01 X18.5838 Y53.8248
G01 X18.6001 Y53.8302
G01 X18.6741 Y53.8567
G01 X18.6901 Y53.8629
G01 X18.7058 Y53.8698
G01 X18.7768 Y53.9034
G01 X18.7921 Y53.9111
G01 X18.8071 Y53.9196
G01 X18.8744 Y53.9599
G01 X18.8889 Y53.9691
G01 X18.9030 Y53.9790
G01 X18.9660 Y54.0258
G01 X18.9796 Y54.0364
G01 X18.9926 Y54.0476
G01 X19.0570 Y54.1061
G01 X19.0750 Y54.1246
G01 X19.1277 Y54.1828
G01 X19.1390 Y54.1958
G01 X19.1495 Y54.2093
G01 X19.1963 Y54.2724
G01 X19.2062 Y54.2864
G01 X19.2154 Y54.3009
G01 X19.2557 Y54.3683
G01 X19.2642 Y54.3832
G01 X19.2719 Y54.3986
G01 X19.3055 Y54.4695
G01 X19.3157 Y54.4932
G01 X19.3451 Y54.5752
G01 X19.3505 Y54.5915
G01 X19.3551 Y54.6080
G01 X19.3741 Y54.6842
G01 X19.3779 Y54.7010
G01 X19.3808 Y54.7179
G01 X19.3924 Y54.7955
G01 X19.3945 Y54.8126
G01 X19.3957 Y54.8297
G01 X19.3996 Y54.9081
G01 X19.4000 Y54.9253
G01 X19.3996 Y54.9425
G01 X19.3957 Y55.0209
G01 X19.3945 Y55.0380
G01 X19.3924 Y55.0551
G01 X19.3808 Y55.1327
G01 X19.3779 Y55.1497
G01 X19.3741 Y55.1664
G01 X19.3551 Y55.2426
G01 X19.3504 Y55.2595
G01 X19.3504 Y58.1649
G01 X38.8734 Y58.1649
G01 X38.8056 Y58.1332
G01 X38.7902 Y58.1255
G01 X38.7753 Y58.1170
G01 X38.7227 Y58.0854
G01 X38.7081 Y58.0763
G01 X38.6941 Y58.0664
G01 X38.6448 Y58.0298
G01 X38.6247 Y58.0137
G01 X38.5728 Y57.9668
G01 X38.5603 Y57.9550
G01 X38.0960 Y57.4906
G01 X22.7414 Y57.4905
G01 X22.6715 Y57.4872
G01 X22.6459 Y57.4850
G01 X22.5682 Y57.4735
G01 X22.5430 Y57.4681
G01 X22.4834 Y57.4532
G01 X22.4669 Y57.4486
G01 X22.4506 Y57.4432
G01 X22.3928 Y57.4226
G01 X22.3689 Y57.4130
G01 X22.3056 Y57.3832
G01 X22.2902 Y57.3755
G01 X22.2753 Y57.3670
G01 X22.2227 Y57.3354
G01 X22.2081 Y57.3263
G01 X22.1941 Y57.3164
G01 X22.1448 Y57.2798
G01 X22.1313 Y57.2692
G01 X22.1183 Y57.2580
G01 X22.0728 Y57.2168
G01 X22.0603 Y57.2050
G01 X22.0485 Y57.1925
G01 X22.0073 Y57.1471
G01 X21.9907 Y57.1273
G01 X21.9489 Y57.0712
G01 X21.9391 Y57.0572
G01 X21.9299 Y57.0427
G01 X21.8983 Y56.9900
G01 X21.8899 Y56.9751
G01 X21.8821 Y56.9597
G01 X21.8559 Y56.9043
G01 X21.8489 Y56.8885
G01 X21.8427 Y56.8725
G01 X21.8221 Y56.8147
G01 X21.8167 Y56.7984
G01 X21.8121 Y56.7819
G01 X21.7972 Y56.7223
G01 X21.7919 Y56.6971
G01 X21.7815 Y56.6280
G01 X21.7794 Y56.6109
G01 X21.7781 Y56.5938
G01 X21.7748 Y56.5239
G01 X21.7747 Y39.6577
G01 X21.7574 Y39.6431
G01 X21.6993 Y39.5903
G01 X21.6868 Y39.5785
G01 X21.6750 Y39.5660
G01 X21.6223 Y39.5079
G01 X21.6110 Y39.4949
G01 X21.6005 Y39.4813
G01 X21.5537 Y39.4183
G01 X21.5438 Y39.4042
G01 X21.5346 Y39.3897
G01 X21.4943 Y39.3224
G01 X21.4818 Y39.2998
G01 X21.4445 Y39.2211
G01 X21.4375 Y39.2054
G01 X21.4314 Y39.1894
G01 X21.4049 Y39.1155
G01 X21.3995 Y39.0991
G01 X21.3949 Y39.0826
G01 X21.3759 Y39.0064
G01 X21.3721 Y38.9897
G01 X21.3692 Y38.9727
G01 X21.3576 Y38.8951
G01 X21.3555 Y38.8780
G01 X21.3543 Y38.8609
G01 X21.3504 Y38.7825
G01 X21.3501 Y38.7567
G01 X21.3543 Y38.6697
G01 X21.3555 Y38.6526
G01 X21.3576 Y38.6355
G01 X21.3692 Y38.5579
G01 X21.3721 Y38.5410
G01 X21.3759 Y38.5242
G01 X21.3949 Y38.4480
G01 X21.3995 Y38.4315
G01 X21.4049 Y38.4152
G01 X21.4314 Y38.3413
G01 X21.4375 Y38.3252
G01 X21.4445 Y38.3095
G01 X21.4818 Y38.2308
G01 X21.4943 Y38.2083
G01 X21.5346 Y38.1409
G01 X21.5438 Y38.1264
G01 X21.5537 Y38.1124
G01 X21.6005 Y38.0493
G01 X21.6166 Y38.0292
G01 X21.6808 Y37.9583
G01 X21.6993 Y37.9403
G01 X21.7574 Y37.8876
G01 X21.7704 Y37.8764
G01 X21.7840 Y37.8658
G01 X21.8470 Y37.8190
G01 X21.8611 Y37.8091
G01 X21.8756 Y37.7999
G01 X21.9429 Y37.7596
G01 X21.9579 Y37.7511
G01 X21.9732 Y37.7434
G01 X22.0442 Y37.7098
G01 X22.0599 Y37.7029
G01 X22.0759 Y37.6967
G01 X22.1499 Y37.6702
G01 X22.1662 Y37.6648
G01 X22.1827 Y37.6602
G01 X22.2589 Y37.6412
G01 X22.2756 Y37.6374
G01 X22.2926 Y37.6345
G01 X22.3702 Y37.6230
G01 X22.3873 Y37.6209
G01 X22.4044 Y37.6196
G01 X22.4828 Y37.6157
G01 X22.5000 Y37.6153
G01 X22.5172 Y37.6157
G01 X22.5956 Y37.6196
G01 X22.6127 Y37.6209
G01 X22.6298 Y37.6230
G01 X22.7074 Y37.6345
G01 X22.7244 Y37.6374
G01 X22.7411 Y37.6412
G01 X22.8173 Y37.6602
G01 X22.8338 Y37.6648
G01 X22.8501 Y37.6702
G01 X22.9321 Y37.6997
G01 X22.9558 Y37.7098
G01 X23.0268 Y37.7434
G01 X23.0421 Y37.7511
G01 X23.0571 Y37.7596
G01 X23.1244 Y37.7999
G01 X23.1389 Y37.8091
G01 X23.1530 Y37.8190
G01 X23.2160 Y37.8658
G01 X23.2296 Y37.8764
G01 X23.2426 Y37.8876
G01 X23.3070 Y37.9461
G01 X23.3250 Y37.9646
G01 X23.3640 Y38.0076
G01 X23.3817 Y38.0226
G01 X23.4272 Y38.0638
G01 X23.4397 Y38.0757
G01 X23.4515 Y38.0881
G01 X23.4984 Y38.1400
G01 X23.5145 Y38.1601
G01 X23.5511 Y38.2094
G01 X23.5609 Y38.2235
G01 X23.5701 Y38.2380
G01 X23.6060 Y38.2980
G01 X23.6179 Y38.3209
G01 X23.6441 Y38.3764
G01 X23.6511 Y38.3921
G01 X23.6573 Y38.4081
G01 X23.6779 Y38.4659
G01 X23.6833 Y38.4822
G01 X23.6879 Y38.4988
G01 X23.7028 Y38.5583
G01 X23.7066 Y38.5750
G01 X23.7095 Y38.5920
G01 X23.7185 Y38.6527
G01 X23.7214 Y38.6783
G01 X23.7249 Y38.7481
G01 X23.7253 Y38.7653
G01 X23.7253 Y55.5400
G01 X38.5086 Y55.5401
G01 X38.5785 Y55.5434
G01 X38.5956 Y55.5447
G01 X38.6126 Y55.5468
G01 X38.6733 Y55.5558
G01 X38.6903 Y55.5587
G01 X38.7070 Y55.5625
G01 X38.7666 Y55.5774
G01 X38.7831 Y55.5820
G01 X38.7994 Y55.5874
G01 X38.8572 Y55.6081
G01 X38.8732 Y55.6142
G01 X38.8889 Y55.6212
G01 X38.9444 Y55.6474
G01 X38.9598 Y55.6552
G01 X38.9747 Y55.6636
G01 X39.0273 Y55.6952
G01 X39.0419 Y55.7044
G01 X39.0559 Y55.7143
G01 X39.1052 Y55.7508
G01 X39.1187 Y55.7614
G01 X39.1317 Y55.7726
G01 X39.1835 Y55.8197
G01 X39.6540 Y56.2900
G01 X40.0119 Y56.2900
G01 X40.0693 Y56.2474
G01 X40.0833 Y56.2375
G01 X40.0978 Y56.2284
G01 X40.1694 Y56.1855
G01 X40.1843 Y56.1770
G01 X40.1997 Y56.1693
G01 X40.2751 Y56.1336
G01 X40.2908 Y56.1267
G01 X40.3068 Y56.1205
G01 X40.3853 Y56.0924
G01 X40.4017 Y56.0870
G01 X40.4182 Y56.0824
G01 X40.4991 Y56.0621
G01 X40.5159 Y56.0584
G01 X40.5328 Y56.0554
G01 X40.6153 Y56.0432
G01 X40.6324 Y56.0411
G01 X40.6495 Y56.0398
G01 X40.7328 Y56.0357
G01 X40.7500 Y56.0353
G01 X40.7672 Y56.0357
G01 X40.8505 Y56.0398
G01 X40.8676 Y56.0411
G01 X40.8847 Y56.0432
G01 X40.9672 Y56.0554
G01 X40.9841 Y56.0584
G01 X41.0009 Y56.0621
G01 X41.0901 Y56.0846
G01 X41.1147 Y56.0924
G01 X41.1932 Y56.1205
G01 X41.2092 Y56.1267
G01 X41.2249 Y56.1336
G01 X41.3003 Y56.1693
G01 X41.3157 Y56.1770
G01 X41.3306 Y56.1855
G01 X41.4022 Y56.2284
G01 X41.4167 Y56.2375
G01 X41.4307 Y56.2474
G01 X41.4977 Y56.2971
G01 X41.5113 Y56.3077
G01 X41.5243 Y56.3189
G01 X41.5861 Y56.3749
G01 X41.5985 Y56.3868
G01 X41.6104 Y56.3992
G01 X41.6664 Y56.4610
G01 X41.6776 Y56.4740
G01 X41.6882 Y56.4876
G01 X41.7379 Y56.5546
G01 X41.7478 Y56.5686
G01 X41.7570 Y56.5831
G01 X41.7998 Y56.6547
G01 X41.8083 Y56.6696
G01 X41.8160 Y56.6850
G01 X41.8517 Y56.7604
G01 X41.8587 Y56.7761
G01 X41.8648 Y56.7921
G01 X41.8929 Y56.8707
G01 X41.8983 Y56.8870
G01 X41.9029 Y56.9035
G01 X41.9232 Y56.9844
G01 X41.9269 Y57.0012
G01 X41.9299 Y57.0181
G01 X41.9421 Y57.1006
G01 X41.9442 Y57.1177
G01 X41.9455 Y57.1348
G01 X41.9496 Y57.2181
G01 X41.9500 Y57.2353
G01 X41.9496 Y57.2525
G01 X41.9455 Y57.3358
G01 X41.9442 Y57.3529
G01 X41.9421 Y57.3700
G01 X41.9299 Y57.4525
G01 X41.9269 Y57.4694
G01 X41.9232 Y57.4862
G01 X41.9029 Y57.5671
G01 X41.8983 Y57.5837
G01 X41.8929 Y57.6000
G01 X41.8648 Y57.6785
G01 X41.8587 Y57.6945
G01 X41.8517 Y57.7102
G01 X41.8160 Y57.7856
G01 X41.8083 Y57.8010
G01 X41.7998 Y57.8159
G01 X41.7570 Y57.8875
G01 X41.7478 Y57.9020
G01 X41.7379 Y57.9160
G01 X41.6830 Y57.9899
G01 X41.6664 Y58.0096
G01 X41.6104 Y58.0714
G01 X41.5985 Y58.0838
G01 X41.5861 Y58.0957
G01 X41.5243 Y58.1517
G01 X41.5113 Y58.1629
G01 X41.4977 Y58.1735
G01 X41.4307 Y58.2232
G01 X41.4167 Y58.2331
G01 X41.4022 Y58.2423
G01 X41.3306 Y58.2852
G01 X41.3081 Y58.2976
G01 X41.2171 Y58.3406
G01 X41.1932 Y58.3502
G01 X41.1147 Y58.3783
G01 X41.0901 Y58.3860
G01 X41.0009 Y58.4085
G01 X40.9757 Y58.4138
G01 X40.9514 Y58.4175
G01 X41.0219 Y58.4812
G01 X41.2064 Y58.6655
G01 X41.2249 Y58.6736
G01 X41.3003 Y58.7093
G01 X41.3157 Y58.7170
G01 X41.3306 Y58.7255
G01 X41.4022 Y58.7684
G01 X41.4167 Y58.7775
G01 X41.4307 Y58.7874
G01 X41.4977 Y58.8371
G01 X41.5113 Y58.8477
G01 X41.5243 Y58.8589
G01 X41.5861 Y58.9149
G01 X41.6045 Y58.9329
G01 X41.6721 Y59.0075
G01 X41.6882 Y59.0276
G01 X41.7379 Y59.0946
G01 X41.7478 Y59.1086
G01 X41.7570 Y59.1231
G01 X41.7998 Y59.1947
G01 X41.8083 Y59.2096
G01 X41.8160 Y59.2250
G01 X41.8517 Y59.3004
G01 X41.8587 Y59.3161
G01 X41.8648 Y59.3321
G01 X41.8929 Y59.4107
G01 X41.9007 Y59.4352
G01 X41.9232 Y59.5244
G01 X41.9269 Y59.5412
G01 X41.9299 Y59.5581
G01 X41.9421 Y59.6406
G01 X41.9442 Y59.6577
G01 X41.9455 Y59.6748
G01 X41.9496 Y59.7581
G01 X41.9500 Y59.7753
G01 X41.9496 Y59.7925
G01 X41.9455 Y59.8758
G01 X41.9442 Y59.8929
G01 X41.9421 Y59.9100
G01 X41.9299 Y59.9925
G01 X41.9269 Y60.0094
G01 X41.9232 Y60.0262
G01 X41.9029 Y60.1071
G01 X41.8983 Y60.1237
G01 X41.8929 Y60.1400
G01 X41.8648 Y60.2185
G01 X41.8587 Y60.2345
G01 X41.8517 Y60.2502
G01 X41.8160 Y60.3256
G01 X41.8083 Y60.3410
G01 X41.7998 Y60.3559
G01 X41.7570 Y60.4275
G01 X41.7478 Y60.4420
G01 X41.7379 Y60.4560
G01 X41.6882 Y60.5230
G01 X41.6776 Y60.5366
G01 X41.6664 Y60.5496
G01 X41.6104 Y60.6114
G01 X41.5924 Y60.6298
G01 X41.5243 Y60.6917
G01 X41.5113 Y60.7029
G01 X41.4977 Y60.7135
G01 X41.4307 Y60.7632
G01 X41.4167 Y60.7731
G01 X41.4022 Y60.7823
G01 X41.3306 Y60.8252
G01 X41.3157 Y60.8336
G01 X41.3003 Y60.8413
G01 X41.2249 Y60.8770
G01 X41.2092 Y60.8840
G01 X41.1932 Y60.8902
G01 X41.1147 Y60.9183
G01 X41.0983 Y60.9236
G01 X41.0818 Y60.9282
G01 X41.0009 Y60.9485
G01 X40.9841 Y60.9523
G01 X40.9672 Y60.9552
G01 X40.8847 Y60.9674
G01 X40.8676 Y60.9695
G01 X40.8505 Y60.9708
G01 X40.7672 Y60.9749
G01 X40.7500 Y60.9753
G01 X40.7328 Y60.9749
G01 X40.6495 Y60.9708
G01 X40.6324 Y60.9695
G01 X40.6153 Y60.9674
G01 X40.5328 Y60.9552
G01 X40.5159 Y60.9523
G01 X40.4991 Y60.9485
G01 X40.4182 Y60.9282
G01 X40.4017 Y60.9236
G01 X40.3853 Y60.9183
G01 X40.3068 Y60.8902
G01 X40.2908 Y60.8840
G01 X40.2751 Y60.8770
G01 X40.1997 Y60.8413
G01 X40.1843 Y60.8336
G01 X40.1694 Y60.8252
G01 X40.0978 Y60.7823
G01 X40.0833 Y60.7731
G01 X40.0693 Y60.7632
G01 X40.0023 Y60.7135
G01 X39.9887 Y60.7029
G01 X39.9757 Y60.6917
G01 X39.9139 Y60.6357
G01 X39.9015 Y60.6238
G01 X39.8896 Y60.6114
G01 X39.8336 Y60.5496
G01 X39.8224 Y60.5366
G01 X39.8118 Y60.5230
G01 X39.7621 Y60.4560
G01 X39.7522 Y60.4420
G01 X39.7430 Y60.4275
G01 X39.7060 Y60.3657
G01 X6.8777 Y60.3657
G01 X6.8592 Y60.3740
G01 X6.8432 Y60.3802
G01 X6.7647 Y60.4083
G01 X6.7401 Y60.4160
G01 X6.6509 Y60.4385
G01 X6.6341 Y60.4423
G01 X6.6172 Y60.4452
G01 X6.5262 Y60.4586
G01 X6.5005 Y60.4608
G01 X6.4086 Y60.4652
G01 X6.0914 Y60.4652
G01 X5.9995 Y60.4608
G01 X5.9824 Y60.4595
G01 X5.9653 Y60.4574
G01 X5.8828 Y60.4452
G01 X5.8575 Y60.4405
G01 X5.7682 Y60.4182
G01 X5.7435 Y60.4110
G01 X5.6488 Y60.3772
G01 X5.6329 Y60.3706
G01 X5.6223 Y60.3657
G01 X2.2500 Y60.3657
G01 X2.2328 Y60.3653
G01 X2.1593 Y60.3617
G01 X2.1421 Y60.3604
G01 X2.1251 Y60.3583
G01 X2.0523 Y60.3475
G01 X2.0353 Y60.3445
G01 X2.0186 Y60.3408
G01 X1.9471 Y60.3229
G01 X1.9306 Y60.3183
G01 X1.9143 Y60.3129
G01 X1.8449 Y60.2881
G01 X1.8289 Y60.2819
G01 X1.8132 Y60.2750
G01 X1.7466 Y60.2435
G01 X1.7313 Y60.2358
G01 X1.7163 Y60.2273
G01 X1.6459 Y60.1849
G01 X1.6246 Y60.1703
G01 X1.5655 Y60.1265
G01 X1.5519 Y60.1159
G01 X1.5389 Y60.1047
G01 X1.4844 Y60.0552
G01 X1.4659 Y60.0372
G01 X1.4106 Y59.9764
G01 X1.3994 Y59.9634
G01 X1.3888 Y59.9498
G01 X1.3450 Y59.8907
G01 X1.3351 Y59.8766
G01 X1.3259 Y59.8621
G01 X1.2880 Y59.7990
G01 X1.2796 Y59.7840
G01 X1.2718 Y59.7687
G01 X1.2403 Y59.7021
G01 X1.2334 Y59.6864
G01 X1.2272 Y59.6704
G01 X1.2024 Y59.6010
G01 X1.1970 Y59.5847
G01 X1.1924 Y59.5682
G01 X1.1745 Y59.4967
G01 X1.1708 Y59.4800
G01 X1.1678 Y59.4631
G01 X1.1570 Y59.3902
G01 X1.1549 Y59.3732
G01 X1.1537 Y59.3560
G01 X1.1500 Y59.2825
G01 X1.1496 Y59.2653
G01 X1.1496 Y27.2653
G01 X1.1500 Y27.2481
G01 X1.1537 Y27.1746
G01 X1.1549 Y27.1575
G01 X1.1570 Y27.1404
G01 X1.1678 Y27.0676
G01 X1.1708 Y27.0506
G01 X1.1736 Y27.0377
G01 X1.1736 Y13.9813
G01 X1.1740 Y13.9641
G01 X1.1777 Y13.8906
G01 X1.1789 Y13.8735
G01 X1.1810 Y13.8564
G01 X1.1918 Y13.7836
G01 X1.1948 Y13.7666
G01 X1.1985 Y13.7499
G01 X1.2164 Y13.6784
G01 X1.2210 Y13.6619
G01 X1.2264 Y13.6456
G01 X1.2512 Y13.5762
G01 X1.2574 Y13.5602
G01 X1.2643 Y13.5445
G01 X1.2958 Y13.4779
G01 X1.3036 Y13.4626
G01 X1.3120 Y13.4477
G01 X1.3499 Y13.3845
G01 X1.3591 Y13.3700
G01 X1.3690 Y13.3559
G01 X1.4128 Y13.2968
G01 X1.4234 Y13.2832
G01 X1.4346 Y13.2702
G01 X1.4841 Y13.2157
G01 X1.4959 Y13.2032
G01 X4.9681 Y9.7312
G01 X5.0289 Y9.6759
G01 X5.0419 Y9.6647
G01 X5.0555 Y9.6541
G01 X5.1146 Y9.6103
G01 X5.1359 Y9.5957
G01 X5.2138 Y9.5490
G01 X5.2289 Y9.5409
G01 X5.2464 Y9.5325
G01 X5.2602 Y9.5224
G01 X5.2745 Y9.5129
G01 X5.3608 Y9.4611
G01 X5.3837 Y9.4493
G01 X5.4591 Y9.4136
G01 X5.4748 Y9.4067
G01 X5.4908 Y9.4005
G01 X5.5693 Y9.3724
G01 X5.5857 Y9.3670
G01 X5.6022 Y9.3624
G01 X5.6831 Y9.3421
G01 X5.6999 Y9.3384
G01 X5.7168 Y9.3354
G01 X5.7993 Y9.3232
G01 X5.8164 Y9.3211
G01 X5.8335 Y9.3198
G01 X5.9168 Y9.3157
G01 X5.9340 Y9.3153
G01 X6.2426 Y9.3154
G01 X6.3345 Y9.3198
G01 X6.3602 Y9.3220
G01 X6.4512 Y9.3354
G01 X6.4681 Y9.3384
G01 X6.4849 Y9.3421
G01 X6.5741 Y9.3646
G01 X6.5987 Y9.3724
G01 X6.6772 Y9.4005
G01 X6.6932 Y9.4067
G01 X6.7117 Y9.4149
G01 X10.8149 Y9.4149
G01 X10.8244 Y9.4096
G01 X10.8398 Y9.4019
G01 X10.8736 Y9.3859
G01 X10.8893 Y9.3790
G01 X10.9053 Y9.3728
G01 X10.9405 Y9.3602
G01 X10.9568 Y9.3548
G01 X10.9734 Y9.3502
G01 X11.0096 Y9.3411
G01 X11.0348 Y9.3358
G01 X11.0888 Y9.3278
G01 X11.1145 Y9.3256
G01 X11.1518 Y9.3237
G01 X11.1690 Y9.3233
G01 X11.9396 Y9.3234
G01 X11.9855 Y9.3256
G01 X12.0112 Y9.3278
G01 X12.0652 Y9.3358
G01 X12.0904 Y9.3411
G01 X12.1266 Y9.3502
G01 X12.1432 Y9.3548
G01 X12.1595 Y9.3602
G01 X12.1947 Y9.3728
G01 X12.2107 Y9.3790
G01 X12.2264 Y9.3859
G01 X12.2602 Y9.4019
G01 X12.2756 Y9.4096
G01 X12.2905 Y9.4181
G01 X12.3226 Y9.4373
G01 X12.3371 Y9.4465
G01 X12.3512 Y9.4564
G01 X12.3880 Y9.4839
G01 X12.4013 Y9.4948
G01 X12.4355 Y9.5256
G01 X12.4479 Y9.5374
G01 X12.4597 Y9.5499
G01 X12.4905 Y9.5840
G01 X12.5014 Y9.5973
G01 X12.5289 Y9.6341
G01 X12.5388 Y9.6482
G01 X12.5480 Y9.6627
G01 X12.5672 Y9.6948
G01 X12.5757 Y9.7097
G01 X12.5834 Y9.7251
G01 X12.5994 Y9.7589
G01 X12.6064 Y9.7746
G01 X12.6125 Y9.7906
G01 X12.6251 Y9.8258
G01 X12.6305 Y9.8421
G01 X12.6351 Y9.8587
G01 X12.6462 Y9.9033
G01 X12.6495 Y9.9201
G01 X12.6564 Y9.9656
G01 X12.6585 Y9.9827
G01 X12.6597 Y9.9998
G01 X12.6616 Y10.0371
G01 X12.6620 Y10.0543
G01 X12.6619 Y10.8249
G01 X12.6597 Y10.8708
G01 X12.6585 Y10.8880
G01 X12.6564 Y10.9050
G01 X12.6509 Y10.9420
G01 X12.6462 Y10.9673
G01 X12.6351 Y11.0120
G01 X12.6305 Y11.0285
G01 X12.6251 Y11.0448
G01 X12.6125 Y11.0800
G01 X12.6030 Y11.1039
G01 X12.5796 Y11.1533
G01 X12.5672 Y11.1759
G01 X12.5435 Y11.2152
G01 X12.5289 Y11.2365
G01 X12.5066 Y11.2665
G01 X12.4961 Y11.2801
G01 X12.4848 Y11.2931
G01 X12.4597 Y11.3208
G01 X12.4417 Y11.3392
G01 X12.4013 Y11.3759
G01 X12.3812 Y11.3920
G01 X12.3512 Y11.4142
G01 X12.3371 Y11.4241
G01 X12.3226 Y11.4333
G01 X12.2905 Y11.4525
G01 X12.2756 Y11.4610
G01 X12.2602 Y11.4687
G01 X12.2264 Y11.4847
G01 X12.2028 Y11.4949
G01 X12.1514 Y11.5132
G01 X12.1266 Y11.5204
G01 X12.0904 Y11.5295
G01 X12.0736 Y11.5333
G01 X12.0567 Y11.5362
G01 X12.0112 Y11.5428
G01 X11.9855 Y11.5451
G01 X11.9482 Y11.5469
G01 X11.9310 Y11.5473
G01 X11.6293 Y11.5473
G01 X11.5776 Y11.5657
G01 X11.5612 Y11.5707
G01 X11.4814 Y11.5908
G01 X11.4562 Y11.5961
G01 X11.3749 Y11.6083
G01 X11.3579 Y11.6104
G01 X11.3407 Y11.6117
G01 X11.2586 Y11.6156
G01 X6.7117 Y11.6157
G01 X6.6932 Y11.6240
G01 X6.6772 Y11.6302
G01 X6.5987 Y11.6583
G01 X6.5823 Y11.6636
G01 X6.5658 Y11.6682
G01 X6.4849 Y11.6885
G01 X6.4597 Y11.6938
G01 X6.3602 Y11.7086
G01 X6.3345 Y11.7108
G01 X6.2426 Y11.7152
G01 X6.0962 Y11.7153
G01 X3.3744 Y14.4371
G01 X3.3744 Y16.3909
G01 X14.2346 Y16.3910
G01 X14.3167 Y16.3950
G01 X14.3339 Y16.3962
G01 X14.3509 Y16.3983
G01 X14.4322 Y16.4105
G01 X14.4574 Y16.4158
G01 X14.5289 Y16.4337
G01 X14.5454 Y16.4383
G01 X14.5617 Y16.4437
G01 X14.6311 Y16.4685
G01 X14.6471 Y16.4747
G01 X14.6628 Y16.4817
G01 X14.7294 Y16.5131
G01 X14.7447 Y16.5209
G01 X14.7597 Y16.5293
G01 X14.8228 Y16.5672
G01 X14.8373 Y16.5764
G01 X14.8514 Y16.5863
G01 X14.9174 Y16.6353
G01 X14.9371 Y16.6519
G01 X14.9916 Y16.7014
G01 X15.0041 Y16.7132
G01 X17.2841 Y18.9934
G01 X17.3394 Y19.0542
G01 X17.3560 Y19.0739
G01 X17.4101 Y19.1469
G01 X17.4241 Y19.1685
G01 X17.4620 Y19.2317
G01 X17.4704 Y19.2466
G01 X17.4782 Y19.2619
G01 X17.5097 Y19.3285
G01 X17.5198 Y19.3522
G01 X17.5504 Y19.4377
G01 X17.5576 Y19.4624
G01 X17.5755 Y19.5339
G01 X17.5792 Y19.5506
G01 X17.5822 Y19.5676
G01 X17.5930 Y19.6404
G01 X17.5951 Y19.6575
G01 X17.5963 Y19.6746
G01 X17.6003 Y19.7567
G01 X17.6004 Y23.0784
G01 X17.6153 Y23.0894
G01 X17.6286 Y23.1003
G01 X17.6475 Y23.1178
G01 X17.6593 Y23.1303
G01 X17.6759 Y23.1500
G01 X17.6862 Y23.1638
G01 X17.6957 Y23.1781
G01 X17.7045 Y23.1928
G01 X17.7126 Y23.2079
G01 X17.7234 Y23.2314
G01 X17.7295 Y23.2474
G01 X17.7349 Y23.2637
G01 X17.7395 Y23.2803
G01 X17.7433 Y23.2970
G01 X17.7474 Y23.3225
G01 X17.7491 Y23.3396
G01 X17.7500 Y23.3653
G01 X17.7500 Y25.0591
G01 X17.8996 Y24.9095
G01 X17.8996 Y24.7753
G01 X17.8885 Y24.7516
G01 X17.8820 Y24.7357
G01 X17.8464 Y24.6364
G01 X17.8392 Y24.6116
G01 X17.8158 Y24.5176
G01 X17.8111 Y24.4922
G01 X17.7981 Y24.4049
G01 X17.7960 Y24.3878
G01 X17.7948 Y24.3707
G01 X17.7901 Y24.2739
G01 X17.7904 Y24.2481
G01 X17.7948 Y24.1599
G01 X17.7960 Y24.1428
G01 X17.7981 Y24.1257
G01 X17.8111 Y24.0384
G01 X17.8140 Y24.0214
G01 X17.8178 Y24.0047
G01 X17.8392 Y23.9190
G01 X17.8438 Y23.9025
G01 X17.8492 Y23.8861
G01 X17.8820 Y23.7949
G01 X17.8921 Y23.7713
G01 X17.9299 Y23.6914
G01 X17.9376 Y23.6761
G01 X17.9461 Y23.6611
G01 X17.9915 Y23.5854
G01 X18.0007 Y23.5708
G01 X18.0106 Y23.5568
G01 X18.0632 Y23.4859
G01 X18.0737 Y23.4723
G01 X18.0850 Y23.4593
G01 X18.1443 Y23.3939
G01 X18.1561 Y23.3814
G01 X18.1686 Y23.3696
G01 X18.2404 Y23.3046
G01 X18.2606 Y23.2885
G01 X18.3315 Y23.2359
G01 X18.3455 Y23.2260
G01 X18.3601 Y23.2168
G01 X18.4358 Y23.1714
G01 X18.4584 Y23.1590
G01 X18.5459 Y23.1174
G01 X18.5616 Y23.1105
G01 X18.5777 Y23.1043
G01 X18.6608 Y23.0745
G01 X18.6771 Y23.0691
G01 X18.6937 Y23.0646
G01 X18.7794 Y23.0431
G01 X18.7961 Y23.0393
G01 X18.8131 Y23.0364
G01 X18.9004 Y23.0234
G01 X18.9175 Y23.0213
G01 X18.9346 Y23.0201
G01 X19.0314 Y23.0154
G01 X19.0572 Y23.0157
G01 X19.1454 Y23.0201
G01 X19.1625 Y23.0213
G01 X19.1796 Y23.0234
G01 X19.2669 Y23.0364
G01 X19.2839 Y23.0393
G01 X19.3006 Y23.0431
G01 X19.3946 Y23.0667
G01 X19.4192 Y23.0745
G01 X19.5023 Y23.1043
G01 X19.5184 Y23.1105
G01 X19.5341 Y23.1174
G01 X19.6139 Y23.1552
G01 X19.6292 Y23.1629
G01 X19.6442 Y23.1714
G01 X19.7199 Y23.2168
G01 X19.7345 Y23.2260
G01 X19.7485 Y23.2359
G01 X19.8194 Y23.2885
G01 X19.8330 Y23.2990
G01 X19.8460 Y23.3103
G01 X19.9114 Y23.3696
G01 X19.9239 Y23.3814
G01 X19.9357 Y23.3939
G01 X19.9950 Y23.4593
G01 X20.0063 Y23.4723
G01 X20.0168 Y23.4859
G01 X20.0694 Y23.5568
G01 X20.0793 Y23.5708
G01 X20.0885 Y23.5854
G01 X20.1339 Y23.6611
G01 X20.1424 Y23.6761
G01 X20.1501 Y23.6914
G01 X20.1879 Y23.7713
G01 X20.1948 Y23.7870
G01 X20.2010 Y23.8030
G01 X20.2308 Y23.8861
G01 X20.2362 Y23.9025
G01 X20.2408 Y23.9190
G01 X20.2622 Y24.0047
G01 X20.2676 Y24.0299
G01 X20.2819 Y24.1257
G01 X20.2840 Y24.1428
G01 X20.2852 Y24.1599
G01 X20.2896 Y24.2481
G01 X20.2900 Y24.2653
G01 X20.2896 Y24.2825
G01 X20.2852 Y24.3707
G01 X20.2840 Y24.3878
G01 X20.2819 Y24.4049
G01 X20.2689 Y24.4922
G01 X20.2660 Y24.5092
G01 X20.2622 Y24.5259
G01 X20.2408 Y24.6116
G01 X20.2336 Y24.6364
G01 X20.2010 Y24.7276
G01 X20.1948 Y24.7437
G01 X20.1879 Y24.7594
G01 X20.1501 Y24.8392
G01 X20.1424 Y24.8546
G01 X20.1339 Y24.8695
G01 X20.1004 Y24.9255
G01 X20.1004 Y25.3653
G01 X20.1000 Y25.3825
G01 X20.0963 Y25.4560
G01 X20.0951 Y25.4732
G01 X20.0930 Y25.4902
G01 X20.0822 Y25.5631
G01 X20.0792 Y25.5800
G01 X20.0755 Y25.5967
G01 X20.0576 Y25.6682
G01 X20.0504 Y25.6929
G01 X20.0228 Y25.7704
G01 X20.0166 Y25.7864
G01 X20.0097 Y25.8021
G01 X19.9782 Y25.8687
G01 X19.9704 Y25.8840
G01 X19.9620 Y25.8990
G01 X19.9241 Y25.9621
G01 X19.9149 Y25.9767
G01 X19.9050 Y25.9907
G01 X19.8612 Y26.0498
G01 X19.8506 Y26.0634
G01 X19.8394 Y26.0764
G01 X19.7841 Y26.1372
G01 X18.6281 Y27.2934
G01 X18.6156 Y27.3052
G01 X18.5546 Y27.3604
G01 X18.5414 Y27.3713
G01 X18.5088 Y27.3956
G01 X18.5673 Y27.4102
G01 X18.5838 Y27.4148
G01 X18.6001 Y27.4202
G01 X18.6741 Y27.4467
G01 X18.6980 Y27.4562
G01 X18.7768 Y27.4934
G01 X18.7996 Y27.5052
G01 X18.8817 Y27.5544
G01 X18.9030 Y27.5690
G01 X18.9660 Y27.6158
G01 X18.9796 Y27.6264
G01 X18.9926 Y27.6376
G01 X19.0507 Y27.6903
G01 X19.0632 Y27.7021
G01 X19.0750 Y27.7146
G01 X19.1277 Y27.7728
G01 X19.1390 Y27.7858
G01 X19.1495 Y27.7993
G01 X19.1963 Y27.8624
G01 X19.2062 Y27.8764
G01 X19.2154 Y27.8909
G01 X19.2601 Y27.9657
G01 X19.2719 Y27.9886
G01 X19.3055 Y28.0595
G01 X19.3125 Y28.0752
G01 X19.3186 Y28.0913
G01 X19.3451 Y28.1652
G01 X19.3505 Y28.1815
G01 X19.3551 Y28.1980
G01 X19.3741 Y28.2742
G01 X19.3779 Y28.2910
G01 X19.3808 Y28.3079
G01 X19.3924 Y28.3855
G01 X19.3945 Y28.4026
G01 X19.3957 Y28.4197
G01 X19.3996 Y28.4981
G01 X19.4000 Y28.5153
G01 X19.3996 Y28.5325
G01 X19.3957 Y28.6109
G01 X19.3945 Y28.6280
G01 X19.3924 Y28.6451
G01 X19.3808 Y28.7227
G01 X19.3779 Y28.7397
G01 X19.3741 Y28.7564
G01 X19.3551 Y28.8326
G01 X19.3505 Y28.8491
G01 X19.3451 Y28.8655
G01 X19.3186 Y28.9394
G01 X19.3125 Y28.9554
G01 X19.3055 Y28.9711
G01 X19.2719 Y29.0421
G01 X19.2642 Y29.0574
G01 X19.2557 Y29.0724
G01 X19.2154 Y29.1397
G01 X19.2062 Y29.1542
G01 X19.1963 Y29.1683
G01 X19.1495 Y29.2313
G01 X19.1390 Y29.2449
G01 X19.1277 Y29.2579
G01 X19.0750 Y29.3160
G01 X19.0632 Y29.3285
G01 X19.0507 Y29.3403
G01 X18.9926 Y29.3931
G01 X18.9796 Y29.4043
G01 X18.9660 Y29.4148
G01 X18.9030 Y29.4616
G01 X18.8889 Y29.4715
G01 X18.8744 Y29.4807
G01 X18.8071 Y29.5211
G01 X18.7921 Y29.5295
G01 X18.7768 Y29.5372
G01 X18.7058 Y29.5708
G01 X18.6901 Y29.5778
G01 X18.6741 Y29.5840
G01 X18.6001 Y29.6104
G01 X18.5838 Y29.6158
G01 X18.5673 Y29.6204
G01 X18.4911 Y29.6395
G01 X18.4744 Y29.6432
G01 X18.4574 Y29.6462
G01 X18.3713 Y29.6588
G01 X18.3456 Y29.6610
G01 X18.2672 Y29.6649
G01 X18.2500 Y29.6653
G01 X18.2328 Y29.6649
G01 X18.1458 Y29.6605
G01 X18.1202 Y29.6577
G01 X18.0426 Y29.6462
G01 X18.0256 Y29.6432
G01 X18.0089 Y29.6395
G01 X17.9327 Y29.6204
G01 X17.9162 Y29.6158
G01 X17.8999 Y29.6104
G01 X17.8259 Y29.5840
G01 X17.8099 Y29.5778
G01 X17.7942 Y29.5708
G01 X17.7232 Y29.5372
G01 X17.7079 Y29.5295
G01 X17.6929 Y29.5211
G01 X17.6422 Y29.4906
G01 X9.7500 Y29.4906
G01 X9.7328 Y29.4902
G01 X9.6715 Y29.4872
G01 X9.6544 Y29.4859
G01 X9.6374 Y29.4838
G01 X9.5767 Y29.4748
G01 X9.5597 Y29.4719
G01 X9.5430 Y29.4681
G01 X9.4834 Y29.4532
G01 X9.4669 Y29.4486
G01 X9.4506 Y29.4432
G01 X9.3928 Y29.4226
G01 X9.3768 Y29.4164
G01 X9.3611 Y29.4094
G01 X9.3056 Y29.3832
G01 X9.2902 Y29.3755
G01 X9.2753 Y29.3670
G01 X9.2227 Y29.3354
G01 X9.2081 Y29.3263
G01 X9.1941 Y29.3164
G01 X9.1448 Y29.2798
G01 X9.1247 Y29.2637
G01 X9.0728 Y29.2168
G01 X9.0603 Y29.2050
G01 X7.7654 Y27.9100
G01 X7.6818 Y27.8802
G01 X7.6658 Y27.8740
G01 X7.6501 Y27.8670
G01 X7.5747 Y27.8313
G01 X7.5593 Y27.8236
G01 X7.5444 Y27.8152
G01 X7.4728 Y27.7723
G01 X7.4583 Y27.7631
G01 X7.4443 Y27.7532
G01 X7.3773 Y27.7035
G01 X7.3637 Y27.6929
G01 X7.3507 Y27.6817
G01 X7.2826 Y27.6198
G01 X7.2646 Y27.6014
G01 X7.2086 Y27.5396
G01 X7.1974 Y27.5266
G01 X7.1868 Y27.5130
G01 X7.1371 Y27.4460
G01 X7.1226 Y27.4248
G01 X7.0752 Y27.3459
G01 X7.0667 Y27.3310
G01 X7.0590 Y27.3156
G01 X7.0233 Y27.2402
G01 X7.0163 Y27.2245
G01 X7.0102 Y27.2085
G01 X6.9821 Y27.1300
G01 X6.9767 Y27.1137
G01 X6.9721 Y27.0971
G01 X6.9518 Y27.0162
G01 X6.9465 Y26.9910
G01 X6.9329 Y26.9000
G01 X6.9308 Y26.8829
G01 X6.9295 Y26.8658
G01 X6.9254 Y26.7825
G01 X6.9250 Y26.7653
G01 X6.9254 Y26.7481
G01 X6.9295 Y26.6648
G01 X6.9308 Y26.6477
G01 X6.9329 Y26.6306
G01 X6.9451 Y26.5481
G01 X6.9481 Y26.5312
G01 X6.9518 Y26.5144
G01 X6.9721 Y26.4335
G01 X6.9767 Y26.4170
G01 X6.9821 Y26.4007
G01 X7.0102 Y26.3221
G01 X7.0163 Y26.3061
G01 X7.0233 Y26.2904
G01 X7.0590 Y26.2150
G01 X7.0708 Y26.1921
G01 X7.1180 Y26.1131
G01 X7.1272 Y26.0986
G01 X7.1371 Y26.0846
G01 X7.1868 Y26.0176
G01 X7.1974 Y26.0040
G01 X7.2086 Y25.9910
G01 X7.2646 Y25.9292
G01 X7.2765 Y25.9168
G01 X7.2889 Y25.9049
G01 X7.3507 Y25.8489
G01 X7.3637 Y25.8377
G01 X7.3773 Y25.8271
G01 X7.4443 Y25.7774
G01 X7.4583 Y25.7675
G01 X7.4728 Y25.7584
G01 X7.5444 Y25.7155
G01 X7.5593 Y25.7070
G01 X7.5747 Y25.6993
G01 X7.6501 Y25.6636
G01 X7.6658 Y25.6567
G01 X7.6818 Y25.6505
G01 X7.7603 Y25.6224
G01 X7.7767 Y25.6170
G01 X7.7932 Y25.6124
G01 X7.8741 Y25.5921
G01 X7.8993 Y25.5868
G01 X7.9903 Y25.5732
G01 X8.0074 Y25.5711
G01 X8.0245 Y25.5698
G01 X8.1164 Y25.5654
G01 X8.3836 Y25.5654
G01 X8.4841 Y25.5704
G01 X8.5097 Y25.5732
G01 X8.5922 Y25.5854
G01 X8.6091 Y25.5884
G01 X8.6259 Y25.5921
G01 X8.7068 Y25.6124
G01 X8.7233 Y25.6170
G01 X8.7397 Y25.6224
G01 X8.8262 Y25.6535
G01 X8.8499 Y25.6636
G01 X8.9253 Y25.6993
G01 X8.9407 Y25.7070
G01 X8.9556 Y25.7155
G01 X9.0272 Y25.7584
G01 X9.0417 Y25.7675
G01 X9.0557 Y25.7774
G01 X9.1227 Y25.8271
G01 X9.1363 Y25.8377
G01 X9.1493 Y25.8489
G01 X9.2111 Y25.9049
G01 X9.2235 Y25.9168
G01 X9.2354 Y25.9292
G01 X9.2914 Y25.9910
G01 X9.3026 Y26.0040
G01 X9.3132 Y26.0176
G01 X9.3679 Y26.0915
G01 X9.3820 Y26.1131
G01 X9.4248 Y26.1847
G01 X9.4333 Y26.1996
G01 X9.4410 Y26.2150
G01 X9.4767 Y26.2904
G01 X9.4837 Y26.3061
G01 X9.4898 Y26.3221
G01 X9.5179 Y26.4007
G01 X9.5233 Y26.4170
G01 X9.5279 Y26.4335
G01 X9.5502 Y26.5228
G01 X9.5549 Y26.5481
G01 X9.5671 Y26.6306
G01 X9.5692 Y26.6477
G01 X9.5705 Y26.6648
G01 X9.5749 Y26.7567
G01 X9.5746 Y26.7825
G01 X9.5700 Y26.8744
G01 X9.5683 Y26.8915
G01 X9.5603 Y26.9463
G01 X10.1540 Y27.5400
G01 X11.3502 Y27.5400
G01 X11.3369 Y27.5351
G01 X11.3210 Y27.5285
G01 X11.2389 Y27.4897
G01 X11.2163 Y27.4773
G01 X11.1459 Y27.4349
G01 X11.1246 Y27.4203
G01 X11.0655 Y27.3765
G01 X11.0519 Y27.3659
G01 X11.0389 Y27.3547
G01 X10.9781 Y27.2994
G01 X9.0442 Y25.3657
G01 X8.8527 Y25.3657
G01 X8.8342 Y25.3740
G01 X8.8182 Y25.3802
G01 X8.7315 Y25.4110
G01 X8.7068 Y25.4182
G01 X8.6259 Y25.4385
G01 X8.6091 Y25.4423
G01 X8.5922 Y25.4452
G01 X8.5097 Y25.4574
G01 X8.4926 Y25.4595
G01 X8.4755 Y25.4608
G01 X8.3836 Y25.4652
G01 X8.1250 Y25.4653
G00 Z1.7000
G00 X11.2100 Y27.5600
F60.00
G01 Z-0.2800
F100.00
G01 X11.2600 Y27.5000
G00 Z1.7000
G00 X11.2100 Y27.5600
F60.00
G01 Z-0.2800
F100.00
G01 X17.3800 Y27.5900
G01 X18.0300 Y27.4400
G01 X18.5300 Y27.3900
G00 Z1.7000
G00 X17.7500 Y25.0100
F60.00
G01 Z-0.2800
F100.00
G01 X17.3600 Y25.4700
G01 X15.6500 Y25.5200
G01 X15.3000 Y25.4000
G00 Z1.7000
G00 X21.3996 Y25.5011
F60.00
G01 Z-0.2800
F100.00
G01 X21.3446 Y25.4929
G01 X21.3277 Y25.4895
G01 X21.2337 Y25.4661
G01 X21.2090 Y25.4589
G01 X21.1177 Y25.4263
G01 X21.1016 Y25.4202
G01 X21.0859 Y25.4132
G01 X21.0061 Y25.3754
G01 X20.9832 Y25.3636
G01 X20.9001 Y25.3138
G01 X20.8855 Y25.3046
G01 X20.8715 Y25.2948
G01 X20.8006 Y25.2421
G01 X20.7870 Y25.2316
G01 X20.7740 Y25.2204
G01 X20.7086 Y25.1610
G01 X20.6961 Y25.1492
G01 X20.6843 Y25.1368
G01 X20.6250 Y25.0713
G01 X20.6084 Y25.0516
G01 X20.5506 Y24.9738
G01 X20.5407 Y24.9598
G01 X20.5315 Y24.9453
G01 X20.4861 Y24.8695
G01 X20.4776 Y24.8546
G01 X20.4699 Y24.8392
G01 X20.4321 Y24.7594
G01 X20.4252 Y24.7437
G01 X20.4190 Y24.7276
G01 X20.3892 Y24.6445
G01 X20.3838 Y24.6282
G01 X20.3792 Y24.6116
G01 X20.3578 Y24.5259
G01 X20.3540 Y24.5092
G01 X20.3511 Y24.4922
G01 X20.3381 Y24.4049
G01 X20.3360 Y24.3878
G01 X20.3348 Y24.3707
G01 X20.3304 Y24.2825
G01 X20.3300 Y24.2653
G01 X20.3304 Y24.2481
G01 X20.3348 Y24.1599
G01 X20.3370 Y24.1343
G01 X20.3511 Y24.0384
G01 X20.3540 Y24.0214
G01 X20.3578 Y24.0047
G01 X20.3792 Y23.9190
G01 X20.3838 Y23.9025
G01 X20.3892 Y23.8861
G01 X20.4190 Y23.8030
G01 X20.4252 Y23.7870
G01 X20.4321 Y23.7713
G01 X20.4699 Y23.6914
G01 X20.4776 Y23.6761
G01 X20.4861 Y23.6611
G01 X20.5315 Y23.5854
G01 X20.5407 Y23.5708
G01 X20.5506 Y23.5568
G01 X20.6032 Y23.4859
G01 X20.6137 Y23.4723
G01 X20.6250 Y23.4593
G01 X20.6843 Y23.3939
G01 X20.6961 Y23.3814
G01 X20.7086 Y23.3696
G01 X20.7740 Y23.3103
G01 X20.7870 Y23.2990
G01 X20.8006 Y23.2885
G01 X20.8715 Y23.2359
G01 X20.8855 Y23.2260
G01 X20.9001 Y23.2168
G01 X20.9758 Y23.1714
G01 X20.9908 Y23.1629
G01 X21.0061 Y23.1552
G01 X21.0859 Y23.1174
G01 X21.1016 Y23.1105
G01 X21.1177 Y23.1043
G01 X21.2008 Y23.0745
G01 X21.2171 Y23.0691
G01 X21.2337 Y23.0646
G01 X21.3194 Y23.0431
G01 X21.3361 Y23.0393
G01 X21.3531 Y23.0364
G01 X21.4404 Y23.0234
G01 X21.4575 Y23.0213
G01 X21.4746 Y23.0201
G01 X21.5628 Y23.0157
G01 X21.5800 Y23.0153
G01 X21.5972 Y23.0157
G01 X21.6854 Y23.0201
G01 X21.7111 Y23.0223
G01 X21.8069 Y23.0364
G01 X21.8239 Y23.0393
G01 X21.8406 Y23.0431
G01 X21.9263 Y23.0646
G01 X21.9510 Y23.0717
G01 X22.0423 Y23.1043
G01 X22.0584 Y23.1105
G01 X22.0741 Y23.1174
G01 X22.1539 Y23.1552
G01 X22.1692 Y23.1629
G01 X22.1842 Y23.1714
G01 X22.2599 Y23.2168
G01 X22.2745 Y23.2260
G01 X22.2885 Y23.2359
G01 X22.3594 Y23.2885
G01 X22.3730 Y23.2990
G01 X22.3860 Y23.3103
G01 X22.4577 Y23.3754
G01 X22.4757 Y23.3939
G01 X22.5350 Y23.4593
G01 X22.5463 Y23.4723
G01 X22.5568 Y23.4859
G01 X22.6145 Y23.5638
G01 X22.6240 Y23.5781
G01 X22.6320 Y23.5911
G01 X23.2781 Y24.2372
G01 X23.2899 Y24.2497
G01 X23.3394 Y24.3042
G01 X23.3560 Y24.3239
G01 X23.4101 Y24.3969
G01 X23.4241 Y24.4185
G01 X23.4620 Y24.4817
G01 X23.4704 Y24.4966
G01 X23.4782 Y24.5119
G01 X23.5097 Y24.5785
G01 X23.5166 Y24.5942
G01 X23.5228 Y24.6102
G01 X23.5476 Y24.6796
G01 X23.5530 Y24.6959
G01 X23.5576 Y24.7124
G01 X23.5755 Y24.7839
G01 X23.5808 Y24.8091
G01 X23.5930 Y24.8904
G01 X23.5951 Y24.9075
G01 X23.5963 Y24.9246
G01 X23.6000 Y24.9981
G01 X23.6004 Y25.0153
G01 X23.6004 Y28.2712
G01 X23.6051 Y28.2880
G01 X23.6241 Y28.3642
G01 X23.6279 Y28.3810
G01 X23.6308 Y28.3979
G01 X23.6424 Y28.4755
G01 X23.6445 Y28.4926
G01 X23.6457 Y28.5097
G01 X23.6499 Y28.5967
G01 X23.6496 Y28.6225
G01 X23.6457 Y28.7009
G01 X23.6445 Y28.7180
G01 X23.6424 Y28.7351
G01 X23.6308 Y28.8127
G01 X23.6279 Y28.8297
G01 X23.6241 Y28.8464
G01 X23.6051 Y28.9226
G01 X23.6005 Y28.9391
G01 X23.5951 Y28.9555
G01 X23.5686 Y29.0294
G01 X23.5625 Y29.0454
G01 X23.5555 Y29.0611
G01 X23.5219 Y29.1321
G01 X23.5142 Y29.1474
G01 X23.5057 Y29.1624
G01 X23.4654 Y29.2297
G01 X23.4562 Y29.2442
G01 X23.4463 Y29.2583
G01 X23.3995 Y29.3213
G01 X23.3834 Y29.3414
G01 X23.3250 Y29.4060
G01 X23.3132 Y29.4185
G01 X23.3007 Y29.4303
G01 X23.2426 Y29.4831
G01 X23.2296 Y29.4943
G01 X23.2160 Y29.5048
G01 X23.1530 Y29.5516
G01 X23.1389 Y29.5615
G01 X23.1244 Y29.5707
G01 X23.0571 Y29.6111
G01 X23.0421 Y29.6195
G01 X23.0268 Y29.6272
G01 X22.9558 Y29.6608
G01 X22.9401 Y29.6678
G01 X22.9241 Y29.6740
G01 X22.8501 Y29.7004
G01 X22.8338 Y29.7058
G01 X22.8173 Y29.7104
G01 X22.7411 Y29.7295
G01 X22.7244 Y29.7332
G01 X22.7074 Y29.7362
G01 X22.6298 Y29.7477
G01 X22.6127 Y29.7498
G01 X22.5956 Y29.7510
G01 X22.5172 Y29.7549
G01 X22.5000 Y29.7553
G01 X22.4828 Y29.7549
G01 X22.4044 Y29.7510
G01 X22.3873 Y29.7498
G01 X22.3702 Y29.7477
G01 X22.2926 Y29.7362
G01 X22.2756 Y29.7332
G01 X22.2589 Y29.7295
G01 X22.1827 Y29.7104
G01 X22.1662 Y29.7058
G01 X22.1499 Y29.7004
G01 X22.0759 Y29.6740
G01 X22.0599 Y29.6678
G01 X22.0442 Y29.6608
G01 X21.9655 Y29.6235
G01 X21.9429 Y29.6111
G01 X21.8756 Y29.5707
G01 X21.8611 Y29.5615
G01 X21.8470 Y29.5516
G01 X21.7840 Y29.5048
G01 X21.7704 Y29.4943
G01 X21.7574 Y29.4831
G01 X21.6993 Y29.4303
G01 X21.6868 Y29.4185
G01 X21.6750 Y29.4060
G01 X21.6223 Y29.3479
G01 X21.6110 Y29.3349
G01 X21.6005 Y29.3213
G01 X21.5537 Y29.2583
G01 X21.5438 Y29.2442
G01 X21.5346 Y29.2297
G01 X21.4943 Y29.1624
G01 X21.4858 Y29.1474
G01 X21.4781 Y29.1321
G01 X21.4445 Y29.0611
G01 X21.4375 Y29.0454
G01 X21.4314 Y29.0294
G01 X21.4049 Y28.9555
G01 X21.3995 Y28.9391
G01 X21.3949 Y28.9226
G01 X21.3739 Y28.8381
G01 X21.3692 Y28.8127
G01 X21.3576 Y28.7351
G01 X21.3555 Y28.7180
G01 X21.3543 Y28.7009
G01 X21.3504 Y28.6225
G01 X21.3500 Y28.6053
G01 X21.3504 Y28.5881
G01 X21.3543 Y28.5097
G01 X21.3555 Y28.4926
G01 X21.3576 Y28.4755
G01 X21.3692 Y28.3979
G01 X21.3721 Y28.3810
G01 X21.3759 Y28.3642
G01 X21.3949 Y28.2880
G01 X21.3996 Y28.2712
G01 X21.3996 Y25.5011
G00 Z1.7000
G00 X26.9700 Y29.7700
F60.00
G01 Z-0.2800
F100.00
G01 X26.9200 Y30.2200
G01 X26.8800 Y30.8900
G00 Z1.7000
G00 X27.2985 Y34.3381
F60.00
G01 Z-0.2800
F100.00
G01 X27.3103 Y34.3257
G01 X29.5665 Y32.0697
G01 X29.6183 Y32.0226
G01 X29.6313 Y32.0114
G01 X29.6448 Y32.0008
G01 X29.6941 Y31.9643
G01 X29.7081 Y31.9544
G01 X29.7227 Y31.9452
G01 X29.7753 Y31.9136
G01 X29.7902 Y31.9052
G01 X29.8056 Y31.8974
G01 X29.8611 Y31.8712
G01 X29.8847 Y31.8611
G01 X29.9506 Y31.8374
G01 X29.9669 Y31.8320
G01 X29.9834 Y31.8274
G01 X30.0430 Y31.8125
G01 X30.0597 Y31.8087
G01 X30.0767 Y31.8058
G01 X30.1374 Y31.7968
G01 X30.1544 Y31.7947
G01 X30.1715 Y31.7934
G01 X30.2328 Y31.7904
G01 X30.2500 Y31.7900
G01 X30.5685 Y31.7900
G01 X30.5833 Y31.7795
G01 X30.5978 Y31.7704
G01 X30.6694 Y31.7275
G01 X30.6843 Y31.7190
G01 X30.6997 Y31.7113
G01 X30.7751 Y31.6756
G01 X30.7908 Y31.6687
G01 X30.8068 Y31.6625
G01 X30.8853 Y31.6344
G01 X30.9017 Y31.6290
G01 X30.9182 Y31.6244
G01 X30.9991 Y31.6041
G01 X31.0243 Y31.5988
G01 X31.1153 Y31.5852
G01 X31.1324 Y31.5831
G01 X31.1495 Y31.5818
G01 X31.2328 Y31.5777
G01 X31.2500 Y31.5773
G01 X31.2672 Y31.5777
G01 X31.3505 Y31.5818
G01 X31.3676 Y31.5831
G01 X31.3847 Y31.5852
G01 X31.4672 Y31.5974
G01 X31.4841 Y31.6004
G01 X31.5009 Y31.6041
G01 X31.5818 Y31.6244
G01 X31.5983 Y31.6290
G01 X31.6147 Y31.6344
G01 X31.6932 Y31.6625
G01 X31.7092 Y31.6687
G01 X31.7249 Y31.6756
G01 X31.8003 Y31.7113
G01 X31.8157 Y31.7190
G01 X31.8306 Y31.7275
G01 X31.9022 Y31.7704
G01 X31.9167 Y31.7795
G01 X31.9307 Y31.7894
G01 X31.9977 Y31.8391
G01 X32.0113 Y31.8497
G01 X32.0243 Y31.8609
G01 X32.0861 Y31.9169
G01 X32.0985 Y31.9288
G01 X32.1104 Y31.9412
G01 X32.1664 Y32.0030
G01 X32.1776 Y32.0160
G01 X32.1882 Y32.0296
G01 X32.2379 Y32.0966
G01 X32.2478 Y32.1106
G01 X32.2570 Y32.1251
G01 X32.2998 Y32.1967
G01 X32.3083 Y32.2116
G01 X32.3160 Y32.2270
G01 X32.3517 Y32.3024
G01 X32.3618 Y32.3261
G01 X32.3929 Y32.4127
G01 X32.3983 Y32.4290
G01 X32.4029 Y32.4455
G01 X32.4232 Y32.5264
G01 X32.4269 Y32.5432
G01 X32.4299 Y32.5601
G01 X32.4421 Y32.6426
G01 X32.4442 Y32.6597
G01 X32.4455 Y32.6768
G01 X32.4496 Y32.7601
G01 X32.4500 Y32.7773
G01 X32.4496 Y32.7945
G01 X32.4455 Y32.8778
G01 X32.4442 Y32.8949
G01 X32.4421 Y32.9120
G01 X32.4285 Y33.0030
G01 X32.4232 Y33.0282
G01 X32.4029 Y33.1091
G01 X32.3983 Y33.1257
G01 X32.3929 Y33.1420
G01 X32.3648 Y33.2205
G01 X32.3587 Y33.2365
G01 X32.3517 Y33.2522
G01 X32.3160 Y33.3276
G01 X32.3083 Y33.3430
G01 X32.2998 Y33.3579
G01 X32.2570 Y33.4295
G01 X32.2478 Y33.4440
G01 X32.2379 Y33.4580
G01 X32.1882 Y33.5250
G01 X32.1721 Y33.5452
G01 X32.1104 Y33.6134
G01 X32.0985 Y33.6258
G01 X32.0861 Y33.6377
G01 X32.0243 Y33.6937
G01 X32.0046 Y33.7103
G01 X31.9307 Y33.7652
G01 X31.9167 Y33.7751
G01 X31.9022 Y33.7843
G01 X31.8306 Y33.8272
G01 X31.8157 Y33.8356
G01 X31.8003 Y33.8433
G01 X31.7249 Y33.8790
G01 X31.7092 Y33.8860
G01 X31.6932 Y33.8922
G01 X31.6147 Y33.9203
G01 X31.5983 Y33.9256
G01 X31.5818 Y33.9302
G01 X31.5009 Y33.9505
G01 X31.4841 Y33.9543
G01 X31.4672 Y33.9572
G01 X31.3847 Y33.9694
G01 X31.3591 Y33.9723
G01 X31.2672 Y33.9769
G01 X31.2500 Y33.9773
G01 X31.2328 Y33.9769
G01 X31.1495 Y33.9728
G01 X31.1324 Y33.9715
G01 X31.1153 Y33.9694
G01 X31.0243 Y33.9558
G01 X30.9991 Y33.9505
G01 X30.9182 Y33.9302
G01 X30.9017 Y33.9256
G01 X30.8853 Y33.9203
G01 X30.8068 Y33.8922
G01 X30.7908 Y33.8860
G01 X30.7751 Y33.8790
G01 X30.6997 Y33.8433
G01 X30.6843 Y33.8356
G01 X30.6694 Y33.8272
G01 X30.6057 Y33.7890
G01 X28.6835 Y35.7110
G01 X28.6317 Y35.7580
G01 X28.6187 Y35.7692
G01 X28.6052 Y35.7798
G01 X28.5559 Y35.8164
G01 X28.5419 Y35.8263
G01 X28.5273 Y35.8354
G01 X28.4747 Y35.8670
G01 X28.4598 Y35.8755
G01 X28.4444 Y35.8832
G01 X28.3889 Y35.9094
G01 X28.3653 Y35.9196
G01 X28.2994 Y35.9432
G01 X28.2831 Y35.9486
G01 X28.2666 Y35.9532
G01 X28.2070 Y35.9681
G01 X28.1903 Y35.9719
G01 X28.1733 Y35.9748
G01 X28.1126 Y35.9838
G01 X28.0956 Y35.9859
G01 X28.0785 Y35.9872
G01 X28.0172 Y35.9902
G01 X27.9914 Y35.9905
G01 X27.9215 Y35.9872
G01 X27.9044 Y35.9859
G01 X27.8874 Y35.9838
G01 X27.8267 Y35.9748
G01 X27.8097 Y35.9719
G01 X27.7930 Y35.9681
G01 X27.7334 Y35.9532
G01 X27.7169 Y35.9486
G01 X27.7006 Y35.9432
G01 X27.6428 Y35.9226
G01 X27.6268 Y35.9164
G01 X27.6111 Y35.9094
G01 X27.5556 Y35.8832
G01 X27.5402 Y35.8755
G01 X27.5253 Y35.8670
G01 X27.4727 Y35.8354
G01 X27.4581 Y35.8263
G01 X27.4441 Y35.8164
G01 X27.3948 Y35.7798
G01 X27.3813 Y35.7692
G01 X27.3683 Y35.7580
G01 X27.3165 Y35.7110
G01 X27.2985 Y35.6925
G01 X27.2573 Y35.6471
G01 X27.2461 Y35.6340
G01 X27.2355 Y35.6205
G01 X27.1989 Y35.5712
G01 X27.1891 Y35.5572
G01 X27.1799 Y35.5427
G01 X27.1483 Y35.4900
G01 X27.1399 Y35.4751
G01 X27.1321 Y35.4597
G01 X27.1059 Y35.4043
G01 X27.0989 Y35.3885
G01 X27.0927 Y35.3725
G01 X27.0721 Y35.3147
G01 X27.0667 Y35.2984
G01 X27.0621 Y35.2819
G01 X27.0472 Y35.2223
G01 X27.0419 Y35.1971
G01 X27.0315 Y35.1280
G01 X27.0294 Y35.1109
G01 X27.0281 Y35.0938
G01 X27.0251 Y35.0325
G01 X27.0247 Y35.0153
G01 X27.0251 Y34.9981
G01 X27.0281 Y34.9368
G01 X27.0294 Y34.9197
G01 X27.0315 Y34.9027
G01 X27.0405 Y34.8420
G01 X27.0434 Y34.8250
G01 X27.0472 Y34.8083
G01 X27.0621 Y34.7488
G01 X27.0667 Y34.7322
G01 X27.0721 Y34.7159
G01 X27.0957 Y34.6501
G01 X27.1059 Y34.6264
G01 X27.1321 Y34.5709
G01 X27.1399 Y34.5556
G01 X27.1483 Y34.5406
G01 X27.1799 Y34.4880
G01 X27.1891 Y34.4735
G01 X27.1989 Y34.4594
G01 X27.2355 Y34.4101
G01 X27.2461 Y34.3966
G01 X27.2573 Y34.3836
G01 X27.2985 Y34.3381
G00 Z1.7000
G00 X27.2985 Y37.3381
F60.00
G01 Z-0.2800
F100.00
G01 X27.3103 Y37.3257
G01 X29.8103 Y34.8257
G01 X29.8228 Y34.8138
G01 X29.8683 Y34.7726
G01 X29.8813 Y34.7614
G01 X29.8948 Y34.7508
G01 X29.9511 Y34.7092
G01 X29.9727 Y34.6952
G01 X30.0253 Y34.6636
G01 X30.0479 Y34.6512
G01 X30.1111 Y34.6212
G01 X30.1268 Y34.6142
G01 X30.1428 Y34.6081
G01 X30.2006 Y34.5874
G01 X30.2169 Y34.5820
G01 X30.2334 Y34.5774
G01 X30.3013 Y34.5605
G01 X30.3220 Y34.5566
G01 X30.3336 Y34.5430
G01 X30.3896 Y34.4812
G01 X30.4015 Y34.4688
G01 X30.4139 Y34.4569
G01 X30.4757 Y34.4009
G01 X30.4887 Y34.3897
G01 X30.5023 Y34.3791
G01 X30.5693 Y34.3294
G01 X30.5833 Y34.3195
G01 X30.5978 Y34.3104
G01 X30.6694 Y34.2675
G01 X30.6919 Y34.2551
G01 X30.7751 Y34.2156
G01 X30.7908 Y34.2087
G01 X30.8068 Y34.2025
G01 X30.8853 Y34.1744
G01 X30.9017 Y34.1690
G01 X30.9182 Y34.1644
G01 X30.9991 Y34.1441
G01 X31.0159 Y34.1404
G01 X31.0328 Y34.1374
G01 X31.1153 Y34.1252
G01 X31.1324 Y34.1231
G01 X31.1495 Y34.1218
G01 X31.2328 Y34.1177
G01 X31.2500 Y34.1173
G01 X31.2672 Y34.1177
G01 X31.3505 Y34.1218
G01 X31.3676 Y34.1231
G01 X31.3847 Y34.1252
G01 X31.4672 Y34.1374
G01 X31.4841 Y34.1404
G01 X31.5009 Y34.1441
G01 X31.5818 Y34.1644
G01 X31.5983 Y34.1690
G01 X31.6147 Y34.1744
