(G-CODE GENERATED BY FLATCAM v8.994 - www.flatcam.org - Version Date: 2020/11/7)

(Name: PiHat.drl_cnc)
(Type: G-code from Geometry)
(Units: MM)

(Created on Saturday, 22 May 2021 at 15:26)

(This preprocessor is the default preprocessor used by FlatCAM.)
(It is made to work with MACH3 compatible motion controllers.)


(TOOLS DIAMETER: )
(Tool: 1 -> Dia: 0.4)
(Tool: 2 -> Dia: 0.762)
(Tool: 3 -> Dia: 0.8)
(Tool: 4 -> Dia: 0.95)
(Tool: 5 -> Dia: 1.0)
(Tool: 6 -> Dia: 1.1)

(FEEDRATE Z: )
(Tool: 1 -> Feedrate: 85.0)
(Tool: 2 -> Feedrate: 85.0)
(Tool: 3 -> Feedrate: 85.0)
(Tool: 4 -> Feedrate: 85.0)
(Tool: 5 -> Feedrate: 85.0)
(Tool: 6 -> Feedrate: 85.0)

(FEEDRATE RAPIDS: )
(Tool: 1 -> Feedrate Rapids: 1500)
(Tool: 2 -> Feedrate Rapids: 1500)
(Tool: 3 -> Feedrate Rapids: 1500)
(Tool: 4 -> Feedrate Rapids: 1500)
(Tool: 5 -> Feedrate Rapids: 1500)
(Tool: 6 -> Feedrate Rapids: 1500)

(Z_CUT: )
(Tool: 1 -> Z_Cut: -2.1)
(Tool: 2 -> Z_Cut: -2.1)
(Tool: 3 -> Z_Cut: -2.1)
(Tool: 4 -> Z_Cut: -2.1)
(Tool: 5 -> Z_Cut: -2.1)
(Tool: 6 -> Z_Cut: -2.1)

(Tools Offset: )
(Tool: 1 -> Offset Z: 0.0)
(Tool: 2 -> Offset Z: 0.0)
(Tool: 3 -> Offset Z: 0.0)
(Tool: 4 -> Offset Z: 0.0)
(Tool: 5 -> Offset Z: 0.0)
(Tool: 6 -> Offset Z: 0.0)

(Z_MOVE: )
(Tool: 1 -> Z_Move: 1.0)
(Tool: 2 -> Z_Move: 1.0)
(Tool: 3 -> Z_Move: 1.0)
(Tool: 4 -> Z_Move: 1.0)
(Tool: 5 -> Z_Move: 1.0)
(Tool: 6 -> Z_Move: 1.0)

(Z Toolchange: 15 mm)
(X,Y Toolchange: 0.0000, 0.0000 mm)
(Z Start: None mm)
(Z End: 0.5 mm)
(X,Y End: None mm)
(Steps per circle: 64)
(Preprocessor Excellon: default)

(X range:    5.5840 ...   47.7500  mm)
(Y range:    5.6655 ...   61.1505  mm)

(Spindle Speed: 20000 RPM)
G21
G90
G94

F85.00
G00 Z15.0000
M03 S20000
G00 X28.0000 Y35.8905
G01 Z-2.1000
G01 Z0
G00 Z1.0000
G00 X28.0000 Y38.8905
G01 Z-2.1000
G01 Z0
G00 Z1.0000
G00 X22.5000 Y39.6405
G01 Z-2.1000
G01 Z0
G00 Z1.0000
G00 X18.2500 Y39.5505
G01 Z-2.1000
G01 Z0
G00 Z1.0000
G00 X18.2500 Y45.6405
G01 Z-2.1000
G01 Z0
G00 Z1.0000
G00 X18.2500 Y55.8005
G01 Z-2.1000
G01 Z0
G00 Z1.0000
G00 X6.2500 Y60.1405
G01 Z-2.1000
G01 Z0
G00 Z1.0000
G00 X6.2500 Y57.6405
G01 Z-2.1000
G01 Z0
G00 Z1.0000
G00 X6.2500 Y49.3905
G01 Z-2.1000
G01 Z0
G00 Z1.0000
G00 X6.2500 Y46.8905
G01 Z-2.1000
G01 Z0
G00 Z1.0000
G00 X6.5000 Y38.8905
G01 Z-2.1000
G01 Z0
G00 Z1.0000
G00 X6.5000 Y36.3905
G01 Z-2.1000
G01 Z0
G00 Z1.0000
G00 X8.2500 Y27.6405
G01 Z-2.1000
G01 Z0
G00 Z1.0000
G00 X8.2500 Y25.1405
G01 Z-2.1000
G01 Z0
G00 Z1.0000
G00 X8.2500 Y22.6405
G01 Z-2.1000
G01 Z0
G00 Z1.0000
G00 X6.0840 Y11.3905
G01 Z-2.1000
G01 Z0
G00 Z1.0000
G00 X6.0840 Y8.8905
G01 Z-2.1000
G01 Z0
G00 Z1.0000
G00 X11.5500 Y6.2305
G01 Z-2.1000
G01 Z0
G00 Z1.0000
G00 X11.5500 Y8.7705
G01 Z-2.1000
G01 Z0
G00 Z1.0000
G00 X11.5500 Y11.3105
G01 Z-2.1000
G01 Z0
G00 Z1.0000
G00 X11.5500 Y13.8505
G01 Z-2.1000
G01 Z0
G00 Z1.0000
G00 X18.8400 Y18.6405
G01 Z-2.1000
G01 Z0
G00 Z1.0000
G00 X19.0400 Y25.1405
G01 Z-2.1000
G01 Z0
G00 Z1.0000
G00 X16.5000 Y25.1405
G01 Z-2.1000
G01 Z0
G00 Z1.0000
G00 X18.2500 Y29.3905
G01 Z-2.1000
G01 Z0
G00 Z1.0000
G00 X22.5000 Y29.4805
G01 Z-2.1000
G01 Z0
G00 Z1.0000
G00 X21.5800 Y25.1405
G01 Z-2.1000
G01 Z0
G00 Z1.0000
G00 X29.0000 Y18.6405
G01 Z-2.1000
G01 Z0
G00 Z1.0000
G00 X31.2500 Y28.5725
G01 Z-2.1000
G01 Z0
G00 Z1.0000
G00 X31.2500 Y31.1125
G01 Z-2.1000
G01 Z0
G00 Z1.0000
G00 X33.7900 Y31.1125
G01 Z-2.1000
G01 Z0
G00 Z1.0000
G00 X33.7900 Y28.5725
G01 Z-2.1000
G01 Z0
G00 Z1.0000
G00 X40.7500 Y35.2505
G01 Z-2.1000
G01 Z0
G00 Z1.0000
G00 X40.7500 Y32.7105
G01 Z-2.1000
G01 Z0
G00 Z1.0000
G00 X40.7500 Y30.1705
G01 Z-2.1000
G01 Z0
G00 Z1.0000
G00 X40.7500 Y27.6305
G01 Z-2.1000
G01 Z0
G00 Z1.0000
G00 X40.7500 Y25.0905
G01 Z-2.1000
G01 Z0
G00 Z1.0000
G00 X40.7500 Y22.5505
G01 Z-2.1000
G01 Z0
G00 Z1.0000
G00 X40.7500 Y20.0105
G01 Z-2.1000
G01 Z0
G00 Z1.0000
G00 X40.7500 Y17.4705
G01 Z-2.1000
G01 Z0
G00 Z1.0000
G00 X40.7500 Y14.9305
G01 Z-2.1000
G01 Z0
G00 Z1.0000
G00 X40.7500 Y12.3905
G01 Z-2.1000
G01 Z0
G00 Z1.0000
G00 X34.2500 Y6.1405
G01 Z-2.1000
G01 Z0
G00 Z1.0000
G00 X36.7500 Y6.1405
G01 Z-2.1000
G01 Z0
G00 Z1.0000
G00 X39.2500 Y6.1405
G01 Z-2.1000
G01 Z0
G00 Z1.0000
G00 X41.7500 Y6.1405
G01 Z-2.1000
G01 Z0
G00 Z1.0000
G00 X44.2500 Y6.1405
G01 Z-2.1000
G01 Z0
G00 Z1.0000
G00 X43.2900 Y12.3905
G01 Z-2.1000
G01 Z0
G00 Z1.0000
G00 X43.2900 Y14.9305
G01 Z-2.1000
G01 Z0
G00 Z1.0000
G00 X43.2900 Y17.4705
G01 Z-2.1000
G01 Z0
G00 Z1.0000
G00 X43.2900 Y20.0105
G01 Z-2.1000
G01 Z0
G00 Z1.0000
G00 X43.2900 Y22.5505
G01 Z-2.1000
G01 Z0
G00 Z1.0000
G00 X43.2900 Y25.0905
G01 Z-2.1000
G01 Z0
G00 Z1.0000
G00 X43.2900 Y27.6305
G01 Z-2.1000
G01 Z0
G00 Z1.0000
G00 X43.2900 Y30.1705
G01 Z-2.1000
G01 Z0
G00 Z1.0000
G00 X43.2900 Y32.7105
G01 Z-2.1000
G01 Z0
G00 Z1.0000
G00 X43.2900 Y35.2505
G01 Z-2.1000
G01 Z0
G00 Z1.0000
G00 X43.2900 Y37.7905
G01 Z-2.1000
G01 Z0
G00 Z1.0000
G00 X43.2900 Y40.3305
G01 Z-2.1000
G01 Z0
G00 Z1.0000
G00 X43.2900 Y42.8705
G01 Z-2.1000
G01 Z0
G00 Z1.0000
G00 X43.2900 Y45.4105
G01 Z-2.1000
G01 Z0
G00 Z1.0000
G00 X43.2900 Y47.9505
G01 Z-2.1000
G01 Z0
G00 Z1.0000
G00 X47.2500 Y47.8505
G01 Z-2.1000
G01 Z0
G00 Z1.0000
G00 X47.2500 Y50.3905
G01 Z-2.1000
G01 Z0
G00 Z1.0000
G00 X43.2900 Y50.4905
G01 Z-2.1000
G01 Z0
G00 Z1.0000
G00 X43.2900 Y53.0305
G01 Z-2.1000
G01 Z0
G00 Z1.0000
G00 X43.2900 Y55.5705
G01 Z-2.1000
G01 Z0
G00 Z1.0000
G00 X43.2900 Y58.1105
G01 Z-2.1000
G01 Z0
G00 Z1.0000
G00 X43.2900 Y60.6505
G01 Z-2.1000
G01 Z0
G00 Z1.0000
G00 X40.7500 Y60.6505
G01 Z-2.1000
G01 Z0
G00 Z1.0000
G00 X40.7500 Y58.1105
G01 Z-2.1000
G01 Z0
G00 Z1.0000
G00 X40.7500 Y55.5705
G01 Z-2.1000
G01 Z0
G00 Z1.0000
G00 X40.7500 Y53.0305
G01 Z-2.1000
G01 Z0
G00 Z1.0000
G00 X40.7500 Y50.4905
G01 Z-2.1000
G01 Z0
G00 Z1.0000
G00 X40.7500 Y47.9505
G01 Z-2.1000
G01 Z0
G00 Z1.0000
G00 X40.7500 Y45.4105
G01 Z-2.1000
G01 Z0
G00 Z1.0000
G00 X40.7500 Y42.8705
G01 Z-2.1000
G01 Z0
G00 Z1.0000
G00 X40.7500 Y40.3305
G01 Z-2.1000
G01 Z0
G00 Z1.0000
G00 X40.7500 Y37.7905
G01 Z-2.1000
G01 Z0
G00 Z1.0000
G00 X33.7900 Y41.2725
G01 Z-2.1000
G01 Z0
G00 Z1.0000
G00 X33.7900 Y43.8125
G01 Z-2.1000
G01 Z0
G00 Z1.0000
G00 X33.7900 Y46.3525
G01 Z-2.1000
G01 Z0
G00 Z1.0000
G00 X31.2500 Y46.3525
G01 Z-2.1000
G01 Z0
G00 Z1.0000
G00 X31.2500 Y43.8125
G01 Z-2.1000
G01 Z0
G00 Z1.0000
G00 X31.2500 Y41.2725
G01 Z-2.1000
G01 Z0
G00 Z1.0000
G00 X31.2500 Y38.7325
G01 Z-2.1000
G01 Z0
G00 Z1.0000
G00 X33.7900 Y38.7325
G01 Z-2.1000
G01 Z0
G00 Z1.0000
G00 X33.7900 Y36.1925
G01 Z-2.1000
G01 Z0
G00 Z1.0000
G00 X33.7900 Y33.6525
G01 Z-2.1000
G01 Z0
G00 Z1.0000
G00 X31.2500 Y33.6525
G01 Z-2.1000
G01 Z0
G00 Z1.0000
G00 X31.2500 Y36.1925
G01 Z-2.1000
G01 Z0
G00 Z1.0000
M05
G00 Z5
