(G-CODE GENERATED BY FLATCAM v8.994 - www.flatcam.org - Version Date: 2020/11/7)

(Name: PiHat-B_Cu.gbr_0.7000_iso_cnc)
(Type: G-code from Geometry)
(Units: MM)

(Created on Sunday, 28 March 2021 at 12:32)

(Spindle Speed: 20000.0 RPM)
G21
G90
G94

F100.00

M03 S20000.0
G4 P2.0
F100.00
G00 X13.7842 Y8.3366
F60.00
G01 Z-0.2800
F100.00
G01 X13.7670 Y8.3370
G01 X12.9964 Y8.3369
G01 X12.9419 Y8.3342
G01 X12.9163 Y8.3314
G01 X12.8793 Y8.3259
G01 X12.8624 Y8.3230
G01 X12.8456 Y8.3192
G01 X12.8011 Y8.3079
G01 X12.7765 Y8.3001
G01 X12.7413 Y8.2875
G01 X12.7253 Y8.2814
G01 X12.7096 Y8.2744
G01 X12.6758 Y8.2584
G01 X12.6604 Y8.2507
G01 X12.6455 Y8.2422
G01 X12.6134 Y8.2230
G01 X12.5989 Y8.2138
G01 X12.5848 Y8.2039
G01 X12.5548 Y8.1816
G01 X12.5413 Y8.1711
G01 X12.5283 Y8.1599
G01 X12.5005 Y8.1348
G01 X12.4881 Y8.1229
G01 X12.4763 Y8.1105
G01 X12.4512 Y8.0828
G01 X12.4399 Y8.0698
G01 X12.4294 Y8.0562
G01 X12.4071 Y8.0262
G01 X12.3972 Y8.0121
G01 X12.3880 Y7.9976
G01 X12.3688 Y7.9655
G01 X12.3603 Y7.9506
G01 X12.3526 Y7.9353
G01 X12.3366 Y7.9015
G01 X12.3296 Y7.8858
G01 X12.3235 Y7.8697
G01 X12.3109 Y7.8345
G01 X12.3031 Y7.8100
G01 X12.2918 Y7.7654
G01 X12.2865 Y7.7402
G01 X12.2785 Y7.6862
G01 X12.2763 Y7.6605
G01 X12.2744 Y7.6232
G01 X12.2740 Y7.6060
G01 X12.2740 Y6.8440
G01 X12.2744 Y6.8268
G01 X12.2763 Y6.7895
G01 X12.2775 Y6.7724
G01 X12.2796 Y6.7553
G01 X12.2865 Y6.7098
G01 X12.2918 Y6.6846
G01 X12.3009 Y6.6484
G01 X12.3055 Y6.6318
G01 X12.3109 Y6.6155
G01 X12.3235 Y6.5803
G01 X12.3296 Y6.5643
G01 X12.3366 Y6.5486
G01 X12.3526 Y6.5148
G01 X12.3645 Y6.4919
G01 X12.3925 Y6.4451
G01 X12.4071 Y6.4238
G01 X12.4346 Y6.3870
G01 X12.4512 Y6.3673
G01 X12.4763 Y6.3396
G01 X12.4881 Y6.3271
G01 X12.5005 Y6.3153
G01 X12.5283 Y6.2902
G01 X12.5480 Y6.2736
G01 X12.5918 Y6.2411
G01 X12.6134 Y6.2270
G01 X12.6455 Y6.2078
G01 X12.6604 Y6.1993
G01 X12.6758 Y6.1916
G01 X12.7096 Y6.1756
G01 X12.7253 Y6.1687
G01 X12.7413 Y6.1625
G01 X12.7765 Y6.1499
G01 X12.8011 Y6.1421
G01 X12.8456 Y6.1308
G01 X12.8708 Y6.1255
G01 X12.9248 Y6.1175
G01 X12.9505 Y6.1153
G01 X12.9878 Y6.1134
G01 X13.0050 Y6.1130
G01 X13.7670 Y6.1130
G01 X13.7842 Y6.1134
G01 X13.8215 Y6.1153
G01 X13.8387 Y6.1165
G01 X13.8557 Y6.1186
G01 X13.9012 Y6.1255
G01 X13.9264 Y6.1308
G01 X13.9626 Y6.1399
G01 X13.9792 Y6.1445
G01 X13.9955 Y6.1499
G01 X14.0307 Y6.1625
G01 X14.0467 Y6.1687
G01 X14.0624 Y6.1756
G01 X14.0962 Y6.1916
G01 X14.1191 Y6.2035
G01 X14.1659 Y6.2315
G01 X14.1872 Y6.2461
G01 X14.2240 Y6.2736
G01 X14.2437 Y6.2902
G01 X14.2715 Y6.3153
G01 X14.2839 Y6.3271
G01 X14.2957 Y6.3396
G01 X14.3208 Y6.3673
G01 X14.3374 Y6.3870
G01 X14.3699 Y6.4308
G01 X14.3840 Y6.4524
G01 X14.4032 Y6.4845
G01 X14.4117 Y6.4994
G01 X14.4194 Y6.5148
G01 X14.4354 Y6.5486
G01 X14.4455 Y6.5722
G01 X14.4639 Y6.6236
G01 X14.4711 Y6.6484
G01 X14.4802 Y6.6846
G01 X14.4840 Y6.7014
G01 X14.4869 Y6.7183
G01 X14.4924 Y6.7553
G01 X14.4952 Y6.7809
G01 X14.4976 Y6.8268
G01 X14.4980 Y6.8440
G01 X14.4979 Y7.6146
G01 X14.4957 Y7.6605
G01 X14.4945 Y7.6777
G01 X14.4924 Y7.6947
G01 X14.4869 Y7.7317
G01 X14.4840 Y7.7486
G01 X14.4802 Y7.7654
G01 X14.4689 Y7.8100
G01 X14.4639 Y7.8264
G01 X14.4485 Y7.8697
G01 X14.4424 Y7.8858
G01 X14.4354 Y7.9015
G01 X14.4194 Y7.9353
G01 X14.4117 Y7.9506
G01 X14.4032 Y7.9655
G01 X14.3795 Y8.0049
G01 X14.3699 Y8.0192
G01 X14.3426 Y8.0562
G01 X14.3321 Y8.0698
G01 X14.3208 Y8.0828
G01 X14.2899 Y8.1168
G01 X14.2777 Y8.1289
G01 X14.2437 Y8.1599
G01 X14.2307 Y8.1711
G01 X14.2172 Y8.1816
G01 X14.1872 Y8.2039
G01 X14.1731 Y8.2138
G01 X14.1586 Y8.2230
G01 X14.1265 Y8.2422
G01 X14.1116 Y8.2507
G01 X14.0962 Y8.2584
G01 X14.0624 Y8.2744
G01 X14.0467 Y8.2814
G01 X14.0307 Y8.2875
G01 X13.9955 Y8.3001
G01 X13.9792 Y8.3055
G01 X13.9626 Y8.3101
G01 X13.9180 Y8.3212
G01 X13.9012 Y8.3245
G01 X13.8557 Y8.3314
G01 X13.8387 Y8.3335
G01 X13.8215 Y8.3348
G01 X13.7842 Y8.3366
G00 Z1.7000
G00 X14.8400 Y13.5900
F60.00
G01 Z-0.2800
F100.00
G01 X12.7700 Y13.6700
G00 Z1.7000
G00 X12.2740 Y14.1107
F60.00
G01 Z-0.2800
F100.00
G01 X12.2740 Y14.0830
G01 X12.2744 Y14.0658
G01 X12.2766 Y14.0402
G01 X12.2792 Y14.0232
G01 X12.2845 Y13.9980
G01 X12.2891 Y13.9814
G01 X12.2945 Y13.9651
G01 X12.3006 Y13.9491
G01 X12.3114 Y13.9256
G01 X12.3195 Y13.9105
G01 X12.3283 Y13.8958
G01 X12.3429 Y13.8745
G01 X12.3590 Y13.8544
G01 X12.3705 Y13.8417
G01 X12.3827 Y13.8295
G01 X12.3954 Y13.8180
G01 X12.4087 Y13.8071
G01 X12.4225 Y13.7969
G01 X12.4441 Y13.7828
G01 X12.4590 Y13.7743
G01 X12.4744 Y13.7666
G01 X12.4901 Y13.7597
G01 X12.5061 Y13.7535
G01 X12.5224 Y13.7481
G01 X12.5390 Y13.7435
G01 X12.5642 Y13.7382
G01 X12.5812 Y13.7356
G01 X12.5983 Y13.7340
G01 X12.6154 Y13.7331
G01 X12.6677 Y13.7330
G01 X12.6818 Y13.7247
G01 X12.6969 Y13.7166
G01 X12.7712 Y13.6814
G01 X12.7855 Y13.6750
G01 X12.7712 Y13.6687
G01 X12.7046 Y13.6372
G01 X12.6893 Y13.6295
G01 X12.6743 Y13.6210
G01 X12.6112 Y13.5831
G01 X12.5967 Y13.5739
G01 X12.5826 Y13.5640
G01 X12.5235 Y13.5202
G01 X12.5099 Y13.5096
G01 X12.4969 Y13.4984
G01 X12.4424 Y13.4489
G01 X12.4299 Y13.4371
G01 X12.4181 Y13.4247
G01 X12.3686 Y13.3701
G01 X12.3574 Y13.3571
G01 X12.3468 Y13.3435
G01 X12.3030 Y13.2844
G01 X12.2931 Y13.2703
G01 X12.2839 Y13.2558
G01 X12.2460 Y13.1927
G01 X12.2376 Y13.1777
G01 X12.2298 Y13.1624
G01 X12.1983 Y13.0958
G01 X12.1914 Y13.0801
G01 X12.1852 Y13.0641
G01 X12.1604 Y12.9947
G01 X12.1550 Y12.9784
G01 X12.1504 Y12.9619
G01 X12.1325 Y12.8904
G01 X12.1288 Y12.8737
G01 X12.1258 Y12.8568
G01 X12.1150 Y12.7839
G01 X12.1129 Y12.7669
G01 X12.1117 Y12.7497
G01 X12.1080 Y12.6762
G01 X12.1076 Y12.6590
G01 X12.1080 Y12.6418
G01 X12.1117 Y12.5683
G01 X12.1129 Y12.5512
G01 X12.1150 Y12.5341
G01 X12.1258 Y12.4613
G01 X12.1305 Y12.4359
G01 X12.1504 Y12.3561
G01 X12.1550 Y12.3396
G01 X12.1604 Y12.3233
G01 X12.1852 Y12.2539
G01 X12.1914 Y12.2379
G01 X12.1983 Y12.2222
G01 X12.2336 Y12.1479
G01 X12.2460 Y12.1253
G01 X12.2740 Y12.0787
G01 X12.2741 Y11.9154
G01 X12.2768 Y11.8609
G01 X12.2796 Y11.8353
G01 X12.2851 Y11.7983
G01 X12.2880 Y11.7814
G01 X12.2918 Y11.7646
G01 X12.3009 Y11.7284
G01 X12.3055 Y11.7118
G01 X12.3109 Y11.6955
G01 X12.3235 Y11.6603
G01 X12.3296 Y11.6443
G01 X12.3366 Y11.6286
G01 X12.3526 Y11.5948
G01 X12.3603 Y11.5794
G01 X12.3688 Y11.5645
G01 X12.3880 Y11.5324
G01 X12.3972 Y11.5179
G01 X12.4071 Y11.5038
G01 X12.4346 Y11.4670
G01 X12.4512 Y11.4473
G01 X12.4763 Y11.4196
G01 X12.4881 Y11.4071
G01 X12.5005 Y11.3953
G01 X12.5283 Y11.3702
G01 X12.5413 Y11.3589
G01 X12.5548 Y11.3484
G01 X12.5848 Y11.3261
G01 X12.5989 Y11.3162
G01 X12.6134 Y11.3070
G01 X12.6455 Y11.2878
G01 X12.6604 Y11.2793
G01 X12.6758 Y11.2716
G01 X12.7096 Y11.2556
G01 X12.7253 Y11.2487
G01 X12.7413 Y11.2425
G01 X12.7765 Y11.2299
G01 X12.7928 Y11.2245
G01 X12.8094 Y11.2199
G01 X12.8456 Y11.2108
G01 X12.8624 Y11.2071
G01 X12.8793 Y11.2041
G01 X12.9248 Y11.1975
G01 X12.9505 Y11.1953
G01 X12.9878 Y11.1934
G01 X13.0050 Y11.1930
G01 X13.7670 Y11.1930
G01 X13.7842 Y11.1934
G01 X13.8215 Y11.1953
G01 X13.8472 Y11.1975
G01 X13.9012 Y11.2055
G01 X13.9180 Y11.2088
G01 X13.9626 Y11.2199
G01 X13.9874 Y11.2271
G01 X14.0307 Y11.2425
G01 X14.0467 Y11.2487
G01 X14.0684 Y11.2584
G01 X15.6636 Y9.6632
G01 X15.6636 Y5.4948
G01 X15.3332 Y5.1644
G01 X7.5268 Y5.1644
G01 X2.6244 Y10.0668
G01 X2.6244 Y12.5746
G01 X4.6223 Y12.5746
G01 X4.7091 Y12.5333
G01 X4.7248 Y12.5264
G01 X4.7408 Y12.5202
G01 X4.8193 Y12.4921
G01 X4.8357 Y12.4867
G01 X4.8522 Y12.4821
G01 X4.9331 Y12.4618
G01 X4.9499 Y12.4581
G01 X4.9668 Y12.4551
G01 X5.0493 Y12.4429
G01 X5.0749 Y12.4401
G01 X5.1754 Y12.4351
G01 X5.4840 Y12.4350
G01 X5.5012 Y12.4354
G01 X5.5931 Y12.4401
G01 X5.6187 Y12.4429
G01 X5.7012 Y12.4551
G01 X5.7181 Y12.4581
G01 X5.7349 Y12.4618
G01 X5.8158 Y12.4821
G01 X5.8323 Y12.4867
G01 X5.8487 Y12.4921
G01 X5.9352 Y12.5232
G01 X5.9589 Y12.5333
G01 X6.0343 Y12.5690
G01 X6.0497 Y12.5767
G01 X6.0646 Y12.5852
G01 X6.1362 Y12.6281
G01 X6.1507 Y12.6372
G01 X6.1647 Y12.6471
G01 X6.2317 Y12.6968
G01 X6.2453 Y12.7074
G01 X6.2583 Y12.7186
G01 X6.3201 Y12.7746
G01 X6.3385 Y12.7926
G01 X6.4004 Y12.8607
G01 X6.4116 Y12.8737
G01 X6.4222 Y12.8873
G01 X6.4719 Y12.9543
G01 X6.4818 Y12.9683
G01 X6.4910 Y12.9828
G01 X6.5338 Y13.0544
G01 X6.5423 Y13.0693
G01 X6.5500 Y13.0847
G01 X6.5857 Y13.1601
G01 X6.5927 Y13.1758
G01 X6.5988 Y13.1918
G01 X6.6269 Y13.2704
G01 X6.6323 Y13.2867
G01 X6.6369 Y13.3032
G01 X6.6592 Y13.3925
G01 X6.6639 Y13.4178
G01 X6.6761 Y13.5003
G01 X6.6782 Y13.5174
G01 X6.6795 Y13.5345
G01 X6.6836 Y13.6178
G01 X6.6840 Y13.6350
G01 X6.6836 Y13.6522
G01 X6.6795 Y13.7355
G01 X6.6782 Y13.7526
G01 X6.6761 Y13.7697
G01 X6.6639 Y13.8522
G01 X6.6609 Y13.8691
G01 X6.6572 Y13.8859
G01 X6.6369 Y13.9668
G01 X6.6323 Y13.9834
G01 X6.6269 Y13.9997
G01 X6.5988 Y14.0782
G01 X6.5927 Y14.0942
G01 X6.5857 Y14.1099
G01 X6.5500 Y14.1853
G01 X6.5423 Y14.2007
G01 X6.5338 Y14.2156
G01 X6.4910 Y14.2872
G01 X6.4818 Y14.3017
G01 X6.4719 Y14.3157
G01 X6.4222 Y14.3827
G01 X6.4116 Y14.3963
G01 X6.4004 Y14.4093
G01 X6.3444 Y14.4711
G01 X6.3325 Y14.4835
G01 X6.3201 Y14.4954
G01 X6.2583 Y14.5514
G01 X6.2453 Y14.5626
G01 X6.2317 Y14.5732
G01 X6.1647 Y14.6229
G01 X6.1507 Y14.6328
G01 X6.1362 Y14.6420
G01 X6.0646 Y14.6848
G01 X6.0497 Y14.6933
G01 X6.0343 Y14.7010
G01 X5.9589 Y14.7367
G01 X5.9352 Y14.7469
G01 X5.8487 Y14.7779
G01 X5.8323 Y14.7833
G01 X5.8158 Y14.7879
G01 X5.7349 Y14.8082
G01 X5.7181 Y14.8120
G01 X5.7012 Y14.8149
G01 X5.6187 Y14.8271
G01 X5.6016 Y14.8292
G01 X5.5845 Y14.8305
G01 X5.5012 Y14.8346
G01 X5.4840 Y14.8350
G01 X5.1754 Y14.8349
G01 X5.0835 Y14.8305
G01 X5.0664 Y14.8292
G01 X5.0493 Y14.8271
G01 X4.9668 Y14.8149
G01 X4.9415 Y14.8102
G01 X4.8439 Y14.7857
G01 X4.8275 Y14.7807
G01 X4.8122 Y14.7754
G01 X2.9958 Y14.7754
G01 X2.6244 Y15.1468
G01 X2.6244 Y25.7826
G01 X12.4660 Y25.7826
G01 X12.4660 Y25.4750
G01 X12.4664 Y25.4578
G01 X12.4677 Y25.4407
G01 X12.4698 Y25.4237
G01 X12.4727 Y25.4067
G01 X12.4765 Y25.3900
G01 X12.4811 Y25.3734
G01 X12.4865 Y25.3571
G01 X12.4926 Y25.3411
G01 X12.4996 Y25.3254
G01 X12.5073 Y25.3100
G01 X12.5158 Y25.2951
G01 X12.5298 Y25.2735
G01 X12.5454 Y25.2530
G01 X12.5625 Y25.2337
G01 X12.5747 Y25.2215
G01 X12.5940 Y25.2045
G01 X12.6145 Y25.1889
G01 X12.6361 Y25.1748
G01 X12.6510 Y25.1663
G01 X12.6742 Y25.1550
G01 X12.6900 Y25.1485
G01 X12.7144 Y25.1401
G01 X12.7393 Y25.1335
G01 X12.7646 Y25.1288
G01 X12.7817 Y25.1267
G01 X12.8074 Y25.1251
G01 X14.6160 Y25.1250
G01 X14.6417 Y25.1260
G01 X14.6674 Y25.1288
G01 X14.6927 Y25.1335
G01 X14.7093 Y25.1377
G01 X14.7258 Y25.1427
G01 X14.7499 Y25.1517
G01 X14.7734 Y25.1624
G01 X14.7885 Y25.1705
G01 X14.8032 Y25.1793
G01 X14.8245 Y25.1939
G01 X14.8446 Y25.2100
G01 X14.8573 Y25.2215
G01 X14.8695 Y25.2337
G01 X14.8866 Y25.2530
G01 X14.9022 Y25.2735
G01 X14.9162 Y25.2951
G01 X14.9247 Y25.3100
G01 X14.9324 Y25.3254
G01 X14.9425 Y25.3490
G01 X14.9483 Y25.3652
G01 X14.9533 Y25.3817
G01 X14.9593 Y25.4067
G01 X14.9622 Y25.4237
G01 X14.9643 Y25.4407
G01 X14.9656 Y25.4578
G01 X14.9660 Y25.4750
G01 X14.9659 Y27.2836
G01 X14.9651 Y27.3008
G01 X14.9634 Y27.3179
G01 X14.9608 Y27.3348
G01 X14.9575 Y27.3517
G01 X14.9509 Y27.3766
G01 X14.9455 Y27.3929
G01 X14.9394 Y27.4089
G01 X14.9286 Y27.4324
G01 X14.9205 Y27.4475
G01 X14.9117 Y27.4623
G01 X14.8971 Y27.4835
G01 X14.8866 Y27.4970
G01 X14.8753 Y27.5101
G01 X14.8573 Y27.5285
G01 X14.8446 Y27.5400
G01 X14.8313 Y27.5509
G01 X14.8175 Y27.5612
G01 X14.8032 Y27.5707
G01 X14.7810 Y27.5837
G01 X14.7578 Y27.5950
G01 X14.7420 Y27.6016
G01 X14.7258 Y27.6073
G01 X14.7010 Y27.6145
G01 X14.6758 Y27.6199
G01 X14.6503 Y27.6233
G01 X14.6246 Y27.6249
G01 X14.5274 Y27.6250
G01 X14.5001 Y27.6549
G01 X14.4879 Y27.6671
G01 X14.4271 Y27.7224
G01 X14.4074 Y27.7390
G01 X14.3414 Y27.7880
G01 X14.3273 Y27.7979
G01 X14.3128 Y27.8071
G01 X14.2422 Y27.8493
G01 X14.2194 Y27.8612
G01 X14.1528 Y27.8927
G01 X14.1371 Y27.8996
G01 X14.1211 Y27.9058
G01 X14.0517 Y27.9306
G01 X14.0354 Y27.9360
G01 X14.0189 Y27.9406
G01 X13.9474 Y27.9585
G01 X13.9307 Y27.9622
G01 X13.9137 Y27.9652
G01 X13.8409 Y27.9760
G01 X13.8239 Y27.9781
G01 X13.8067 Y27.9794
G01 X13.7332 Y27.9830
G01 X13.7160 Y27.9834
G01 X2.6244 Y27.9834
G01 X2.6244 Y32.8946
G01 X4.6223 Y32.8946
G01 X4.7091 Y32.8533
G01 X4.7248 Y32.8464
G01 X4.7408 Y32.8402
G01 X4.8193 Y32.8121
G01 X4.8357 Y32.8067
G01 X4.8522 Y32.8021
G01 X4.9331 Y32.7818
G01 X4.9499 Y32.7781
G01 X4.9668 Y32.7751
G01 X5.0493 Y32.7629
G01 X5.0749 Y32.7601
G01 X5.1754 Y32.7551
G01 X5.4840 Y32.7550
G01 X5.5012 Y32.7554
G01 X5.5931 Y32.7601
G01 X5.6187 Y32.7629
G01 X5.7012 Y32.7751
G01 X5.7181 Y32.7781
G01 X5.7349 Y32.7818
G01 X5.8158 Y32.8021
G01 X5.8323 Y32.8067
G01 X5.8487 Y32.8121
G01 X5.9352 Y32.8432
G01 X5.9589 Y32.8533
G01 X6.0343 Y32.8890
G01 X6.0497 Y32.8967
G01 X6.0646 Y32.9052
G01 X6.1362 Y32.9481
G01 X6.1507 Y32.9572
G01 X6.1647 Y32.9671
G01 X6.2317 Y33.0168
G01 X6.2453 Y33.0274
G01 X6.2583 Y33.0386
G01 X6.3201 Y33.0946
G01 X6.3385 Y33.1126
G01 X6.4004 Y33.1807
G01 X6.4116 Y33.1937
G01 X6.4222 Y33.2073
G01 X6.4719 Y33.2743
G01 X6.4818 Y33.2883
G01 X6.4910 Y33.3028
G01 X6.5338 Y33.3744
G01 X6.5423 Y33.3893
G01 X6.5500 Y33.4047
G01 X6.5857 Y33.4801
G01 X6.5927 Y33.4958
G01 X6.5988 Y33.5118
G01 X6.6269 Y33.5904
G01 X6.6323 Y33.6067
G01 X6.6369 Y33.6232
G01 X6.6592 Y33.7125
G01 X6.6639 Y33.7378
G01 X6.6761 Y33.8203
G01 X6.6782 Y33.8374
G01 X6.6795 Y33.8545
G01 X6.6836 Y33.9378
G01 X6.6840 Y33.9550
G01 X6.6836 Y33.9722
G01 X6.6795 Y34.0555
G01 X6.6782 Y34.0726
G01 X6.6761 Y34.0897
G01 X6.6639 Y34.1722
G01 X6.6592 Y34.1975
G01 X6.6369 Y34.2868
G01 X6.6323 Y34.3034
G01 X6.6269 Y34.3197
G01 X6.5988 Y34.3982
G01 X6.5927 Y34.4142
G01 X6.5857 Y34.4299
G01 X6.5500 Y34.5053
G01 X6.5423 Y34.5207
G01 X6.5338 Y34.5356
G01 X6.4910 Y34.6072
G01 X6.4818 Y34.6217
G01 X6.4719 Y34.6357
G01 X6.4222 Y34.7027
G01 X6.4116 Y34.7163
G01 X6.4004 Y34.7293
G01 X6.3385 Y34.7974
G01 X6.3201 Y34.8154
G01 X6.2583 Y34.8714
G01 X6.2453 Y34.8826
G01 X6.2317 Y34.8932
G01 X6.1647 Y34.9429
G01 X6.1507 Y34.9528
G01 X6.1362 Y34.9620
G01 X6.0646 Y35.0048
G01 X6.0497 Y35.0133
G01 X6.0343 Y35.0210
G01 X5.9589 Y35.0567
G01 X5.9432 Y35.0637
G01 X5.9272 Y35.0698
G01 X5.8487 Y35.0979
G01 X5.8241 Y35.1057
G01 X5.7349 Y35.1282
G01 X5.7181 Y35.1320
G01 X5.7012 Y35.1349
G01 X5.6187 Y35.1471
G01 X5.5931 Y35.1500
G01 X5.4926 Y35.1549
G01 X5.1840 Y35.1550
G01 X5.1668 Y35.1546
G01 X5.0835 Y35.1505
G01 X5.0664 Y35.1492
G01 X5.0493 Y35.1471
G01 X4.9668 Y35.1349
G01 X4.9415 Y35.1302
G01 X4.8522 Y35.1079
G01 X4.8357 Y35.1033
G01 X4.8122 Y35.0954
G01 X2.6244 Y35.0954
G01 X2.6244 Y43.0546
G01 X4.6223 Y43.0546
G01 X4.7091 Y43.0133
G01 X4.7248 Y43.0064
G01 X4.7408 Y43.0002
G01 X4.8193 Y42.9721
G01 X4.8357 Y42.9667
G01 X4.8522 Y42.9621
G01 X4.9331 Y42.9418
G01 X4.9499 Y42.9381
G01 X4.9668 Y42.9351
G01 X5.0493 Y42.9229
G01 X5.0664 Y42.9208
G01 X5.0835 Y42.9195
G01 X5.1668 Y42.9154
G01 X5.1840 Y42.9150
G01 X5.4926 Y42.9151
G01 X5.5931 Y42.9201
G01 X5.6187 Y42.9229
G01 X5.7012 Y42.9351
G01 X5.7181 Y42.9381
G01 X5.7349 Y42.9418
G01 X5.8158 Y42.9621
G01 X5.8323 Y42.9667
G01 X5.8487 Y42.9721
G01 X5.9272 Y43.0002
G01 X5.9432 Y43.0064
G01 X5.9589 Y43.0133
G01 X6.0343 Y43.0490
G01 X6.0497 Y43.0567
G01 X6.0646 Y43.0652
G01 X6.1362 Y43.1081
G01 X6.1507 Y43.1172
G01 X6.1647 Y43.1271
G01 X6.2317 Y43.1768
G01 X6.2453 Y43.1874
G01 X6.2583 Y43.1986
G01 X6.3201 Y43.2546
G01 X6.3325 Y43.2665
G01 X6.3444 Y43.2789
G01 X6.4004 Y43.3407
G01 X6.4170 Y43.3604
G01 X6.4719 Y43.4343
G01 X6.4818 Y43.4483
G01 X6.4910 Y43.4628
G01 X6.5338 Y43.5344
G01 X6.5423 Y43.5493
G01 X6.5500 Y43.5647
G01 X6.5857 Y43.6401
G01 X6.5927 Y43.6558
G01 X6.5988 Y43.6718
G01 X6.6269 Y43.7504
G01 X6.6323 Y43.7667
G01 X6.6369 Y43.7832
G01 X6.6572 Y43.8641
G01 X6.6625 Y43.8893
G01 X6.6761 Y43.9803
G01 X6.6782 Y43.9974
G01 X6.6795 Y44.0145
G01 X6.6836 Y44.0978
G01 X6.6840 Y44.1150
G01 X6.6836 Y44.1322
G01 X6.6790 Y44.2241
G01 X6.6761 Y44.2497
G01 X6.6625 Y44.3407
G01 X6.6592 Y44.3575
G01 X6.6521 Y44.3862
G01 X6.6635 Y44.4316
G01 X6.6672 Y44.4483
G01 X6.6702 Y44.4653
G01 X6.6821 Y44.5466
G01 X6.6843 Y44.5723
G01 X6.6880 Y44.6458
G01 X6.6884 Y44.6630
G01 X6.6884 Y48.1346
G01 X12.6156 Y48.1346
G01 X12.6157 Y33.4784
G01 X12.6202 Y33.3877
G01 X12.6230 Y33.3621
G01 X12.6338 Y33.2893
G01 X12.6368 Y33.2723
G01 X12.6405 Y33.2556
G01 X12.6584 Y33.1841
G01 X12.6630 Y33.1676
G01 X12.6684 Y33.1513
G01 X12.6932 Y33.0819
G01 X12.6994 Y33.0659
G01 X12.7063 Y33.0502
G01 X12.7378 Y32.9836
G01 X12.7456 Y32.9683
G01 X12.7540 Y32.9533
G01 X12.7919 Y32.8902
G01 X12.8011 Y32.8757
G01 X12.8110 Y32.8616
G01 X12.8548 Y32.8025
G01 X12.8654 Y32.7889
G01 X12.8766 Y32.7759
G01 X12.9261 Y32.7214
G01 X12.9379 Y32.7089
G01 X12.9504 Y32.6971
G01 X13.0049 Y32.6476
G01 X13.0179 Y32.6364
G01 X13.0315 Y32.6258
G01 X13.0906 Y32.5820
G01 X13.1119 Y32.5674
G01 X13.1823 Y32.5250
G01 X13.1973 Y32.5166
G01 X13.2126 Y32.5088
G01 X13.2792 Y32.4774
G01 X13.2949 Y32.4704
G01 X13.3109 Y32.4642
G01 X13.3803 Y32.4394
G01 X13.3966 Y32.4340
G01 X13.4131 Y32.4294
G01 X13.4846 Y32.4115
G01 X13.5013 Y32.4078
G01 X13.5183 Y32.4048
G01 X13.5911 Y32.3940
G01 X13.6081 Y32.3919
G01 X13.6253 Y32.3907
G01 X13.7074 Y32.3867
G01 X24.9442 Y32.3866
G01 X27.1619 Y30.1689
G01 X27.1744 Y30.1571
G01 X27.2354 Y30.1019
G01 X27.2555 Y30.0858
G01 X27.3146 Y30.0420
G01 X27.3287 Y30.0321
G01 X27.3432 Y30.0229
G01 X27.4063 Y29.9850
G01 X27.4213 Y29.9766
G01 X27.4366 Y29.9688
G01 X27.5032 Y29.9374
G01 X27.5189 Y29.9304
G01 X27.5349 Y29.9242
G01 X27.6043 Y29.8994
G01 X27.6206 Y29.8940
G01 X27.6371 Y29.8894
G01 X27.7086 Y29.8715
G01 X27.7253 Y29.8678
G01 X27.7423 Y29.8648
G01 X27.8151 Y29.8540
G01 X27.8407 Y29.8512
G01 X27.9228 Y29.8471
G01 X27.9400 Y29.8466
G01 X31.5263 Y29.8466
G01 X31.5448 Y29.8384
G01 X31.5608 Y29.8322
G01 X31.6475 Y29.8013
G01 X31.6722 Y29.7941
G01 X31.7531 Y29.7738
G01 X31.7699 Y29.7701
G01 X31.7868 Y29.7671
G01 X31.8693 Y29.7549
G01 X31.8864 Y29.7528
G01 X31.9035 Y29.7515
G01 X31.9868 Y29.7474
G01 X32.0040 Y29.7470
G01 X32.0212 Y29.7474
G01 X32.1045 Y29.7515
G01 X32.1216 Y29.7528
G01 X32.1387 Y29.7549
G01 X32.2212 Y29.7671
G01 X32.2465 Y29.7718
G01 X32.3358 Y29.7941
G01 X32.3523 Y29.7987
G01 X32.3687 Y29.8041
G01 X32.4472 Y29.8322
G01 X32.4632 Y29.8384
G01 X32.4789 Y29.8453
G01 X32.5543 Y29.8810
G01 X32.5697 Y29.8887
G01 X32.5846 Y29.8972
G01 X32.6562 Y29.9401
G01 X32.6707 Y29.9492
G01 X32.6847 Y29.9591
G01 X32.7517 Y30.0088
G01 X32.7653 Y30.0194
G01 X32.7783 Y30.0306
G01 X32.8401 Y30.0866
G01 X32.8525 Y30.0985
G01 X32.8644 Y30.1109
G01 X32.9204 Y30.1727
G01 X32.9316 Y30.1857
G01 X32.9422 Y30.1993
G01 X32.9919 Y30.2663
G01 X33.0018 Y30.2803
G01 X33.0110 Y30.2948
G01 X33.0582 Y30.3738
G01 X33.0700 Y30.3967
G01 X33.1057 Y30.4721
G01 X33.1158 Y30.4958
G01 X33.1497 Y30.5905
G01 X33.1569 Y30.6152
G01 X33.1772 Y30.6961
G01 X33.1809 Y30.7129
G01 X33.1839 Y30.7298
G01 X33.1961 Y30.8123
G01 X33.1982 Y30.8294
G01 X33.1995 Y30.8465
G01 X33.2036 Y30.9298
G01 X33.2040 Y30.9470
G01 X33.2036 Y30.9642
G01 X33.1995 Y31.0475
G01 X33.1973 Y31.0732
G01 X33.1839 Y31.1642
G01 X33.1809 Y31.1811
G01 X33.1772 Y31.1979
G01 X33.1569 Y31.2788
G01 X33.1523 Y31.2954
G01 X33.1469 Y31.3117
G01 X33.1158 Y31.3983
G01 X33.1057 Y31.4219
G01 X33.0700 Y31.4973
G01 X33.0623 Y31.5127
G01 X33.0538 Y31.5276
G01 X33.0110 Y31.5992
G01 X33.0018 Y31.6137
G01 X32.9919 Y31.6277
G01 X32.9422 Y31.6947
G01 X32.9316 Y31.7083
G01 X32.9204 Y31.7213
G01 X32.8644 Y31.7831
G01 X32.8464 Y31.8015
G01 X32.7783 Y31.8634
G01 X32.7653 Y31.8746
G01 X32.7517 Y31.8852
G01 X32.6847 Y31.9349
G01 X32.6707 Y31.9448
G01 X32.6562 Y31.9540
G01 X32.5846 Y31.9968
G01 X32.5697 Y32.0053
G01 X32.5543 Y32.0130
G01 X32.4789 Y32.0487
G01 X32.4632 Y32.0557
G01 X32.4472 Y32.0618
G01 X32.3687 Y32.0899
G01 X32.3523 Y32.0953
G01 X32.3358 Y32.0999
G01 X32.2549 Y32.1202
G01 X32.2381 Y32.1240
G01 X32.2212 Y32.1269
G01 X32.1387 Y32.1391
G01 X32.1216 Y32.1412
G01 X32.1045 Y32.1425
G01 X32.0212 Y32.1466
G01 X32.0040 Y32.1470
G01 X31.9868 Y32.1466
G01 X31.9035 Y32.1425
G01 X31.8864 Y32.1412
G01 X31.8693 Y32.1391
G01 X31.7868 Y32.1269
G01 X31.7699 Y32.1240
G01 X31.7531 Y32.1202
G01 X31.6722 Y32.0999
G01 X31.6475 Y32.0927
G01 X31.5608 Y32.0618
G01 X31.5448 Y32.0557
G01 X31.5263 Y32.0474
G01 X28.3958 Y32.0474
G01 X26.1781 Y34.2651
G01 X26.1656 Y34.2769
G01 X26.1111 Y34.3264
G01 X26.0981 Y34.3376
G01 X26.0845 Y34.3482
G01 X26.0254 Y34.3920
G01 X26.0113 Y34.4019
G01 X25.9968 Y34.4111
G01 X25.9337 Y34.4490
G01 X25.9187 Y34.4575
G01 X25.9034 Y34.4652
G01 X25.8368 Y34.4967
G01 X25.8211 Y34.5036
G01 X25.8051 Y34.5098
G01 X25.7357 Y34.5346
G01 X25.7194 Y34.5400
G01 X25.7029 Y34.5446
G01 X25.6314 Y34.5625
G01 X25.6147 Y34.5662
G01 X25.5977 Y34.5692
G01 X25.5249 Y34.5800
G01 X25.5079 Y34.5821
G01 X25.4907 Y34.5834
G01 X25.4172 Y34.5870
G01 X25.4000 Y34.5874
G01 X14.8164 Y34.5874
G01 X14.8164 Y48.7270
G01 X14.8160 Y48.7442
G01 X14.8123 Y48.8177
G01 X14.8111 Y48.8349
G01 X14.8090 Y48.8519
G01 X14.7982 Y48.9248
G01 X14.7952 Y48.9417
G01 X14.7915 Y48.9584
G01 X14.7736 Y49.0299
G01 X14.7664 Y49.0546
G01 X14.7388 Y49.1321
G01 X14.7326 Y49.1481
G01 X14.7257 Y49.1638
G01 X14.6942 Y49.2304
G01 X14.6864 Y49.2457
G01 X14.6780 Y49.2607
G01 X14.6401 Y49.3238
G01 X14.6309 Y49.3383
G01 X14.6210 Y49.3524
G01 X14.5772 Y49.4115
G01 X14.5666 Y49.4251
G01 X14.5554 Y49.4381
G01 X14.5059 Y49.4927
G01 X14.4941 Y49.5051
G01 X13.9861 Y50.0131
G01 X13.9736 Y50.0249
G01 X13.9191 Y50.0744
G01 X13.9061 Y50.0856
G01 X13.8925 Y50.0962
G01 X13.8334 Y50.1400
G01 X13.8193 Y50.1499
G01 X13.8048 Y50.1591
G01 X13.7417 Y50.1970
G01 X13.7191 Y50.2094
G01 X13.6448 Y50.2447
G01 X13.6291 Y50.2516
G01 X13.6131 Y50.2578
G01 X13.5356 Y50.2854
G01 X13.5109 Y50.2926
G01 X13.4394 Y50.3105
G01 X13.4227 Y50.3142
G01 X13.4057 Y50.3172
G01 X13.3329 Y50.3280
G01 X13.3159 Y50.3301
G01 X13.2987 Y50.3314
G01 X13.2252 Y50.3350
G01 X13.2080 Y50.3354
G01 X6.6884 Y50.3354
G01 X6.6884 Y59.3106
G01 X41.2002 Y59.3106
G01 X43.0801 Y57.4307
G01 X43.0873 Y57.4118
G01 X43.0943 Y57.3961
G01 X43.1300 Y57.3207
G01 X43.1418 Y57.2978
G01 X43.1890 Y57.2188
G01 X43.1982 Y57.2043
G01 X43.2081 Y57.1903
G01 X43.2630 Y57.1164
G01 X43.2796 Y57.0967
G01 X43.3356 Y57.0349
G01 X43.3475 Y57.0225
G01 X43.3599 Y57.0106
G01 X43.4217 Y56.9546
G01 X43.4347 Y56.9434
G01 X43.4483 Y56.9328
G01 X43.5222 Y56.8781
G01 X43.5438 Y56.8641
G01 X43.6154 Y56.8212
G01 X43.6303 Y56.8127
G01 X43.6457 Y56.8050
G01 X43.7211 Y56.7693
G01 X43.7368 Y56.7624
G01 X43.7528 Y56.7562
G01 X43.8313 Y56.7281
G01 X43.8477 Y56.7227
G01 X43.8642 Y56.7181
G01 X43.9451 Y56.6978
G01 X43.9619 Y56.6941
G01 X43.9788 Y56.6911
G01 X44.0613 Y56.6789
G01 X44.0784 Y56.6768
G01 X44.0955 Y56.6755
G01 X44.1788 Y56.6714
G01 X44.1960 Y56.6710
G01 X44.2132 Y56.6714
G01 X44.2965 Y56.6755
G01 X44.3136 Y56.6768
G01 X44.3307 Y56.6789
G01 X44.4132 Y56.6911
G01 X44.4301 Y56.6941
G01 X44.4469 Y56.6978
G01 X44.5278 Y56.7181
G01 X44.5443 Y56.7227
G01 X44.5607 Y56.7281
G01 X44.6392 Y56.7562
G01 X44.6552 Y56.7624
G01 X44.6709 Y56.7693
G01 X44.7463 Y56.8050
G01 X44.7692 Y56.8168
G01 X44.8482 Y56.8641
G01 X44.8627 Y56.8732
G01 X44.8767 Y56.8831
G01 X44.9437 Y56.9328
G01 X44.9573 Y56.9434
G01 X44.9703 Y56.9546
G01 X45.0321 Y57.0106
G01 X45.0445 Y57.0225
G01 X45.0564 Y57.0349
G01 X45.1124 Y57.0967
G01 X45.1236 Y57.1097
G01 X45.1342 Y57.1233
G01 X45.1839 Y57.1903
G01 X45.1938 Y57.2043
G01 X45.2030 Y57.2188
G01 X45.2458 Y57.2904
G01 X45.2543 Y57.3053
G01 X45.2620 Y57.3207
G01 X45.2977 Y57.3961
G01 X45.3047 Y57.4118
G01 X45.3108 Y57.4278
G01 X45.3389 Y57.5064
G01 X45.3443 Y57.5227
G01 X45.3489 Y57.5392
G01 X45.3692 Y57.6201
G01 X45.3729 Y57.6369
G01 X45.3759 Y57.6538
G01 X45.3881 Y57.7363
G01 X45.3902 Y57.7534
G01 X45.3915 Y57.7705
G01 X45.3956 Y57.8538
G01 X45.3960 Y57.8710
G01 X45.3956 Y57.8882
G01 X45.3915 Y57.9715
G01 X45.3902 Y57.9886
G01 X45.3881 Y58.0057
G01 X45.3759 Y58.0882
G01 X45.3729 Y58.1051
G01 X45.3692 Y58.1219
G01 X45.3489 Y58.2028
G01 X45.3443 Y58.2194
G01 X45.3389 Y58.2357
G01 X45.3108 Y58.3142
G01 X45.3047 Y58.3302
G01 X45.2977 Y58.3459
G01 X45.2620 Y58.4213
G01 X45.2502 Y58.4442
G01 X45.2030 Y58.5232
G01 X45.1938 Y58.5377
G01 X45.1839 Y58.5517
G01 X45.1342 Y58.6187
G01 X45.1236 Y58.6323
G01 X45.1124 Y58.6453
G01 X45.0564 Y58.7071
G01 X45.0384 Y58.7255
G01 X44.9703 Y58.7874
G01 X44.9573 Y58.7986
G01 X44.9437 Y58.8092
G01 X44.8767 Y58.8589
G01 X44.8555 Y58.8735
G01 X44.7766 Y58.9208
G01 X44.7541 Y58.9333
G01 X44.6631 Y58.9763
G01 X44.6472 Y58.9829
G01 X44.6363 Y58.9869
G01 X42.4341 Y61.1891
G01 X42.4216 Y61.2009
G01 X42.3671 Y61.2504
G01 X42.3541 Y61.2616
G01 X42.3405 Y61.2722
G01 X42.2814 Y61.3160
G01 X42.2601 Y61.3306
G01 X42.1897 Y61.3730
G01 X42.1747 Y61.3815
G01 X42.1594 Y61.3892
G01 X42.0928 Y61.4207
G01 X42.0771 Y61.4276
G01 X42.0611 Y61.4338
G01 X41.9917 Y61.4586
G01 X41.9754 Y61.4640
G01 X41.9589 Y61.4686
G01 X41.8874 Y61.4865
G01 X41.8707 Y61.4902
G01 X41.8537 Y61.4932
G01 X41.7809 Y61.5040
G01 X41.7639 Y61.5061
G01 X41.7467 Y61.5074
G01 X41.6732 Y61.5110
G01 X41.6560 Y61.5114
G01 X5.5880 Y61.5114
G01 X5.5708 Y61.5110
G01 X5.4973 Y61.5074
G01 X5.4801 Y61.5061
G01 X5.4631 Y61.5040
G01 X5.3903 Y61.4932
G01 X5.3733 Y61.4902
G01 X5.3566 Y61.4865
G01 X5.2851 Y61.4686
G01 X5.2686 Y61.4640
G01 X5.2523 Y61.4586
G01 X5.1829 Y61.4338
G01 X5.1669 Y61.4276
G01 X5.1512 Y61.4207
G01 X5.0846 Y61.3892
G01 X5.0693 Y61.3815
G01 X5.0543 Y61.3730
G01 X4.9912 Y61.3351
G01 X4.9767 Y61.3259
G01 X4.9626 Y61.3160
G01 X4.9035 Y61.2722
G01 X4.8899 Y61.2616
G01 X4.8769 Y61.2504
G01 X4.8224 Y61.2009
G01 X4.8099 Y61.1891
G01 X4.7981 Y61.1767
G01 X4.7486 Y61.1221
G01 X4.7374 Y61.1091
G01 X4.7268 Y61.0955
G01 X4.6830 Y61.0364
G01 X4.6684 Y61.0151
G01 X4.6260 Y60.9447
G01 X4.6176 Y60.9297
G01 X4.6098 Y60.9144
G01 X4.5783 Y60.8478
G01 X4.5714 Y60.8321
G01 X4.5652 Y60.8161
G01 X4.5404 Y60.7467
G01 X4.5350 Y60.7304
G01 X4.5304 Y60.7139
G01 X4.5125 Y60.6424
G01 X4.5088 Y60.6257
G01 X4.5058 Y60.6088
G01 X4.4950 Y60.5359
G01 X4.4929 Y60.5189
G01 X4.4917 Y60.5017
G01 X4.4880 Y60.4282
G01 X4.4876 Y60.4110
G01 X4.4876 Y45.2554
G01 X1.5240 Y45.2554
G01 X1.5068 Y45.2550
G01 X1.4333 Y45.2514
G01 X1.4161 Y45.2501
G01 X1.3991 Y45.2480
G01 X1.3263 Y45.2372
G01 X1.3093 Y45.2342
G01 X1.2926 Y45.2305
G01 X1.2211 Y45.2126
G01 X1.2046 Y45.2080
G01 X1.1883 Y45.2026
G01 X1.1109 Y45.1748
G01 X1.0872 Y45.1647
G01 X1.0206 Y45.1332
G01 X1.0053 Y45.1255
G01 X0.9903 Y45.1170
G01 X0.9272 Y45.0791
G01 X0.9127 Y45.0699
G01 X0.8986 Y45.0600
G01 X0.8395 Y45.0162
G01 X0.8259 Y45.0056
G01 X0.8129 Y44.9944
G01 X0.7584 Y44.9449
G01 X0.7459 Y44.9331
G01 X0.7341 Y44.9207
G01 X0.6846 Y44.8661
G01 X0.6734 Y44.8531
G01 X0.6628 Y44.8395
G01 X0.6139 Y44.7734
G01 X0.5999 Y44.7518
G01 X0.5620 Y44.6887
G01 X0.5536 Y44.6737
G01 X0.5458 Y44.6584
G01 X0.5143 Y44.5918
G01 X0.5074 Y44.5761
G01 X0.5012 Y44.5601
G01 X0.4764 Y44.4907
G01 X0.4710 Y44.4744
G01 X0.4664 Y44.4579
G01 X0.4485 Y44.3864
G01 X0.4448 Y44.3697
G01 X0.4418 Y44.3528
G01 X0.4310 Y44.2799
G01 X0.4282 Y44.2543
G01 X0.4240 Y44.1722
G01 X0.4236 Y44.1550
G01 X0.4236 Y9.6110
G01 X0.4240 Y9.5938
G01 X0.4277 Y9.5203
G01 X0.4289 Y9.5032
G01 X0.4310 Y9.4861
G01 X0.4418 Y9.4133
G01 X0.4448 Y9.3963
G01 X0.4485 Y9.3796
G01 X0.4664 Y9.3081
G01 X0.4710 Y9.2916
G01 X0.4764 Y9.2753
G01 X0.5012 Y9.2059
G01 X0.5074 Y9.1899
G01 X0.5143 Y9.1742
G01 X0.5458 Y9.1076
G01 X0.5536 Y9.0923
G01 X0.5620 Y9.0773
G01 X0.5999 Y9.0142
G01 X0.6091 Y8.9997
G01 X0.6190 Y8.9856
G01 X0.6628 Y8.9265
G01 X0.6734 Y8.9129
G01 X0.6846 Y8.8999
G01 X0.7341 Y8.8454
G01 X0.7459 Y8.8329
G01 X6.2929 Y3.2859
G01 X6.3054 Y3.2741
G01 X6.3599 Y3.2246
G01 X6.3729 Y3.2134
G01 X6.3865 Y3.2028
G01 X6.4456 Y3.1590
G01 X6.4597 Y3.1491
G01 X6.4742 Y3.1399
G01 X6.5373 Y3.1020
G01 X6.5523 Y3.0936
G01 X6.5676 Y3.0858
G01 X6.6342 Y3.0543
G01 X6.6579 Y3.0442
G01 X6.7353 Y3.0164
G01 X6.7516 Y3.0110
G01 X6.7681 Y3.0064
G01 X6.8396 Y2.9885
G01 X6.8563 Y2.9848
G01 X6.8733 Y2.9818
G01 X6.9461 Y2.9710
G01 X6.9632 Y2.9689
G01 X6.9803 Y2.9677
G01 X7.0538 Y2.9640
G01 X7.0710 Y2.9636
G01 X15.7890 Y2.9636
G01 X15.8062 Y2.9640
G01 X15.8797 Y2.9677
G01 X15.8968 Y2.9689
G01 X15.9139 Y2.9710
G01 X15.9867 Y2.9818
G01 X16.0037 Y2.9848
G01 X16.0204 Y2.9885
G01 X16.0919 Y3.0064
G01 X16.1084 Y3.0110
G01 X16.1247 Y3.0164
G01 X16.1941 Y3.0412
G01 X16.2101 Y3.0474
G01 X16.2258 Y3.0543
G01 X16.2924 Y3.0858
G01 X16.3077 Y3.0936
G01 X16.3227 Y3.1020
G01 X16.3858 Y3.1399
G01 X16.4003 Y3.1491
G01 X16.4144 Y3.1590
G01 X16.4735 Y3.2028
G01 X16.4871 Y3.2134
G01 X16.5001 Y3.2246
G01 X16.5546 Y3.2741
G01 X16.5671 Y3.2859
G01 X17.5421 Y4.2609
G01 X17.5539 Y4.2734
G01 X17.6034 Y4.3279
G01 X17.6146 Y4.3409
G01 X17.6252 Y4.3545
G01 X17.6690 Y4.4136
G01 X17.6789 Y4.4277
G01 X17.6881 Y4.4422
G01 X17.7260 Y4.5053
G01 X17.7344 Y4.5203
G01 X17.7422 Y4.5356
G01 X17.7737 Y4.6022
G01 X17.7806 Y4.6179
G01 X17.7868 Y4.6339
G01 X17.8116 Y4.7033
G01 X17.8170 Y4.7196
G01 X17.8216 Y4.7361
G01 X17.8415 Y4.8159
G01 X17.8462 Y4.8413
G01 X17.8570 Y4.9141
G01 X17.8591 Y4.9312
G01 X17.8603 Y4.9483
G01 X17.8640 Y5.0218
G01 X17.8644 Y5.0390
G01 X17.8644 Y10.1190
G01 X17.8640 Y10.1362
G01 X17.8603 Y10.2097
G01 X17.8581 Y10.2354
G01 X17.8462 Y10.3168
G01 X17.8432 Y10.3337
G01 X17.8395 Y10.3504
G01 X17.8194 Y10.4302
G01 X17.8116 Y10.4547
G01 X17.7868 Y10.5241
G01 X17.7806 Y10.5401
G01 X17.7737 Y10.5558
G01 X17.7422 Y10.6224
G01 X17.7344 Y10.6377
G01 X17.7260 Y10.6527
G01 X17.6881 Y10.7158
G01 X17.6789 Y10.7303
G01 X17.6690 Y10.7444
G01 X17.6252 Y10.8035
G01 X17.6146 Y10.8171
G01 X17.6034 Y10.8301
G01 X17.5539 Y10.8847
G01 X17.5421 Y10.8971
G01 X15.0021 Y13.4371
G01 X14.9896 Y13.4489
G01 X14.9351 Y13.4984
G01 X14.9154 Y13.5150
G01 X14.8424 Y13.5691
G01 X14.8281 Y13.5786
G01 X14.8032 Y13.5937
G01 X14.8313 Y13.5952
G01 X14.8484 Y13.5969
G01 X14.9297 Y13.6088
G01 X14.9551 Y13.6136
G01 X15.0349 Y13.6334
G01 X15.0514 Y13.6380
G01 X15.0677 Y13.6434
G01 X15.1371 Y13.6682
G01 X15.1610 Y13.6778
G01 X15.2354 Y13.7128
G01 X15.2507 Y13.7206
G01 X15.2657 Y13.7290
G01 X15.3288 Y13.7669
G01 X15.3433 Y13.7761
G01 X15.3574 Y13.7860
G01 X15.4165 Y13.8298
G01 X15.4301 Y13.8404
G01 X15.4431 Y13.8516
G01 X15.5039 Y13.9069
G01 X20.4312 Y18.8341
G01 X20.4536 Y18.8353
G01 X20.4707 Y18.8369
G01 X20.5944 Y18.8553
G01 X20.6196 Y18.8606
G01 X20.7327 Y18.8891
G01 X20.7572 Y18.8968
G01 X20.8589 Y18.9332
G01 X20.8749 Y18.9394
G01 X20.8906 Y18.9463
G01 X20.9959 Y18.9963
G01 X21.0185 Y19.0087
G01 X21.1111 Y19.0642
G01 X21.1256 Y19.0734
G01 X21.1396 Y19.0833
G01 X21.2263 Y19.1476
G01 X21.2399 Y19.1581
G01 X21.2529 Y19.1694
G01 X21.3329 Y19.2419
G01 X21.3453 Y19.2537
G01 X21.3572 Y19.2661
G01 X21.4353 Y19.3526
G01 X21.4514 Y19.3727
G01 X21.5157 Y19.4594
G01 X21.5256 Y19.4734
G01 X21.5348 Y19.4879
G01 X21.5903 Y19.5805
G01 X21.5988 Y19.5955
G01 X21.6065 Y19.6108
G01 X21.6527 Y19.7084
G01 X21.6596 Y19.7241
G01 X21.6658 Y19.7401
G01 X21.7022 Y19.8418
G01 X21.7076 Y19.8581
G01 X21.7121 Y19.8747
G01 X21.7384 Y19.9794
G01 X21.7421 Y19.9961
G01 X21.7451 Y20.0131
G01 X21.7609 Y20.1198
G01 X21.7630 Y20.1369
G01 X21.7643 Y20.1540
G01 X21.7696 Y20.2618
G01 X21.7700 Y20.2790
G01 X21.7696 Y20.2962
G01 X21.7643 Y20.4040
G01 X21.7630 Y20.4211
G01 X21.7609 Y20.4382
G01 X21.7451 Y20.5450
G01 X21.7421 Y20.5619
G01 X21.7384 Y20.5787
G01 X21.7121 Y20.6834
G01 X21.7076 Y20.6999
G01 X21.7022 Y20.7162
G01 X21.6658 Y20.8179
G01 X21.6596 Y20.8339
G01 X21.6527 Y20.8496
G01 X21.6065 Y20.9472
G01 X21.5988 Y20.9625
G01 X21.5903 Y20.9775
G01 X21.5348 Y21.0701
G01 X21.5256 Y21.0846
G01 X21.5157 Y21.0986
G01 X21.4462 Y21.1922
G01 X21.4296 Y21.2119
G01 X21.3572 Y21.2919
G01 X21.3453 Y21.3043
G01 X21.3329 Y21.3162
G01 X21.2529 Y21.3887
G01 X21.2399 Y21.3999
G01 X21.2263 Y21.4104
G01 X21.1396 Y21.4747
G01 X21.1256 Y21.4846
G01 X21.1111 Y21.4938
G01 X21.0185 Y21.5493
G01 X21.0035 Y21.5578
G01 X20.9882 Y21.5655
G01 X20.8906 Y21.6117
G01 X20.8749 Y21.6186
G01 X20.8589 Y21.6248
G01 X20.7572 Y21.6612
G01 X20.7409 Y21.6666
G01 X20.7244 Y21.6712
G01 X20.6196 Y21.6974
G01 X20.6029 Y21.7011
G01 X20.5860 Y21.7041
G01 X20.4792 Y21.7199
G01 X20.4621 Y21.7220
G01 X20.4450 Y21.7233
G01 X20.3372 Y21.7286
G01 X20.3200 Y21.7290
G01 X20.3028 Y21.7286
G01 X20.1950 Y21.7233
G01 X20.1779 Y21.7220
G01 X20.1608 Y21.7199
G01 X20.0540 Y21.7041
G01 X20.0371 Y21.7011
G01 X20.0204 Y21.6974
G01 X19.9156 Y21.6712
G01 X19.8991 Y21.6666
G01 X19.8828 Y21.6612
G01 X19.7811 Y21.6248
G01 X19.7651 Y21.6186
G01 X19.7494 Y21.6117
G01 X19.6518 Y21.5655
G01 X19.6365 Y21.5578
G01 X19.6215 Y21.5493
G01 X19.5289 Y21.4938
G01 X19.5144 Y21.4846
G01 X19.5004 Y21.4747
G01 X19.4068 Y21.4052
G01 X19.3871 Y21.3887
G01 X19.3071 Y21.3162
G01 X19.2947 Y21.3043
G01 X19.2828 Y21.2919
G01 X19.2104 Y21.2119
G01 X19.1991 Y21.1989
G01 X19.1886 Y21.1853
G01 X19.1243 Y21.0986
G01 X19.1144 Y21.0846
G01 X19.1052 Y21.0701
G01 X19.0497 Y20.9775
G01 X19.0412 Y20.9625
G01 X19.0335 Y20.9472
G01 X18.9873 Y20.8496
G01 X18.9804 Y20.8339
G01 X18.9742 Y20.8179
G01 X18.9378 Y20.7162
G01 X18.9324 Y20.6999
G01 X18.9279 Y20.6834
G01 X18.9016 Y20.5787
G01 X18.8963 Y20.5534
G01 X18.8779 Y20.4297
G01 X18.8762 Y20.4126
G01 X18.8750 Y20.3902
G01 X14.3658 Y15.8810
G01 X14.3565 Y15.8881
G01 X14.3424 Y15.8980
G01 X14.3205 Y15.9115
G01 X14.2976 Y15.9234
G01 X14.2740 Y15.9336
G01 X14.2496 Y15.9419
G01 X14.2247 Y15.9485
G01 X14.1994 Y15.9532
G01 X14.1823 Y15.9553
G01 X14.1652 Y15.9566
G01 X14.1480 Y15.9570
G01 X12.6154 Y15.9569
G01 X12.5983 Y15.9561
G01 X12.5812 Y15.9544
G01 X12.5642 Y15.9519
G01 X12.5473 Y15.9485
G01 X12.5307 Y15.9443
G01 X12.5142 Y15.9393
G01 X12.4980 Y15.9336
G01 X12.4822 Y15.9270
G01 X12.4590 Y15.9157
G01 X12.4441 Y15.9072
G01 X12.4296 Y15.8980
G01 X12.4155 Y15.8881
G01 X12.4020 Y15.8776
G01 X12.3890 Y15.8663
G01 X12.3765 Y15.8545
G01 X12.3647 Y15.8421
G01 X12.3481 Y15.8223
G01 X12.3330 Y15.8015
G01 X12.3195 Y15.7795
G01 X12.3114 Y15.7644
G01 X12.3006 Y15.7409
G01 X12.2917 Y15.7168
G01 X12.2845 Y15.6921
G01 X12.2807 Y15.6753
G01 X12.2766 Y15.6499
G01 X12.2749 Y15.6328
G01 X12.2741 Y15.6156
G01 X12.2740 Y15.2713
G01 X12.2460 Y15.2247
G01 X12.2376 Y15.2097
G01 X12.2298 Y15.1944
G01 X12.1983 Y15.1278
G01 X12.1882 Y15.1041
G01 X12.1576 Y15.0186
G01 X12.1504 Y14.9939
G01 X12.1325 Y14.9224
G01 X12.1288 Y14.9057
G01 X12.1258 Y14.8888
G01 X12.1150 Y14.8159
G01 X12.1129 Y14.7989
G01 X12.1117 Y14.7817
G01 X12.1080 Y14.7082
G01 X12.1076 Y14.6910
G01 X12.1080 Y14.6738
G01 X12.1122 Y14.5917
G01 X12.1150 Y14.5661
G01 X12.1258 Y14.4933
G01 X12.1288 Y14.4763
G01 X12.1325 Y14.4596
G01 X12.1504 Y14.3881
G01 X12.1550 Y14.3716
G01 X12.1604 Y14.3553
G01 X12.1852 Y14.2859
G01 X12.1914 Y14.2699
G01 X12.1983 Y14.2542
G01 X12.2336 Y14.1799
G01 X12.2460 Y14.1573
G01 X12.2740 Y14.1107
G00 Z1.7000
G00 X14.2500 Y22.7100
F60.00
G01 Z-0.2800
F100.00
G01 X14.8500 Y23.3000
G00 Z1.7000
G00 X4.5668 Y20.0954
F60.00
G01 Z-0.2800
F100.00
G01 X4.5840 Y20.0950
G01 X6.0840 Y20.0950
G01 X6.1257 Y20.0966
G01 X6.1513 Y20.0988
G01 X6.1841 Y20.1036
G01 X6.2011 Y20.1065
G01 X6.2416 Y20.1163
G01 X6.2664 Y20.1234
G01 X6.2976 Y20.1345
G01 X6.3136 Y20.1407
G01 X6.3515 Y20.1581
G01 X6.3744 Y20.1700
G01 X6.4028 Y20.1869
G01 X6.4150 Y20.1946
G01 X8.5516 Y20.1946
G01 X8.5516 Y12.2354
G01 X6.4150 Y12.2354
G01 X6.3818 Y12.2557
G01 X6.3668 Y12.2642
G01 X6.3293 Y12.2824
G01 X6.3056 Y12.2925
G01 X6.2745 Y12.3038
G01 X6.2582 Y12.3092
G01 X6.2416 Y12.3138
G01 X6.2095 Y12.3217
G01 X6.1926 Y12.3251
G01 X6.1599 Y12.3300
G01 X6.1343 Y12.3329
G01 X6.1012 Y12.3346
G01 X6.0840 Y12.3350
G01 X4.5754 Y12.3349
G01 X4.5337 Y12.3329
G01 X4.5167 Y12.3312
G01 X4.4754 Y12.3251
G01 X4.4585 Y12.3217
G01 X4.4181 Y12.3116
G01 X4.4016 Y12.3066
G01 X4.3624 Y12.2925
G01 X4.3387 Y12.2824
G01 X4.3012 Y12.2642
G01 X4.2862 Y12.2557
G01 X4.2579 Y12.2386
G01 X4.2366 Y12.2240
G01 X4.2034 Y12.1988
G01 X4.1904 Y12.1876
G01 X4.1659 Y12.1653
G01 X4.1479 Y12.1468
G01 X4.1202 Y12.1156
G01 X4.1096 Y12.1021
G01 X4.0900 Y12.0754
G01 X4.0759 Y12.0538
G01 X4.0548 Y12.0178
G01 X4.0471 Y12.0025
G01 X4.0331 Y11.9725
G01 X4.0235 Y11.9486
G01 X4.0098 Y11.9092
G01 X4.0053 Y11.8926
G01 X3.9973 Y11.8605
G01 X3.9926 Y11.8351
G01 X3.9869 Y11.7938
G01 X3.9856 Y11.7767
G01 X3.9840 Y11.7350
G01 X3.9840 Y10.5350
G01 X3.9844 Y10.5178
G01 X3.9862 Y10.4848
G01 X3.9878 Y10.4677
G01 X3.9926 Y10.4349
G01 X3.9955 Y10.4180
G01 X3.9993 Y10.4012
G01 X4.0074 Y10.3691
G01 X4.0124 Y10.3527
G01 X4.0235 Y10.3214
G01 X4.0297 Y10.3054
G01 X4.0366 Y10.2897
G01 X4.0509 Y10.2598
G01 X4.0590 Y10.2446
G01 X4.0759 Y10.2162
G01 X4.0851 Y10.2017
G01 X4.0950 Y10.1876
G01 X4.1148 Y10.1611
G01 X4.1257 Y10.1478
G01 X4.1537 Y10.1169
G01 X4.1659 Y10.1047
G01 X4.1968 Y10.0767
G01 X4.2169 Y10.0606
G01 X4.2436 Y10.0410
G01 X4.2652 Y10.0269
G01 X4.3012 Y10.0059
G01 X4.3387 Y9.9876
G01 X4.3624 Y9.9775
G01 X4.4016 Y9.9634
G01 X4.4181 Y9.9585
G01 X4.4585 Y9.9483
G01 X4.4754 Y9.9450
G01 X4.5167 Y9.9388
G01 X4.5337 Y9.9372
G01 X4.5754 Y9.9351
G01 X6.0840 Y9.9350
G01 X6.1257 Y9.9366
G01 X6.1513 Y9.9388
G01 X6.1841 Y9.9436
G01 X6.2011 Y9.9465
G01 X6.2416 Y9.9563
G01 X6.2664 Y9.9634
G01 X6.2976 Y9.9745
G01 X6.3136 Y9.9807
G01 X6.3515 Y9.9981
G01 X6.3744 Y10.0100
G01 X6.4028 Y10.0269
G01 X6.4150 Y10.0346
G01 X9.1962 Y10.0346
G01 X10.3979 Y8.8329
G01 X10.4104 Y8.8211
G01 X10.4649 Y8.7716
G01 X10.4779 Y8.7604
G01 X10.4915 Y8.7498
G01 X10.5506 Y8.7060
G01 X10.5647 Y8.6961
G01 X10.5792 Y8.6869
G01 X10.6423 Y8.6490
G01 X10.6573 Y8.6406
G01 X10.6726 Y8.6328
G01 X10.7392 Y8.6014
G01 X10.7549 Y8.5944
G01 X10.7709 Y8.5882
G01 X10.8403 Y8.5634
G01 X10.8566 Y8.5580
G01 X10.8731 Y8.5534
G01 X10.9446 Y8.5355
G01 X10.9613 Y8.5318
G01 X10.9783 Y8.5288
G01 X11.0596 Y8.5169
G01 X11.0853 Y8.5147
G01 X11.1588 Y8.5111
G01 X11.1760 Y8.5106
G01 X13.2080 Y8.5106
G01 X13.2252 Y8.5111
G01 X13.2987 Y8.5147
G01 X13.3159 Y8.5159
G01 X13.3329 Y8.5180
G01 X13.4057 Y8.5288
G01 X13.4227 Y8.5318
G01 X13.4394 Y8.5355
G01 X13.5109 Y8.5534
G01 X13.5356 Y8.5606
G01 X13.6131 Y8.5882
G01 X13.6370 Y8.5978
G01 X13.7191 Y8.6366
G01 X13.7342 Y8.6447
G01 X13.7483 Y8.6530
G01 X13.7756 Y8.6531
G01 X13.8215 Y8.6553
G01 X13.8387 Y8.6565
G01 X13.8557 Y8.6586
G01 X13.9012 Y8.6655
G01 X13.9180 Y8.6688
G01 X13.9626 Y8.6799
G01 X13.9874 Y8.6871
G01 X14.0307 Y8.7025
G01 X14.0467 Y8.7087
G01 X14.0624 Y8.7156
G01 X14.0962 Y8.7316
G01 X14.1116 Y8.7393
G01 X14.1265 Y8.7478
G01 X14.1586 Y8.7670
G01 X14.1731 Y8.7762
G01 X14.1872 Y8.7861
G01 X14.2172 Y8.8084
G01 X14.2373 Y8.8245
G01 X14.2715 Y8.8553
G01 X14.2839 Y8.8671
G01 X14.2957 Y8.8796
G01 X14.3208 Y8.9073
G01 X14.3321 Y8.9203
G01 X14.3426 Y8.9338
G01 X14.3649 Y8.9638
G01 X14.3748 Y8.9779
G01 X14.3840 Y8.9924
G01 X14.4032 Y9.0245
G01 X14.4117 Y9.0394
G01 X14.4194 Y9.0548
G01 X14.4390 Y9.0964
G01 X14.4455 Y9.1122
G01 X14.4611 Y9.1555
G01 X14.4665 Y9.1718
G01 X14.4711 Y9.1884
G01 X14.4802 Y9.2246
G01 X14.4840 Y9.2414
G01 X14.4869 Y9.2583
G01 X14.4924 Y9.2953
G01 X14.4945 Y9.3124
G01 X14.4957 Y9.3295
G01 X14.4979 Y9.3754
G01 X14.4980 Y10.1460
G01 X14.4976 Y10.1632
G01 X14.4957 Y10.2005
G01 X14.4935 Y10.2262
G01 X14.4855 Y10.2802
G01 X14.4802 Y10.3054
G01 X14.4711 Y10.3417
G01 X14.4665 Y10.3582
G01 X14.4611 Y10.3745
G01 X14.4485 Y10.4097
G01 X14.4390 Y10.4336
G01 X14.4194 Y10.4753
G01 X14.4075 Y10.4981
G01 X14.3795 Y10.5449
G01 X14.3649 Y10.5662
G01 X14.3426 Y10.5962
G01 X14.3321 Y10.6098
G01 X14.3208 Y10.6228
G01 X14.2957 Y10.6505
G01 X14.2839 Y10.6629
G01 X14.2715 Y10.6748
G01 X14.2437 Y10.6999
G01 X14.2240 Y10.7164
G01 X14.1872 Y10.7439
G01 X14.1731 Y10.7538
G01 X14.1586 Y10.7630
G01 X14.1265 Y10.7822
G01 X14.1040 Y10.7947
G01 X14.0624 Y10.8144
G01 X14.0467 Y10.8214
G01 X14.0307 Y10.8275
G01 X13.9874 Y10.8429
G01 X13.9626 Y10.8501
G01 X13.9264 Y10.8592
G01 X13.9096 Y10.8630
G01 X13.8927 Y10.8659
G01 X13.8472 Y10.8725
G01 X13.8215 Y10.8748
G01 X13.7842 Y10.8766
G01 X13.7670 Y10.8770
G01 X13.0050 Y10.8770
G01 X12.9878 Y10.8766
G01 X12.9505 Y10.8748
G01 X12.9333 Y10.8735
G01 X12.9163 Y10.8714
G01 X12.8708 Y10.8645
G01 X12.8540 Y10.8612
G01 X12.8094 Y10.8501
G01 X12.7928 Y10.8455
G01 X12.7765 Y10.8401
G01 X12.7413 Y10.8275
G01 X12.7253 Y10.8214
G01 X12.7096 Y10.8144
G01 X12.6758 Y10.7984
G01 X12.6604 Y10.7907
G01 X12.6455 Y10.7822
G01 X12.6134 Y10.7630
G01 X12.5989 Y10.7538
G01 X12.5848 Y10.7439
G01 X12.5548 Y10.7216
G01 X12.5416 Y10.7114
G01 X11.6318 Y10.7114
G01 X10.7524 Y11.5908
G01 X10.7523 Y20.7956
G01 X10.7483 Y20.8777
G01 X10.7471 Y20.8949
G01 X10.7450 Y20.9119
G01 X10.7342 Y20.9848
G01 X10.7312 Y21.0017
G01 X10.7275 Y21.0184
G01 X10.7096 Y21.0899
G01 X10.7050 Y21.1064
G01 X10.6996 Y21.1227
G01 X10.6748 Y21.1921
G01 X10.6652 Y21.2160
G01 X10.6302 Y21.2904
G01 X10.6224 Y21.3057
G01 X10.6140 Y21.3207
G01 X10.5761 Y21.3838
G01 X10.5669 Y21.3983
G01 X10.5570 Y21.4124
G01 X10.5132 Y21.4715
G01 X10.4971 Y21.4917
G01 X10.4419 Y21.5527
G01 X10.4301 Y21.5651
G01 X9.9221 Y22.0731
G01 X9.9096 Y22.0849
G01 X9.8551 Y22.1344
G01 X9.8354 Y22.1510
G01 X9.7624 Y22.2051
G01 X9.7408 Y22.2191
G01 X9.6777 Y22.2570
G01 X9.6627 Y22.2655
G01 X9.6474 Y22.2732
G01 X9.5808 Y22.3047
G01 X9.5651 Y22.3116
G01 X9.5491 Y22.3178
G01 X9.4797 Y22.3426
G01 X9.4634 Y22.3480
G01 X9.4469 Y22.3526
G01 X9.3754 Y22.3705
G01 X9.3502 Y22.3758
G01 X9.2689 Y22.3880
G01 X9.2519 Y22.3901
G01 X9.2347 Y22.3914
G01 X9.1612 Y22.3950
G01 X9.1440 Y22.3954
G01 X6.4150 Y22.3954
G01 X6.3818 Y22.4157
G01 X6.3668 Y22.4242
G01 X6.3293 Y22.4424
G01 X6.3056 Y22.4525
G01 X6.2745 Y22.4638
G01 X6.2582 Y22.4692
G01 X6.2416 Y22.4738
G01 X6.2095 Y22.4817
G01 X6.1841 Y22.4864
G01 X6.1428 Y22.4921
G01 X6.1257 Y22.4934
G01 X6.0926 Y22.4949
G01 X4.5840 Y22.4950
G01 X4.5423 Y22.4934
G01 X4.5252 Y22.4921
G01 X4.4839 Y22.4864
G01 X4.4585 Y22.4817
G01 X4.4264 Y22.4738
G01 X4.4098 Y22.4692
G01 X4.3704 Y22.4555
G01 X4.3465 Y22.4460
G01 X4.3165 Y22.4319
G01 X4.3012 Y22.4242
G01 X4.2862 Y22.4157
G01 X4.2579 Y22.3986
G01 X4.2366 Y22.3840
G01 X4.2034 Y22.3588
G01 X4.1904 Y22.3476
G01 X4.1659 Y22.3253
G01 X4.1479 Y22.3068
G01 X4.1257 Y22.2822
G01 X4.1148 Y22.2689
G01 X4.0950 Y22.2424
G01 X4.0851 Y22.2284
G01 X4.0633 Y22.1928
G01 X4.0509 Y22.1702
G01 X4.0366 Y22.1403
G01 X4.0297 Y22.1246
G01 X4.0235 Y22.1086
G01 X4.0124 Y22.0774
G01 X4.0053 Y22.0526
G01 X3.9955 Y22.0121
G01 X3.9890 Y21.9709
G01 X3.9862 Y21.9453
G01 X3.9841 Y21.9036
G01 X3.9840 Y20.6950
G01 X3.9844 Y20.6778
G01 X3.9862 Y20.6448
G01 X3.9878 Y20.6277
G01 X3.9940 Y20.5864
G01 X3.9973 Y20.5696
G01 X4.0074 Y20.5291
G01 X4.0124 Y20.5127
G01 X4.0265 Y20.4734
G01 X4.0331 Y20.4575
G01 X4.0471 Y20.4275
G01 X4.0548 Y20.4122
G01 X4.0759 Y20.3762
G01 X4.0851 Y20.3617
G01 X4.0950 Y20.3476
G01 X4.1202 Y20.3144
G01 X4.1479 Y20.2832
G01 X4.1597 Y20.2707
G01 X4.1722 Y20.2589
G01 X4.2034 Y20.2312
G01 X4.2366 Y20.2060
G01 X4.2507 Y20.1961
G01 X4.2652 Y20.1869
G01 X4.3012 Y20.1659
G01 X4.3165 Y20.1581
G01 X4.3465 Y20.1441
G01 X4.3624 Y20.1375
G01 X4.4016 Y20.1234
G01 X4.4181 Y20.1185
G01 X4.4585 Y20.1083
G01 X4.4754 Y20.1050
G01 X4.5167 Y20.0988
G01 X4.5337 Y20.0972
G01 X4.5668 Y20.0954
G00 Z1.7000
G00 X3.9881 Y23.7028
F60.00
G01 Z-0.2800
F100.00
G01 X3.9898 Y23.6774
G01 X3.9919 Y23.6603
G01 X4.0055 Y23.5693
G01 X4.0108 Y23.5441
G01 X4.0311 Y23.4632
G01 X4.0383 Y23.4385
G01 X4.0722 Y23.3438
G01 X4.0823 Y23.3201
G01 X4.1180 Y23.2447
G01 X4.1257 Y23.2293
G01 X4.1342 Y23.2144
G01 X4.1770 Y23.1428
G01 X4.1862 Y23.1283
G01 X4.1961 Y23.1143
G01 X4.2458 Y23.0473
G01 X4.2564 Y23.0337
G01 X4.2676 Y23.0207
G01 X4.3236 Y22.9589
G01 X4.3355 Y22.9465
G01 X4.3479 Y22.9346
G01 X4.4097 Y22.8786
G01 X4.4227 Y22.8674
G01 X4.4363 Y22.8568
G01 X4.5033 Y22.8071
G01 X4.5173 Y22.7972
G01 X4.5318 Y22.7881
G01 X4.6108 Y22.7408
G01 X4.6337 Y22.7290
G01 X4.7091 Y22.6933
G01 X4.7248 Y22.6864
G01 X4.7408 Y22.6802
G01 X4.8193 Y22.6521
G01 X4.8357 Y22.6467
G01 X4.8522 Y22.6421
G01 X4.9331 Y22.6218
G01 X4.9499 Y22.6181
G01 X4.9668 Y22.6151
G01 X5.0493 Y22.6029
G01 X5.0664 Y22.6008
G01 X5.0835 Y22.5995
G01 X5.1754 Y22.5951
G01 X5.4840 Y22.5950
G01 X5.5012 Y22.5954
G01 X5.5845 Y22.5995
G01 X5.6016 Y22.6008
G01 X5.6187 Y22.6029
G01 X5.7012 Y22.6151
G01 X5.7181 Y22.6181
G01 X5.7349 Y22.6218
G01 X5.8158 Y22.6421
G01 X5.8323 Y22.6467
G01 X5.8487 Y22.6521
G01 X5.9272 Y22.6802
G01 X5.9432 Y22.6864
G01 X5.9589 Y22.6933
G01 X6.0457 Y22.7346
G01 X13.1231 Y22.7346
G01 X13.1421 Y22.7249
G01 X13.2219 Y22.6871
G01 X13.2376 Y22.6802
G01 X13.2537 Y22.6740
G01 X13.3368 Y22.6442
G01 X13.3531 Y22.6388
G01 X13.3697 Y22.6343
G01 X13.4554 Y22.6128
G01 X13.4721 Y22.6090
G01 X13.4891 Y22.6061
G01 X13.5764 Y22.5931
G01 X13.5935 Y22.5910
G01 X13.6106 Y22.5898
G01 X13.6988 Y22.5854
G01 X13.7160 Y22.5850
G01 X13.7332 Y22.5854
G01 X13.8214 Y22.5898
G01 X13.8385 Y22.5910
G01 X13.8556 Y22.5931
G01 X13.9429 Y22.6061
G01 X13.9683 Y22.6108
G01 X14.0623 Y22.6343
G01 X14.0870 Y22.6414
G01 X14.1783 Y22.6740
G01 X14.1944 Y22.6802
G01 X14.2101 Y22.6871
G01 X14.2608 Y22.7111
G01 X14.0488 Y22.4991
G01 X13.9766 Y22.5172
G01 X13.9599 Y22.5210
G01 X13.9429 Y22.5239
G01 X13.8556 Y22.5369
G01 X13.8300 Y22.5397
G01 X13.7332 Y22.5446
G01 X13.7160 Y22.5450
G01 X13.6988 Y22.5446
G01 X13.6106 Y22.5403
G01 X13.5935 Y22.5390
G01 X13.5764 Y22.5369
G01 X13.4806 Y22.5226
G01 X13.4554 Y22.5172
G01 X13.3697 Y22.4958
G01 X13.3531 Y22.4912
G01 X13.3368 Y22.4858
G01 X13.2537 Y22.4560
G01 X13.2376 Y22.4499
G01 X13.2219 Y22.4429
G01 X13.1421 Y22.4051
G01 X13.1268 Y22.3974
G01 X13.1118 Y22.3889
G01 X13.0361 Y22.3435
G01 X13.0215 Y22.3343
G01 X13.0075 Y22.3245
G01 X12.9366 Y22.2718
G01 X12.9164 Y22.2557
G01 X12.8446 Y22.1907
G01 X12.8321 Y22.1789
G01 X12.8203 Y22.1665
G01 X12.7610 Y22.1010
G01 X12.7497 Y22.0880
G01 X12.7392 Y22.0745
G01 X12.6866 Y22.0035
G01 X12.6720 Y21.9823
G01 X12.6221 Y21.8992
G01 X12.6136 Y21.8843
G01 X12.6059 Y21.8689
G01 X12.5681 Y21.7891
G01 X12.5612 Y21.7734
G01 X12.5550 Y21.7573
G01 X12.5252 Y21.6742
G01 X12.5198 Y21.6579
G01 X12.5152 Y21.6413
G01 X12.4938 Y21.5556
G01 X12.4900 Y21.5389
G01 X12.4871 Y21.5219
G01 X12.4741 Y21.4346
G01 X12.4720 Y21.4175
G01 X12.4708 Y21.4004
G01 X12.4664 Y21.3122
G01 X12.4660 Y21.2950
G01 X12.4664 Y21.2778
G01 X12.4708 Y21.1896
G01 X12.4720 Y21.1725
G01 X12.4741 Y21.1554
G01 X12.4871 Y21.0681
G01 X12.4900 Y21.0511
G01 X12.4938 Y21.0344
G01 X12.5152 Y20.9487
G01 X12.5198 Y20.9322
G01 X12.5252 Y20.9158
G01 X12.5550 Y20.8327
G01 X12.5612 Y20.8167
G01 X12.5681 Y20.8010
G01 X12.6059 Y20.7211
G01 X12.6136 Y20.7058
G01 X12.6221 Y20.6908
G01 X12.6675 Y20.6151
G01 X12.6767 Y20.6005
G01 X12.6866 Y20.5865
G01 X12.7392 Y20.5156
G01 X12.7497 Y20.5020
G01 X12.7610 Y20.4890
G01 X12.8203 Y20.4236
G01 X12.8383 Y20.4051
G01 X12.9100 Y20.3400
G01 X12.9230 Y20.3287
G01 X12.9366 Y20.3182
G01 X13.0075 Y20.2656
G01 X13.0215 Y20.2557
G01 X13.0361 Y20.2465
G01 X13.1118 Y20.2011
G01 X13.1268 Y20.1926
G01 X13.1421 Y20.1849
G01 X13.2219 Y20.1471
G01 X13.2376 Y20.1402
G01 X13.2537 Y20.1340
G01 X13.3368 Y20.1042
G01 X13.3531 Y20.0988
G01 X13.3697 Y20.0943
G01 X13.4637 Y20.0708
G01 X13.4891 Y20.0661
G01 X13.5764 Y20.0531
G01 X13.5935 Y20.0510
G01 X13.6106 Y20.0498
G01 X13.6988 Y20.0454
G01 X13.7160 Y20.0450
G01 X13.7332 Y20.0454
G01 X13.8214 Y20.0498
G01 X13.8385 Y20.0510
G01 X13.8556 Y20.0531
G01 X13.9429 Y20.0661
G01 X13.9683 Y20.0708
G01 X14.0623 Y20.0943
G01 X14.0789 Y20.0988
G01 X14.0952 Y20.1042
G01 X14.1783 Y20.1340
G01 X14.1944 Y20.1402
G01 X14.2101 Y20.1471
G01 X14.2899 Y20.1849
G01 X14.3128 Y20.1968
G01 X14.3959 Y20.2465
G01 X14.4105 Y20.2557
G01 X14.4245 Y20.2656
G01 X14.4954 Y20.3182
G01 X14.5090 Y20.3287
G01 X14.5220 Y20.3400
G01 X14.5705 Y20.3839
G01 X14.5893 Y20.3907
G01 X14.6051 Y20.3973
G01 X14.6761 Y20.4309
G01 X14.6987 Y20.4433
G01 X14.7513 Y20.4749
G01 X14.7659 Y20.4841
G01 X14.7799 Y20.4940
G01 X14.8292 Y20.5305
G01 X14.8427 Y20.5411
G01 X14.8557 Y20.5523
G01 X14.9012 Y20.5935
G01 X14.9137 Y20.6054
G01 X18.9777 Y24.6694
G01 X18.9895 Y24.6818
G01 X19.0307 Y24.7273
G01 X19.0473 Y24.7470
G01 X19.0891 Y24.8031
G01 X19.0989 Y24.8172
G01 X19.1081 Y24.8317
G01 X19.1397 Y24.8843
G01 X19.1521 Y24.9069
G01 X19.1857 Y24.9779
G01 X19.1953 Y25.0018
G01 X19.2159 Y25.0596
G01 X19.2213 Y25.0759
G01 X19.2259 Y25.0924
G01 X19.2408 Y25.1520
G01 X19.2446 Y25.1687
G01 X19.2475 Y25.1857
G01 X19.2565 Y25.2464
G01 X19.2586 Y25.2634
G01 X19.2599 Y25.2805
G01 X19.2632 Y25.3504
G01 X19.2633 Y26.2752
G01 X19.2937 Y26.3260
G01 X19.3062 Y26.3485
G01 X19.3435 Y26.4272
G01 X19.3537 Y26.4509
G01 X19.3831 Y26.5329
G01 X19.3885 Y26.5492
G01 X19.3931 Y26.5657
G01 X19.4121 Y26.6419
G01 X19.4175 Y26.6671
G01 X19.4304 Y26.7532
G01 X19.4325 Y26.7703
G01 X19.4337 Y26.7874
G01 X19.4376 Y26.8658
G01 X19.4380 Y26.8830
G01 X19.4376 Y26.9002
G01 X19.4337 Y26.9786
G01 X19.4325 Y26.9957
G01 X19.4304 Y27.0128
G01 X19.4188 Y27.0904
G01 X19.4141 Y27.1158
G01 X19.3909 Y27.2086
G01 X19.3831 Y27.2331
G01 X19.3566 Y27.3071
G01 X19.3505 Y27.3231
G01 X19.3435 Y27.3388
G01 X19.3099 Y27.4098
G01 X19.3022 Y27.4251
G01 X19.2937 Y27.4401
G01 X19.2534 Y27.5074
G01 X19.2442 Y27.5219
G01 X19.2343 Y27.5360
G01 X19.1875 Y27.5990
G01 X19.1770 Y27.6126
G01 X19.1657 Y27.6256
G01 X19.1130 Y27.6837
G01 X19.1012 Y27.6962
G01 X19.0887 Y27.7080
G01 X19.0306 Y27.7608
G01 X19.0176 Y27.7720
G01 X19.0040 Y27.7825
G01 X18.9410 Y27.8293
G01 X18.9269 Y27.8392
G01 X18.9124 Y27.8484
G01 X18.8451 Y27.8888
G01 X18.8301 Y27.8972
G01 X18.8148 Y27.9049
G01 X18.7438 Y27.9385
G01 X18.7281 Y27.9455
G01 X18.7121 Y27.9517
G01 X18.6381 Y27.9781
G01 X18.6218 Y27.9835
G01 X18.6053 Y27.9881
G01 X18.5291 Y28.0071
G01 X18.5124 Y28.0109
G01 X18.4954 Y28.0138
G01 X18.4178 Y28.0254
G01 X18.4007 Y28.0275
G01 X18.3836 Y28.0287
G01 X18.3052 Y28.0326
G01 X18.2880 Y28.0330
G01 X18.2708 Y28.0326
G01 X18.1924 Y28.0287
G01 X18.1753 Y28.0275
G01 X18.1582 Y28.0254
G01 X18.0806 Y28.0138
G01 X18.0636 Y28.0109
G01 X18.0469 Y28.0071
G01 X17.9707 Y27.9881
G01 X17.9542 Y27.9835
G01 X17.9379 Y27.9781
G01 X17.8639 Y27.9517
G01 X17.8479 Y27.9455
G01 X17.8322 Y27.9385
G01 X17.7612 Y27.9049
G01 X17.7459 Y27.8972
G01 X17.7309 Y27.8888
G01 X17.6636 Y27.8484
G01 X17.6491 Y27.8392
G01 X17.6350 Y27.8293
G01 X17.5720 Y27.7825
G01 X17.5584 Y27.7720
G01 X17.5454 Y27.7608
G01 X17.4873 Y27.7080
G01 X17.4748 Y27.6962
G01 X17.4630 Y27.6837
G01 X17.4103 Y27.6256
G01 X17.3990 Y27.6126
G01 X17.3885 Y27.5990
G01 X17.3417 Y27.5360
G01 X17.3318 Y27.5219
G01 X17.3226 Y27.5074
G01 X17.2823 Y27.4401
G01 X17.2738 Y27.4251
G01 X17.2661 Y27.4098
G01 X17.2325 Y27.3388
G01 X17.2255 Y27.3231
G01 X17.2194 Y27.3071
G01 X17.1929 Y27.2331
G01 X17.1875 Y27.2168
G01 X17.1829 Y27.2003
G01 X17.1639 Y27.1241
G01 X17.1601 Y27.1074
G01 X17.1572 Y27.0904
G01 X17.1445 Y27.0043
G01 X17.1423 Y26.9786
G01 X17.1384 Y26.9002
G01 X17.1380 Y26.8830
G01 X17.1384 Y26.8658
G01 X17.1423 Y26.7874
G01 X17.1435 Y26.7703
G01 X17.1456 Y26.7532
G01 X17.1572 Y26.6756
G01 X17.1619 Y26.6503
G01 X17.1829 Y26.5657
G01 X17.1875 Y26.5492
G01 X17.1929 Y26.5329
G01 X17.2194 Y26.4590
G01 X17.2255 Y26.4429
G01 X17.2325 Y26.4272
G01 X17.2661 Y26.3562
G01 X17.2738 Y26.3409
G01 X17.2823 Y26.3260
G01 X17.3127 Y26.2752
G01 X17.3127 Y25.7630
G01 X14.8399 Y23.2902
G01 X14.8639 Y23.3410
G01 X14.8708 Y23.3567
G01 X14.8770 Y23.3727
G01 X14.9096 Y23.4640
G01 X14.9168 Y23.4887
G01 X14.9382 Y23.5744
G01 X14.9436 Y23.5996
G01 X14.9579 Y23.6954
G01 X14.9600 Y23.7125
G01 X14.9612 Y23.7296
G01 X14.9656 Y23.8178
G01 X14.9660 Y23.8350
G01 X14.9656 Y23.8522
G01 X14.9607 Y23.9490
G01 X14.9579 Y23.9746
G01 X14.9449 Y24.0619
G01 X14.9420 Y24.0789
G01 X14.9382 Y24.0956
G01 X14.9168 Y24.1813
G01 X14.9122 Y24.1979
G01 X14.9068 Y24.2142
G01 X14.8770 Y24.2973
G01 X14.8708 Y24.3134
G01 X14.8639 Y24.3291
G01 X14.8261 Y24.4089
G01 X14.8184 Y24.4243
G01 X14.8099 Y24.4392
G01 X14.7600 Y24.5223
G01 X14.7454 Y24.5435
G01 X14.6928 Y24.6145
G01 X14.6823 Y24.6280
G01 X14.6710 Y24.6410
G01 X14.6117 Y24.7065
G01 X14.5999 Y24.7189
G01 X14.5874 Y24.7307
G01 X14.5220 Y24.7901
G01 X14.5090 Y24.8013
G01 X14.4954 Y24.8118
G01 X14.4245 Y24.8645
G01 X14.4105 Y24.8743
G01 X14.3959 Y24.8835
G01 X14.3202 Y24.9289
G01 X14.3052 Y24.9374
G01 X14.2899 Y24.9451
G01 X14.2101 Y24.9829
G01 X14.1944 Y24.9899
G01 X14.1783 Y24.9960
G01 X14.0952 Y25.0258
G01 X14.0789 Y25.0312
G01 X14.0623 Y25.0358
G01 X13.9683 Y25.0592
G01 X13.9429 Y25.0639
G01 X13.8556 Y25.0769
G01 X13.8385 Y25.0790
G01 X13.8214 Y25.0803
G01 X13.7332 Y25.0846
G01 X13.7160 Y25.0850
G01 X13.6988 Y25.0846
G01 X13.6106 Y25.0803
G01 X13.5935 Y25.0790
G01 X13.5764 Y25.0769
G01 X13.4891 Y25.0639
G01 X13.4721 Y25.0610
G01 X13.4554 Y25.0572
G01 X13.3697 Y25.0358
G01 X13.3531 Y25.0312
G01 X13.3368 Y25.0258
G01 X13.2537 Y24.9960
G01 X13.2376 Y24.9899
G01 X13.2219 Y24.9829
G01 X13.1421 Y24.9451
G01 X13.1231 Y24.9354
G01 X5.8558 Y24.9354
G01 X5.8405 Y24.9407
G01 X5.8241 Y24.9457
G01 X5.7349 Y24.9682
G01 X5.7181 Y24.9720
G01 X5.7012 Y24.9749
G01 X5.6187 Y24.9871
G01 X5.5931 Y24.9900
G01 X5.4926 Y24.9949
G01 X5.1840 Y24.9950
G01 X5.1668 Y24.9946
G01 X5.0835 Y24.9905
G01 X5.0664 Y24.9892
G01 X5.0493 Y24.9871
G01 X4.9668 Y24.9749
G01 X4.9499 Y24.9720
G01 X4.9331 Y24.9682
G01 X4.8522 Y24.9479
G01 X4.8357 Y24.9433
G01 X4.8193 Y24.9379
G01 X4.7408 Y24.9098
G01 X4.7248 Y24.9037
G01 X4.7091 Y24.8967
G01 X4.6337 Y24.8610
G01 X4.6108 Y24.8492
G01 X4.5318 Y24.8020
G01 X4.5173 Y24.7928
G01 X4.5033 Y24.7829
G01 X4.4363 Y24.7332
G01 X4.4227 Y24.7226
G01 X4.4097 Y24.7114
G01 X4.3479 Y24.6554
G01 X4.3142 Y24.6248
G01 X4.3019 Y24.6130
G01 X4.2901 Y24.6007
G01 X4.2406 Y24.5461
G01 X4.2294 Y24.5331
G01 X4.2188 Y24.5195
G01 X4.1750 Y24.4604
G01 X4.1651 Y24.4463
G01 X4.1559 Y24.4318
G01 X4.1180 Y24.3687
G01 X4.1096 Y24.3537
G01 X4.1018 Y24.3384
G01 X4.0703 Y24.2718
G01 X4.0634 Y24.2561
G01 X4.0572 Y24.2401
G01 X4.0324 Y24.1707
G01 X4.0270 Y24.1544
G01 X4.0224 Y24.1379
G01 X4.0045 Y24.0664
G01 X4.0008 Y24.0497
G01 X3.9978 Y24.0328
G01 X3.9870 Y23.9599
G01 X3.9849 Y23.9429
G01 X3.9837 Y23.9257
G01 X3.9800 Y23.8522
G01 X3.9797 Y23.8264
G01 X3.9842 Y23.7357
G01 X3.9859 Y23.7186
G01 X3.9881 Y23.7028
G00 Z1.7000
G00 X3.9840 Y31.3587
F60.00
G01 Z-0.2800
F100.00
G01 X3.9840 Y30.8550
G01 X3.9844 Y30.8378
G01 X3.9862 Y30.8048
G01 X3.9878 Y30.7877
G01 X3.9926 Y30.7549
G01 X3.9955 Y30.7380
G01 X3.9993 Y30.7212
G01 X4.0074 Y30.6891
G01 X4.0124 Y30.6727
G01 X4.0265 Y30.6334
G01 X4.0331 Y30.6175
G01 X4.0471 Y30.5875
G01 X4.0548 Y30.5722
G01 X4.0759 Y30.5362
G01 X4.0900 Y30.5146
G01 X4.1148 Y30.4811
G01 X4.1314 Y30.4614
G01 X4.1597 Y30.4307
G01 X4.1904 Y30.4024
G01 X4.2101 Y30.3858
G01 X4.2436 Y30.3610
G01 X4.2652 Y30.3469
G01 X4.3012 Y30.3259
G01 X4.3165 Y30.3181
G01 X4.3465 Y30.3041
G01 X4.3704 Y30.2945
G01 X4.4098 Y30.2808
G01 X4.4502 Y30.2703
G01 X4.4754 Y30.2650
G01 X4.5081 Y30.2600
G01 X4.5252 Y30.2579
G01 X4.5423 Y30.2566
G01 X4.5840 Y30.2550
G01 X6.0840 Y30.2550
G01 X6.1012 Y30.2554
G01 X6.1428 Y30.2579
G01 X6.1599 Y30.2600
G01 X6.1926 Y30.2650
G01 X6.2178 Y30.2703
G01 X6.2582 Y30.2808
G01 X6.2745 Y30.2862
G01 X6.3056 Y30.2975
G01 X6.3293 Y30.3076
G01 X6.3668 Y30.3259
G01 X6.3818 Y30.3343
G01 X6.4150 Y30.3546
G01 X10.2122 Y30.3546
G01 X11.4139 Y29.1529
G01 X11.4264 Y29.1411
G01 X11.4874 Y29.0859
G01 X11.5075 Y29.0698
G01 X11.5666 Y29.0260
G01 X11.5807 Y29.0161
G01 X11.5952 Y29.0069
G01 X11.6583 Y28.9690
G01 X11.6733 Y28.9606
G01 X11.6886 Y28.9528
G01 X11.7552 Y28.9214
G01 X11.7709 Y28.9144
G01 X11.7869 Y28.9082
G01 X11.8563 Y28.8834
G01 X11.8726 Y28.8780
G01 X11.8891 Y28.8734
G01 X11.9606 Y28.8555
G01 X11.9773 Y28.8518
G01 X11.9943 Y28.8488
G01 X12.0671 Y28.8380
G01 X12.0841 Y28.8359
G01 X12.1013 Y28.8347
G01 X12.1748 Y28.8311
G01 X12.1920 Y28.8306
G01 X20.3722 Y28.8306
G01 X28.8716 Y20.3312
G01 X28.8716 Y20.2790
G01 X28.8720 Y20.2618
G01 X28.8757 Y20.1883
G01 X28.8779 Y20.1626
G01 X28.8898 Y20.0813
G01 X28.8928 Y20.0643
G01 X28.8965 Y20.0476
G01 X28.9144 Y19.9761
G01 X28.9190 Y19.9596
G01 X28.9244 Y19.9433
G01 X28.9492 Y19.8739
G01 X28.9588 Y19.8500
G01 X28.9976 Y19.7679
G01 X29.0057 Y19.7528
G01 X29.0300 Y19.7120
G01 X29.0300 Y19.1790
G01 X29.0304 Y19.1618
G01 X29.0317 Y19.1447
G01 X29.0338 Y19.1277
G01 X29.0367 Y19.1107
G01 X29.0427 Y19.0857
G01 X29.0505 Y19.0611
G01 X29.0600 Y19.0372
G01 X29.0713 Y19.0140
G01 X29.0843 Y18.9918
G01 X29.0989 Y18.9705
G01 X29.1150 Y18.9504
G01 X29.1325 Y18.9315
G01 X29.1514 Y18.9140
G01 X29.1647 Y18.9031
G01 X29.1785 Y18.8929
G01 X29.1928 Y18.8833
G01 X29.2075 Y18.8745
G01 X29.2304 Y18.8626
G01 X29.2461 Y18.8557
G01 X29.2621 Y18.8495
G01 X29.2867 Y18.8417
G01 X29.3033 Y18.8375
G01 X29.3202 Y18.8342
G01 X29.3372 Y18.8316
G01 X29.3543 Y18.8300
G01 X29.3800 Y18.8290
G01 X30.3738 Y18.8290
G01 X32.4276 Y16.7752
G01 X32.4276 Y6.0550
G01 X32.4280 Y6.0378
G01 X32.4317 Y5.9643
G01 X32.4329 Y5.9472
G01 X32.4350 Y5.9301
G01 X32.4458 Y5.8573
G01 X32.4505 Y5.8319
G01 X32.4726 Y5.7438
G01 X32.4804 Y5.7193
G01 X32.5052 Y5.6499
G01 X32.5114 Y5.6339
G01 X32.5183 Y5.6182
G01 X32.5498 Y5.5516
G01 X32.5576 Y5.5363
G01 X32.5660 Y5.5213
G01 X32.6039 Y5.4582
G01 X32.6131 Y5.4437
G01 X32.6230 Y5.4296
G01 X32.6668 Y5.3705
G01 X32.6774 Y5.3569
G01 X32.6886 Y5.3439
G01 X32.7381 Y5.2894
G01 X32.7499 Y5.2769
G01 X32.7624 Y5.2651
G01 X32.8169 Y5.2156
G01 X32.8299 Y5.2044
G01 X32.8435 Y5.1938
G01 X32.9026 Y5.1500
G01 X32.9167 Y5.1401
G01 X32.9312 Y5.1309
G01 X32.9943 Y5.0930
G01 X33.0093 Y5.0846
G01 X33.0246 Y5.0768
G01 X33.0912 Y5.0454
G01 X33.1069 Y5.0384
G01 X33.1229 Y5.0322
G01 X33.1923 Y5.0074
G01 X33.2086 Y5.0020
G01 X33.2251 Y4.9974
G01 X33.2966 Y4.9795
G01 X33.3133 Y4.9758
G01 X33.3303 Y4.9728
G01 X33.4031 Y4.9620
G01 X33.4201 Y4.9599
G01 X33.4373 Y4.9587
G01 X33.5108 Y4.9551
G01 X33.5280 Y4.9546
G01 X46.7446 Y4.9547
G01 X46.8353 Y4.9592
G01 X46.8609 Y4.9620
G01 X46.9337 Y4.9728
G01 X46.9507 Y4.9758
G01 X46.9674 Y4.9795
G01 X47.0389 Y4.9974
G01 X47.0554 Y5.0020
G01 X47.0717 Y5.0074
G01 X47.1411 Y5.0322
G01 X47.1571 Y5.0384
G01 X47.1728 Y5.0454
G01 X47.2394 Y5.0768
G01 X47.2547 Y5.0846
G01 X47.2697 Y5.0930
G01 X47.3328 Y5.1309
G01 X47.3473 Y5.1401
G01 X47.3614 Y5.1500
G01 X47.4205 Y5.1938
G01 X47.4341 Y5.2044
G01 X47.4471 Y5.2156
G01 X47.5016 Y5.2651
G01 X47.5141 Y5.2769
G01 X47.5259 Y5.2894
G01 X47.5754 Y5.3439
G01 X47.5866 Y5.3569
G01 X47.5972 Y5.3705
G01 X47.6410 Y5.4296
G01 X47.6509 Y5.4437
G01 X47.6601 Y5.4582
G01 X47.6980 Y5.5213
G01 X47.7064 Y5.5363
G01 X47.7142 Y5.5516
G01 X47.7457 Y5.6182
G01 X47.7526 Y5.6339
G01 X47.7588 Y5.6499
G01 X47.7836 Y5.7193
G01 X47.7890 Y5.7356
G01 X47.7936 Y5.7521
G01 X47.8115 Y5.8236
G01 X47.8152 Y5.8403
G01 X47.8182 Y5.8573
G01 X47.8290 Y5.9301
G01 X47.8311 Y5.9472
G01 X47.8323 Y5.9643
G01 X47.8360 Y6.0378
G01 X47.8364 Y6.0550
G01 X47.8364 Y9.1333
G01 X47.8447 Y9.1518
G01 X47.8508 Y9.1678
G01 X47.8789 Y9.2464
G01 X47.8867 Y9.2709
G01 X47.9092 Y9.3601
G01 X47.9129 Y9.3769
G01 X47.9159 Y9.3938
G01 X47.9293 Y9.4849
G01 X47.9315 Y9.5105
G01 X47.9356 Y9.5938
G01 X47.9360 Y9.6110
G01 X47.9356 Y9.6282
G01 X47.9315 Y9.7115
G01 X47.9302 Y9.7286
G01 X47.9281 Y9.7457
G01 X47.9159 Y9.8282
G01 X47.9112 Y9.8535
G01 X47.8889 Y9.9428
G01 X47.8843 Y9.9594
G01 X47.8789 Y9.9757
G01 X47.8508 Y10.0542
G01 X47.8447 Y10.0702
G01 X47.8377 Y10.0859
G01 X47.8020 Y10.1613
G01 X47.7943 Y10.1767
G01 X47.7858 Y10.1916
G01 X47.7430 Y10.2632
G01 X47.7338 Y10.2777
G01 X47.7239 Y10.2917
G01 X47.6742 Y10.3587
G01 X47.6636 Y10.3723
G01 X47.6524 Y10.3853
G01 X47.5905 Y10.4534
G01 X47.5721 Y10.4714
G01 X47.5103 Y10.5274
G01 X47.4973 Y10.5386
G01 X47.4837 Y10.5492
G01 X47.4167 Y10.5989
G01 X47.4027 Y10.6088
G01 X47.3882 Y10.6180
G01 X47.3166 Y10.6608
G01 X47.3017 Y10.6693
G01 X47.2863 Y10.6770
G01 X47.2109 Y10.7127
G01 X47.1872 Y10.7229
G01 X47.1007 Y10.7539
G01 X47.0843 Y10.7593
G01 X47.0678 Y10.7639
G01 X46.9869 Y10.7842
G01 X46.9701 Y10.7880
G01 X46.9532 Y10.7909
G01 X46.8622 Y10.8043
G01 X46.8365 Y10.8065
G01 X46.7532 Y10.8106
G01 X46.7360 Y10.8110
G01 X46.7188 Y10.8106
G01 X46.6355 Y10.8065
G01 X46.6184 Y10.8052
G01 X46.6013 Y10.8031
G01 X46.5103 Y10.7895
G01 X46.4851 Y10.7842
G01 X46.4042 Y10.7639
G01 X46.3877 Y10.7593
G01 X46.3713 Y10.7539
G01 X46.2928 Y10.7258
G01 X46.2768 Y10.7197
G01 X46.2611 Y10.7127
G01 X46.1857 Y10.6770
G01 X46.1703 Y10.6693
G01 X46.1554 Y10.6608
G01 X46.0838 Y10.6180
G01 X46.0693 Y10.6088
G01 X46.0553 Y10.5989
G01 X45.9883 Y10.5492
G01 X45.9747 Y10.5386
G01 X45.9617 Y10.5274
G01 X45.8999 Y10.4714
G01 X45.8815 Y10.4534
G01 X45.8196 Y10.3853
G01 X45.8084 Y10.3723
G01 X45.7978 Y10.3587
G01 X45.7481 Y10.2917
G01 X45.7382 Y10.2777
G01 X45.7290 Y10.2632
G01 X45.6862 Y10.1916
G01 X45.6777 Y10.1767
G01 X45.6700 Y10.1613
G01 X45.6343 Y10.0859
G01 X45.6273 Y10.0702
G01 X45.6212 Y10.0542
G01 X45.5903 Y9.9675
G01 X45.5831 Y9.9428
G01 X45.5628 Y9.8619
G01 X45.5591 Y9.8451
G01 X45.5561 Y9.8282
G01 X45.5439 Y9.7457
G01 X45.5418 Y9.7286
G01 X45.5405 Y9.7115
G01 X45.5364 Y9.6282
G01 X45.5361 Y9.6024
G01 X45.5405 Y9.5105
G01 X45.5418 Y9.4934
G01 X45.5439 Y9.4763
G01 X45.5561 Y9.3938
G01 X45.5608 Y9.3685
G01 X45.5831 Y9.2792
G01 X45.5903 Y9.2545
G01 X45.6242 Y9.1598
G01 X45.6307 Y9.1439
G01 X45.6356 Y9.1333
G01 X45.6356 Y7.1554
G01 X34.6284 Y7.1554
G01 X34.6283 Y17.2396
G01 X34.6243 Y17.3217
G01 X34.6231 Y17.3389
G01 X34.6210 Y17.3559
G01 X34.6102 Y17.4288
G01 X34.6072 Y17.4457
G01 X34.6035 Y17.4624
G01 X34.5856 Y17.5339
G01 X34.5810 Y17.5504
G01 X34.5756 Y17.5667
G01 X34.5508 Y17.6361
G01 X34.5446 Y17.6521
G01 X34.5377 Y17.6678
G01 X34.5062 Y17.7344
G01 X34.4984 Y17.7497
G01 X34.4900 Y17.7647
G01 X34.4521 Y17.8278
G01 X34.4429 Y17.8423
G01 X34.4330 Y17.8564
G01 X34.3892 Y17.9155
G01 X34.3786 Y17.9291
G01 X34.3674 Y17.9421
G01 X34.3179 Y17.9967
G01 X34.3061 Y18.0091
G01 X31.9300 Y20.3852
G01 X31.9300 Y21.3790
G01 X31.9291 Y21.4048
G01 X31.9262 Y21.4304
G01 X31.9233 Y21.4473
G01 X31.9195 Y21.4641
G01 X31.9149 Y21.4806
G01 X31.9095 Y21.4969
G01 X31.9034 Y21.5129
G01 X31.8964 Y21.5287
G01 X31.8887 Y21.5440
G01 X31.8802 Y21.5589
G01 X31.8662 Y21.5805
G01 X31.8559 Y21.5943
G01 X31.8450 Y21.6076
G01 X31.8275 Y21.6265
G01 X31.8150 Y21.6383
G01 X31.8020 Y21.6496
G01 X31.7815 Y21.6652
G01 X31.7672 Y21.6747
G01 X31.7525 Y21.6835
G01 X31.7296 Y21.6954
G01 X31.7139 Y21.7024
G01 X31.6979 Y21.7086
G01 X31.6816 Y21.7139
G01 X31.6650 Y21.7185
G01 X31.6398 Y21.7239
G01 X31.6228 Y21.7264
G01 X31.6057 Y21.7281
G01 X31.5800 Y21.7290
G01 X30.5862 Y21.7290
G01 X21.6061 Y30.7091
G01 X21.5936 Y30.7209
G01 X21.5391 Y30.7704
G01 X21.5261 Y30.7816
G01 X21.5125 Y30.7922
G01 X21.4534 Y30.8360
G01 X21.4321 Y30.8506
G01 X21.3617 Y30.8930
G01 X21.3467 Y30.9015
G01 X21.3314 Y30.9092
G01 X21.2648 Y30.9407
G01 X21.2491 Y30.9476
G01 X21.2331 Y30.9538
G01 X21.1637 Y30.9786
G01 X21.1474 Y30.9840
G01 X21.1309 Y30.9886
G01 X21.0594 Y31.0065
G01 X21.0427 Y31.0102
G01 X21.0257 Y31.0132
G01 X20.9529 Y31.0240
G01 X20.9359 Y31.0261
G01 X20.9187 Y31.0274
G01 X20.8366 Y31.0313
G01 X12.6478 Y31.0314
G01 X11.7684 Y31.9108
G01 X11.7684 Y41.1070
G01 X11.7680 Y41.1242
G01 X11.7643 Y41.1977
G01 X11.7631 Y41.2149
G01 X11.7610 Y41.2319
G01 X11.7502 Y41.3048
G01 X11.7472 Y41.3217
G01 X11.7435 Y41.3384
G01 X11.7256 Y41.4099
G01 X11.7210 Y41.4264
G01 X11.7156 Y41.4427
G01 X11.6908 Y41.5121
G01 X11.6846 Y41.5281
G01 X11.6777 Y41.5438
G01 X11.6462 Y41.6104
G01 X11.6343 Y41.6332
G01 X11.5876 Y41.7111
G01 X11.5730 Y41.7324
G01 X11.5292 Y41.7915
G01 X11.5186 Y41.8051
G01 X11.5074 Y41.8181
G01 X11.4579 Y41.8727
G01 X11.4461 Y41.8851
G01 X11.4336 Y41.8969
G01 X11.3726 Y41.9521
G01 X11.3525 Y41.9682
G01 X11.2934 Y42.0120
G01 X11.2793 Y42.0219
G01 X11.2648 Y42.0311
G01 X11.2017 Y42.0690
G01 X11.1867 Y42.0775
G01 X11.1714 Y42.0852
G01 X11.1048 Y42.1167
G01 X11.0891 Y42.1236
G01 X11.0731 Y42.1298
G01 X11.0037 Y42.1546
G01 X10.9874 Y42.1600
G01 X10.9709 Y42.1646
G01 X10.8994 Y42.1825
G01 X10.8827 Y42.1862
G01 X10.8657 Y42.1892
G01 X10.7929 Y42.2000
G01 X10.7673 Y42.2028
G01 X10.6766 Y42.2073
G01 X6.6840 Y42.2074
G01 X6.6836 Y42.2322
G01 X6.6818 Y42.2653
G01 X6.6802 Y42.2824
G01 X6.6740 Y42.3236
G01 X6.6707 Y42.3405
G01 X6.6606 Y42.3809
G01 X6.6556 Y42.3974
G01 X6.6415 Y42.4366
G01 X6.6349 Y42.4525
G01 X6.6171 Y42.4902
G01 X6.6090 Y42.5054
G01 X6.5876 Y42.5412
G01 X6.5780 Y42.5554
G01 X6.5532 Y42.5889
G01 X6.5423 Y42.6022
G01 X6.5201 Y42.6268
G01 X6.5021 Y42.6453
G01 X6.4712 Y42.6733
G01 X6.4579 Y42.6842
G01 X6.4314 Y42.7040
G01 X6.4173 Y42.7139
G01 X6.4028 Y42.7231
G01 X6.3744 Y42.7400
G01 X6.3515 Y42.7519
G01 X6.3215 Y42.7660
G01 X6.3056 Y42.7725
G01 X6.2664 Y42.7866
G01 X6.2499 Y42.7916
G01 X6.2095 Y42.8017
G01 X6.1926 Y42.8051
G01 X6.1513 Y42.8112
G01 X6.1343 Y42.8129
G01 X6.1012 Y42.8146
G01 X6.0840 Y42.8150
G01 X4.5840 Y42.8150
G01 X4.5423 Y42.8134
G01 X4.5167 Y42.8112
G01 X4.4754 Y42.8051
G01 X4.4585 Y42.8017
G01 X4.4181 Y42.7916
G01 X4.3935 Y42.7838
G01 X4.3624 Y42.7725
G01 X4.3387 Y42.7624
G01 X4.3012 Y42.7442
G01 X4.2652 Y42.7231
G01 X4.2436 Y42.7090
G01 X4.2101 Y42.6842
G01 X4.1968 Y42.6733
G01 X4.1659 Y42.6453
G01 X4.1479 Y42.6268
G01 X4.1202 Y42.5956
G01 X4.0950 Y42.5624
G01 X4.0851 Y42.5484
G01 X4.0759 Y42.5338
G01 X4.0590 Y42.5054
G01 X4.0471 Y42.4825
G01 X4.0297 Y42.4446
G01 X4.0235 Y42.4286
G01 X4.0124 Y42.3974
G01 X4.0053 Y42.3726
G01 X3.9955 Y42.3321
G01 X3.9926 Y42.3151
G01 X3.9878 Y42.2824
G01 X3.9856 Y42.2567
G01 X3.9840 Y42.2150
G01 X3.9840 Y41.0150
G01 X3.9856 Y40.9733
G01 X3.9878 Y40.9477
G01 X3.9940 Y40.9064
G01 X3.9993 Y40.8812
G01 X4.0098 Y40.8408
G01 X4.0152 Y40.8245
G01 X4.0265 Y40.7934
G01 X4.0366 Y40.7697
G01 X4.0548 Y40.7322
G01 X4.0633 Y40.7172
G01 X4.0804 Y40.6889
G01 X4.0950 Y40.6676
G01 X4.1202 Y40.6344
G01 X4.1314 Y40.6214
G01 X4.1537 Y40.5969
G01 X4.1722 Y40.5789
G01 X4.2034 Y40.5512
G01 X4.2366 Y40.5260
G01 X4.2579 Y40.5114
G01 X4.2862 Y40.4943
G01 X4.3012 Y40.4859
G01 X4.3387 Y40.4676
G01 X4.3624 Y40.4575
G01 X4.4016 Y40.4434
G01 X4.4181 Y40.4385
G01 X4.4502 Y40.4303
G01 X4.4754 Y40.4250
G01 X4.5081 Y40.4200
G01 X4.5252 Y40.4179
G01 X4.5423 Y40.4166
G01 X4.5840 Y40.4150
G01 X5.2318 Y40.4150
G01 X5.3241 Y40.3229
G01 X5.3849 Y40.2676
G01 X5.3979 Y40.2564
G01 X5.4115 Y40.2458
G01 X5.4706 Y40.2020
G01 X5.4847 Y40.1921
G01 X5.4992 Y40.1829
G01 X5.5623 Y40.1450
G01 X5.5773 Y40.1366
G01 X5.5926 Y40.1288
G01 X5.6592 Y40.0974
G01 X5.6749 Y40.0904
G01 X5.6909 Y40.0842
G01 X5.7603 Y40.0594
G01 X5.7766 Y40.0540
G01 X5.7931 Y40.0494
G01 X5.8646 Y40.0315
G01 X5.8813 Y40.0278
G01 X5.8983 Y40.0248
G01 X5.9711 Y40.0140
G01 X5.9881 Y40.0119
G01 X6.0053 Y40.0107
G01 X6.0788 Y40.0071
G01 X6.0960 Y40.0066
G01 X9.5676 Y40.0066
G01 X9.5676 Y32.5554
G01 X6.4150 Y32.5554
G01 X6.3818 Y32.5757
G01 X6.3668 Y32.5842
G01 X6.3293 Y32.6024
G01 X6.3056 Y32.6125
G01 X6.2745 Y32.6238
G01 X6.2582 Y32.6292
G01 X6.2178 Y32.6397
G01 X6.1926 Y32.6451
G01 X6.1599 Y32.6500
G01 X6.1428 Y32.6521
G01 X6.1012 Y32.6546
G01 X6.0840 Y32.6550
G01 X4.5840 Y32.6550
G01 X4.5423 Y32.6534
G01 X4.5252 Y32.6521
G01 X4.4839 Y32.6464
G01 X4.4585 Y32.6417
G01 X4.4264 Y32.6338
G01 X4.4098 Y32.6292
G01 X4.3704 Y32.6155
G01 X4.3465 Y32.6060
G01 X4.3088 Y32.5881
G01 X4.2862 Y32.5757
G01 X4.2507 Y32.5539
G01 X4.2169 Y32.5294
G01 X4.1968 Y32.5133
G01 X4.1659 Y32.4853
G01 X4.1479 Y32.4668
G01 X4.1202 Y32.4356
G01 X4.1096 Y32.4221
G01 X4.0900 Y32.3954
G01 X4.0759 Y32.3738
G01 X4.0548 Y32.3378
G01 X4.0471 Y32.3225
G01 X4.0331 Y32.2925
G01 X4.0235 Y32.2686
G01 X4.0124 Y32.2374
G01 X4.0074 Y32.2209
G01 X3.9993 Y32.1888
G01 X3.9955 Y32.1721
G01 X3.9926 Y32.1551
G01 X3.9878 Y32.1224
G01 X3.9862 Y32.1053
G01 X3.9844 Y32.0722
G01 X3.9840 Y32.0550
G01 X3.9840 Y31.5513
G01 X3.9800 Y31.4722
G01 X3.9796 Y31.4550
G01 X3.9800 Y31.4378
G01 X3.9840 Y31.3587
G00 Z1.7000
G00 X17.3127 Y37.6508
F60.00
G01 Z-0.2800
F100.00
G01 X17.2823 Y37.6001
G01 X17.2698 Y37.5775
G01 X17.2325 Y37.4988
G01 X17.2223 Y37.4751
G01 X17.1929 Y37.3931
G01 X17.1875 Y37.3768
G01 X17.1829 Y37.3603
G01 X17.1639 Y37.2841
G01 X17.1585 Y37.2589
G01 X17.1456 Y37.1728
G01 X17.1435 Y37.1557
G01 X17.1423 Y37.1386
G01 X17.1384 Y37.0602
G01 X17.1380 Y37.0430
G01 X17.1384 Y37.0258
G01 X17.1423 Y36.9474
G01 X17.1435 Y36.9303
G01 X17.1456 Y36.9132
G01 X17.1572 Y36.8356
G01 X17.1619 Y36.8103
G01 X17.1829 Y36.7257
G01 X17.1875 Y36.7092
G01 X17.1929 Y36.6929
G01 X17.2194 Y36.6190
G01 X17.2255 Y36.6029
G01 X17.2325 Y36.5872
G01 X17.2661 Y36.5162
G01 X17.2738 Y36.5009
G01 X17.2823 Y36.4860
G01 X17.3226 Y36.4186
G01 X17.3318 Y36.4041
G01 X17.3417 Y36.3901
G01 X17.3885 Y36.3270
G01 X17.3990 Y36.3135
G01 X17.4103 Y36.3004
G01 X17.4630 Y36.2423
G01 X17.4748 Y36.2298
G01 X17.4873 Y36.2180
G01 X17.5454 Y36.1653
G01 X17.5584 Y36.1540
G01 X17.5720 Y36.1435
G01 X17.6350 Y36.0967
G01 X17.6563 Y36.0821
G01 X17.7309 Y36.0373
G01 X17.7459 Y36.0288
G01 X17.7612 Y36.0211
G01 X17.8322 Y35.9875
G01 X17.8479 Y35.9805
G01 X17.8639 Y35.9744
G01 X17.9379 Y35.9479
G01 X17.9542 Y35.9425
G01 X17.9707 Y35.9379
G01 X18.0469 Y35.9189
G01 X18.0636 Y35.9151
G01 X18.0806 Y35.9122
G01 X18.1582 Y35.9007
G01 X18.1753 Y35.8985
G01 X18.1924 Y35.8973
G01 X18.2708 Y35.8934
G01 X18.2880 Y35.8930
G01 X18.3052 Y35.8934
G01 X18.3836 Y35.8973
G01 X18.4007 Y35.8985
G01 X18.4178 Y35.9007
G01 X18.4954 Y35.9122
G01 X18.5124 Y35.9151
G01 X18.5291 Y35.9189
G01 X18.6053 Y35.9379
G01 X18.6218 Y35.9425
G01 X18.6381 Y35.9479
G01 X18.7121 Y35.9744
G01 X18.7281 Y35.9805
G01 X18.7438 Y35.9875
G01 X18.8148 Y36.0211
G01 X18.8301 Y36.0288
G01 X18.8451 Y36.0373
G01 X18.9124 Y36.0776
G01 X18.9269 Y36.0868
G01 X18.9410 Y36.0967
G01 X19.0040 Y36.1435
G01 X19.0176 Y36.1540
G01 X19.0306 Y36.1653
G01 X19.0887 Y36.2180
G01 X19.1012 Y36.2298
G01 X19.1130 Y36.2423
G01 X19.1657 Y36.3004
G01 X19.1770 Y36.3135
G01 X19.1875 Y36.3270
G01 X19.2343 Y36.3901
G01 X19.2489 Y36.4113
G01 X19.2937 Y36.4860
G01 X19.3022 Y36.5009
G01 X19.3099 Y36.5162
G01 X19.3435 Y36.5872
G01 X19.3505 Y36.6029
G01 X19.3566 Y36.6190
G01 X19.3831 Y36.6929
G01 X19.3885 Y36.7092
G01 X19.3931 Y36.7257
G01 X19.4121 Y36.8019
G01 X19.4159 Y36.8187
G01 X19.4188 Y36.8356
G01 X19.4304 Y36.9132
G01 X19.4325 Y36.9303
G01 X19.4337 Y36.9474
G01 X19.4376 Y37.0258
G01 X19.4380 Y37.0430
G01 X19.4376 Y37.0602
G01 X19.4337 Y37.1386
G01 X19.4325 Y37.1557
G01 X19.4304 Y37.1728
G01 X19.4188 Y37.2504
G01 X19.4159 Y37.2674
G01 X19.4121 Y37.2841
G01 X19.3909 Y37.3686
G01 X19.3831 Y37.3931
G01 X19.3566 Y37.4671
G01 X19.3471 Y37.4910
G01 X19.3099 Y37.5698
G01 X19.3022 Y37.5851
G01 X19.2937 Y37.6001
G01 X19.2633 Y37.6508
G01 X19.2633 Y49.8470
G01 X25.8040 Y56.3877
G01 X40.2360 Y56.3877
G01 X41.9885 Y54.6354
G01 X42.0467 Y54.5826
G01 X42.0668 Y54.5665
G01 X42.1161 Y54.5300
G01 X42.1301 Y54.5201
G01 X42.1447 Y54.5109
G01 X42.2047 Y54.4750
G01 X42.2276 Y54.4631
G01 X42.2831 Y54.4369
G01 X42.2988 Y54.4299
G01 X42.3148 Y54.4238
G01 X42.3726 Y54.4031
G01 X42.3889 Y54.3977
G01 X42.4054 Y54.3931
G01 X42.4650 Y54.3782
G01 X42.4817 Y54.3744
G01 X42.4987 Y54.3715
G01 X42.5594 Y54.3625
G01 X42.5764 Y54.3604
G01 X42.5935 Y54.3591
G01 X42.6548 Y54.3561
G01 X42.6720 Y54.3557
G01 X43.4983 Y54.3557
G01 X43.5222 Y54.3381
G01 X43.5365 Y54.3286
G01 X43.6154 Y54.2812
G01 X43.6379 Y54.2687
G01 X43.7211 Y54.2293
G01 X43.7368 Y54.2224
G01 X43.7528 Y54.2162
G01 X43.8395 Y54.1853
G01 X43.8642 Y54.1781
G01 X43.9451 Y54.1578
G01 X43.9619 Y54.1541
G01 X43.9788 Y54.1511
G01 X44.0613 Y54.1389
G01 X44.0784 Y54.1368
G01 X44.0955 Y54.1355
G01 X44.1874 Y54.1311
G01 X44.2132 Y54.1314
G01 X44.2965 Y54.1355
G01 X44.3136 Y54.1368
G01 X44.3307 Y54.1389
G01 X44.4132 Y54.1511
G01 X44.4301 Y54.1541
G01 X44.4469 Y54.1578
G01 X44.5278 Y54.1781
G01 X44.5443 Y54.1827
G01 X44.5607 Y54.1881
G01 X44.6392 Y54.2162
G01 X44.6552 Y54.2224
G01 X44.6709 Y54.2293
G01 X44.7463 Y54.2650
G01 X44.7617 Y54.2727
G01 X44.7766 Y54.2812
G01 X44.8482 Y54.3241
G01 X44.8627 Y54.3332
G01 X44.8767 Y54.3431
G01 X44.9437 Y54.3928
G01 X44.9573 Y54.4034
G01 X44.9703 Y54.4146
G01 X45.0321 Y54.4706
G01 X45.0445 Y54.4825
G01 X45.0564 Y54.4949
G01 X45.1124 Y54.5567
G01 X45.1236 Y54.5697
G01 X45.1342 Y54.5833
G01 X45.1839 Y54.6503
G01 X45.1938 Y54.6643
G01 X45.2030 Y54.6788
G01 X45.2458 Y54.7504
G01 X45.2543 Y54.7653
G01 X45.2620 Y54.7807
G01 X45.2977 Y54.8561
G01 X45.3047 Y54.8718
G01 X45.3108 Y54.8878
G01 X45.3389 Y54.9664
G01 X45.3443 Y54.9827
G01 X45.3489 Y54.9992
G01 X45.3692 Y55.0801
G01 X45.3729 Y55.0969
G01 X45.3759 Y55.1138
G01 X45.3881 Y55.1963
G01 X45.3902 Y55.2134
G01 X45.3915 Y55.2305
G01 X45.3956 Y55.3138
G01 X45.3960 Y55.3310
G01 X45.3956 Y55.3482
G01 X45.3915 Y55.4315
G01 X45.3902 Y55.4486
G01 X45.3881 Y55.4657
G01 X45.3759 Y55.5482
G01 X45.3729 Y55.5651
G01 X45.3692 Y55.5819
G01 X45.3489 Y55.6628
G01 X45.3443 Y55.6794
G01 X45.3389 Y55.6957
G01 X45.3108 Y55.7742
G01 X45.3047 Y55.7902
G01 X45.2977 Y55.8059
G01 X45.2620 Y55.8813
G01 X45.2543 Y55.8967
G01 X45.2458 Y55.9116
G01 X45.2030 Y55.9832
G01 X45.1938 Y55.9977
G01 X45.1839 Y56.0117
G01 X45.1342 Y56.0787
G01 X45.1236 Y56.0923
G01 X45.1124 Y56.1053
G01 X45.0564 Y56.1671
G01 X45.0445 Y56.1795
G01 X45.0321 Y56.1914
G01 X44.9703 Y56.2474
G01 X44.9573 Y56.2586
G01 X44.9437 Y56.2692
G01 X44.8767 Y56.3189
G01 X44.8627 Y56.3288
G01 X44.8482 Y56.3380
G01 X44.7692 Y56.3852
G01 X44.7463 Y56.3970
G01 X44.6709 Y56.4327
G01 X44.6552 Y56.4397
G01 X44.6392 Y56.4458
G01 X44.5607 Y56.4739
G01 X44.5361 Y56.4817
G01 X44.4385 Y56.5062
G01 X44.4132 Y56.5109
G01 X44.3307 Y56.5231
G01 X44.3136 Y56.5252
G01 X44.2965 Y56.5265
G01 X44.2132 Y56.5306
G01 X44.1960 Y56.5310
G01 X44.1788 Y56.5306
G01 X44.0869 Y56.5260
G01 X44.0613 Y56.5231
G01 X43.9788 Y56.5109
G01 X43.9619 Y56.5080
G01 X43.9451 Y56.5042
G01 X43.8642 Y56.4839
G01 X43.8395 Y56.4767
G01 X43.7448 Y56.4429
G01 X43.7211 Y56.4327
G01 X43.6457 Y56.3970
G01 X43.6228 Y56.3852
G01 X43.5438 Y56.3380
G01 X43.5222 Y56.3239
G01 X43.4983 Y56.3063
G01 X43.0760 Y56.3063
G01 X41.3297 Y58.0527
G01 X41.3172 Y58.0645
G01 X41.2653 Y58.1114
G01 X41.2452 Y58.1275
G01 X41.1959 Y58.1641
G01 X41.1819 Y58.1740
G01 X41.1673 Y58.1831
G01 X41.1147 Y58.2147
G01 X41.0998 Y58.2232
G01 X41.0844 Y58.2309
G01 X41.0289 Y58.2571
G01 X41.0132 Y58.2641
G01 X40.9972 Y58.2703
G01 X40.9394 Y58.2909
G01 X40.9231 Y58.2963
G01 X40.9066 Y58.3009
G01 X40.8470 Y58.3158
G01 X40.8303 Y58.3196
G01 X40.8133 Y58.3225
G01 X40.7526 Y58.3315
G01 X40.7356 Y58.3336
G01 X40.7185 Y58.3349
G01 X40.6572 Y58.3379
G01 X40.6400 Y58.3383
G01 X25.4000 Y58.3383
G01 X25.3828 Y58.3379
G01 X25.3215 Y58.3349
G01 X25.3044 Y58.3336
G01 X25.2874 Y58.3315
G01 X25.2267 Y58.3225
G01 X25.2097 Y58.3196
G01 X25.1930 Y58.3158
G01 X25.1334 Y58.3009
G01 X25.1169 Y58.2963
G01 X25.1006 Y58.2909
G01 X25.0428 Y58.2703
G01 X25.0268 Y58.2641
G01 X25.0111 Y58.2571
G01 X24.9556 Y58.2309
G01 X24.9402 Y58.2232
G01 X24.9253 Y58.2147
G01 X24.8727 Y58.1831
G01 X24.8581 Y58.1740
G01 X24.8441 Y58.1641
G01 X24.7948 Y58.1275
G01 X24.7813 Y58.1169
G01 X24.7683 Y58.1057
G01 X24.7228 Y58.0645
G01 X24.7103 Y58.0527
G01 X17.5983 Y50.9407
G01 X17.5865 Y50.9282
G01 X17.5453 Y50.8827
G01 X17.5341 Y50.8697
G01 X17.5235 Y50.8562
G01 X17.4869 Y50.8069
G01 X17.4771 Y50.7929
G01 X17.4679 Y50.7784
G01 X17.4363 Y50.7257
G01 X17.4279 Y50.7108
G01 X17.4201 Y50.6954
G01 X17.3939 Y50.6400
G01 X17.3869 Y50.6242
G01 X17.3807 Y50.6082
G01 X17.3601 Y50.5504
G01 X17.3547 Y50.5341
G01 X17.3501 Y50.5176
G01 X17.3352 Y50.4580
G01 X17.3314 Y50.4413
G01 X17.3285 Y50.4244
G01 X17.3195 Y50.3637
G01 X17.3174 Y50.3466
G01 X17.3161 Y50.3295
G01 X17.3131 Y50.2682
G01 X17.3127 Y50.2510
G01 X17.3127 Y37.6508
G00 Z1.7000
G00 X32.4838 Y39.6664
F60.00
G01 Z-0.2800
F100.00
G01 X32.4632 Y39.6757
G01 X32.4472 Y39.6818
G01 X32.3605 Y39.7127
G01 X32.3358 Y39.7199
G01 X32.2549 Y39.7402
G01 X32.2297 Y39.7455
G01 X32.1302 Y39.7603
G01 X32.1045 Y39.7625
G01 X32.0212 Y39.7666
G01 X32.0040 Y39.7670
G01 X31.9868 Y39.7666
G01 X31.9035 Y39.7625
G01 X31.8778 Y39.7603
G01 X31.7868 Y39.7469
G01 X31.7699 Y39.7440
G01 X31.7531 Y39.7402
G01 X31.6722 Y39.7199
G01 X31.6557 Y39.7153
G01 X31.6393 Y39.7099
G01 X31.5608 Y39.6818
G01 X31.5448 Y39.6757
G01 X31.5291 Y39.6687
G01 X31.4537 Y39.6330
G01 X31.4383 Y39.6253
G01 X31.4234 Y39.6168
G01 X31.3518 Y39.5740
G01 X31.3373 Y39.5648
G01 X31.3233 Y39.5549
G01 X31.2563 Y39.5052
G01 X31.2427 Y39.4946
G01 X31.2297 Y39.4834
G01 X31.1679 Y39.4274
G01 X31.1555 Y39.4155
G01 X31.1436 Y39.4031
G01 X31.0876 Y39.3413
G01 X31.0764 Y39.3283
G01 X31.0658 Y39.3147
G01 X31.0161 Y39.2477
G01 X31.0062 Y39.2337
G01 X30.9970 Y39.2192
G01 X30.9542 Y39.1476
G01 X30.9457 Y39.1327
G01 X30.9380 Y39.1173
G01 X30.9023 Y39.0419
G01 X30.8953 Y39.0262
G01 X30.8892 Y39.0102
G01 X30.8611 Y38.9317
G01 X30.8557 Y38.9154
G01 X30.8511 Y38.8988
G01 X30.8308 Y38.8179
G01 X30.8271 Y38.8011
G01 X30.8241 Y38.7842
G01 X30.8119 Y38.7017
G01 X30.8098 Y38.6846
G01 X30.8085 Y38.6675
G01 X30.8044 Y38.5842
G01 X30.8040 Y38.5670
G01 X30.8044 Y38.5498
G01 X30.8085 Y38.4665
G01 X30.8098 Y38.4494
G01 X30.8119 Y38.4323
G01 X30.8241 Y38.3498
G01 X30.8271 Y38.3329
G01 X30.8308 Y38.3161
G01 X30.8511 Y38.2352
G01 X30.8583 Y38.2105
G01 X30.8922 Y38.1158
G01 X30.9023 Y38.0921
G01 X30.9380 Y38.0167
G01 X30.9498 Y37.9938
G01 X30.9970 Y37.9148
G01 X31.0062 Y37.9003
G01 X31.0161 Y37.8863
G01 X31.0658 Y37.8193
G01 X31.0764 Y37.8057
G01 X31.0876 Y37.7927
G01 X31.1436 Y37.7309
G01 X31.1555 Y37.7185
G01 X31.1679 Y37.7066
G01 X31.2297 Y37.6506
G01 X31.2427 Y37.6394
G01 X31.2563 Y37.6288
G01 X31.3233 Y37.5791
G01 X31.3445 Y37.5646
G01 X31.4234 Y37.5172
G01 X31.4383 Y37.5087
G01 X31.4537 Y37.5010
G01 X31.5291 Y37.4653
G01 X31.5448 Y37.4584
G01 X31.5608 Y37.4522
G01 X31.6393 Y37.4241
G01 X31.6557 Y37.4187
G01 X31.6722 Y37.4141
G01 X31.7531 Y37.3938
G01 X31.7699 Y37.3901
G01 X31.7868 Y37.3871
G01 X31.8693 Y37.3749
G01 X31.8864 Y37.3728
G01 X31.9035 Y37.3715
G01 X31.9954 Y37.3671
G01 X32.0212 Y37.3674
G01 X32.1045 Y37.3715
G01 X32.1216 Y37.3728
G01 X32.1387 Y37.3749
G01 X32.2212 Y37.3871
G01 X32.2381 Y37.3901
G01 X32.2549 Y37.3938
G01 X32.3358 Y37.4141
G01 X32.3523 Y37.4187
G01 X32.3687 Y37.4241
G01 X32.4552 Y37.4552
G01 X32.4711 Y37.4617
G01 X32.4838 Y37.4676
G01 X32.5120 Y37.4666
G01 X34.0663 Y37.4666
G01 X34.0848 Y37.4584
G01 X34.1008 Y37.4522
G01 X34.1793 Y37.4241
G01 X34.1957 Y37.4187
G01 X34.2122 Y37.4141
G01 X34.2931 Y37.3938
G01 X34.3099 Y37.3901
G01 X34.3268 Y37.3871
G01 X34.4093 Y37.3749
G01 X34.4264 Y37.3728
G01 X34.4435 Y37.3715
G01 X34.5268 Y37.3674
G01 X34.5440 Y37.3670
G01 X34.5612 Y37.3674
G01 X34.6445 Y37.3715
G01 X34.6616 Y37.3728
G01 X34.6787 Y37.3749
G01 X34.7612 Y37.3871
G01 X34.7781 Y37.3901
G01 X34.7949 Y37.3938
G01 X34.8758 Y37.4141
G01 X34.8923 Y37.4187
G01 X34.9087 Y37.4241
G01 X34.9872 Y37.4522
G01 X35.0032 Y37.4584
G01 X35.0217 Y37.4666
G01 X35.2811 Y37.4666
G01 X40.9663 Y31.7814
G01 X40.9788 Y31.7695
G01 X41.0243 Y31.7283
G01 X41.0373 Y31.7171
G01 X41.0508 Y31.7065
G01 X41.1001 Y31.6700
G01 X41.1141 Y31.6601
G01 X41.1287 Y31.6509
G01 X41.1813 Y31.6193
G01 X41.1962 Y31.6109
G01 X41.2116 Y31.6031
G01 X41.2671 Y31.5769
G01 X41.2828 Y31.5699
G01 X41.2988 Y31.5638
G01 X41.3566 Y31.5431
G01 X41.3729 Y31.5377
G01 X41.3894 Y31.5331
G01 X41.4490 Y31.5182
G01 X41.4657 Y31.5144
G01 X41.4827 Y31.5115
G01 X41.5434 Y31.5025
G01 X41.5604 Y31.5004
G01 X41.5775 Y31.4991
G01 X41.6474 Y31.4958
G01 X43.4983 Y31.4957
G01 X43.5222 Y31.4781
G01 X43.5365 Y31.4686
G01 X43.6154 Y31.4212
G01 X43.6379 Y31.4087
G01 X43.7211 Y31.3693
G01 X43.7368 Y31.3624
G01 X43.7528 Y31.3562
G01 X43.8313 Y31.3281
G01 X43.8559 Y31.3203
G01 X43.9451 Y31.2978
G01 X43.9619 Y31.2941
G01 X43.9788 Y31.2911
G01 X44.0613 Y31.2789
G01 X44.0784 Y31.2768
G01 X44.0955 Y31.2755
G01 X44.1788 Y31.2714
G01 X44.1960 Y31.2710
G01 X44.2132 Y31.2714
G01 X44.3051 Y31.2761
G01 X44.3307 Y31.2789
G01 X44.4132 Y31.2911
G01 X44.4301 Y31.2941
G01 X44.4469 Y31.2978
G01 X44.5278 Y31.3181
G01 X44.5443 Y31.3227
G01 X44.5607 Y31.3281
G01 X44.6392 Y31.3562
G01 X44.6552 Y31.3624
G01 X44.6709 Y31.3693
G01 X44.7463 Y31.4050
G01 X44.7692 Y31.4168
G01 X44.8482 Y31.4641
G01 X44.8627 Y31.4732
G01 X44.8767 Y31.4831
G01 X44.9437 Y31.5328
G01 X44.9573 Y31.5434
G01 X44.9703 Y31.5546
G01 X45.0321 Y31.6106
G01 X45.0445 Y31.6225
G01 X45.0564 Y31.6349
G01 X45.1124 Y31.6967
G01 X45.1236 Y31.7097
G01 X45.1342 Y31.7233
G01 X45.1839 Y31.7903
G01 X45.1984 Y31.8115
G01 X45.2458 Y31.8904
G01 X45.2543 Y31.9053
G01 X45.2620 Y31.9207
G01 X45.2977 Y31.9961
G01 X45.3047 Y32.0118
G01 X45.3108 Y32.0278
G01 X45.3389 Y32.1064
G01 X45.3443 Y32.1227
G01 X45.3489 Y32.1392
G01 X45.3692 Y32.2201
G01 X45.3745 Y32.2453
G01 X45.3881 Y32.3363
G01 X45.3902 Y32.3534
G01 X45.3915 Y32.3705
G01 X45.3956 Y32.4538
G01 X45.3959 Y32.4796
G01 X45.3910 Y32.5801
G01 X45.3881 Y32.6057
G01 X45.3759 Y32.6882
G01 X45.3729 Y32.7051
G01 X45.3692 Y32.7219
G01 X45.3489 Y32.8028
G01 X45.3443 Y32.8194
G01 X45.3389 Y32.8357
G01 X45.3108 Y32.9142
G01 X45.3047 Y32.9302
G01 X45.2977 Y32.9459
G01 X45.2620 Y33.0213
G01 X45.2543 Y33.0367
G01 X45.2458 Y33.0516
G01 X45.2030 Y33.1232
G01 X45.1938 Y33.1377
G01 X45.1839 Y33.1517
G01 X45.1342 Y33.2187
G01 X45.1236 Y33.2323
G01 X45.1124 Y33.2453
G01 X45.0564 Y33.3071
G01 X45.0445 Y33.3195
G01 X45.0321 Y33.3314
G01 X44.9638 Y33.3931
G01 X44.9437 Y33.4092
G01 X44.8767 Y33.4589
G01 X44.8627 Y33.4688
G01 X44.8482 Y33.4780
G01 X44.7766 Y33.5208
G01 X44.7617 Y33.5293
G01 X44.7463 Y33.5370
G01 X44.6631 Y33.5763
G01 X44.6392 Y33.5858
G01 X44.5607 Y33.6139
G01 X44.5443 Y33.6193
G01 X44.5278 Y33.6239
G01 X44.4469 Y33.6442
G01 X44.4301 Y33.6480
G01 X44.4132 Y33.6509
G01 X44.3307 Y33.6631
G01 X44.3136 Y33.6652
G01 X44.2965 Y33.6665
G01 X44.2046 Y33.6709
G01 X44.1788 Y33.6706
G01 X44.0955 Y33.6665
G01 X44.0784 Y33.6652
G01 X44.0613 Y33.6631
G01 X43.9788 Y33.6509
G01 X43.9619 Y33.6480
G01 X43.9451 Y33.6442
G01 X43.8642 Y33.6239
G01 X43.8395 Y33.6167
G01 X43.7528 Y33.5858
G01 X43.7368 Y33.5797
G01 X43.7211 Y33.5727
G01 X43.6379 Y33.5333
G01 X43.6154 Y33.5208
G01 X43.5365 Y33.4735
G01 X43.5222 Y33.4639
G01 X43.4983 Y33.4463
G01 X42.0600 Y33.4463
G01 X36.6097 Y38.8966
G01 X36.5828 Y38.9721
G01 X36.5766 Y38.9881
G01 X36.5697 Y39.0038
G01 X36.5382 Y39.0704
G01 X36.5304 Y39.0857
G01 X36.5220 Y39.1007
G01 X36.4841 Y39.1638
G01 X36.4749 Y39.1783
G01 X36.4650 Y39.1924
G01 X36.4212 Y39.2515
G01 X36.4106 Y39.2651
G01 X36.3994 Y39.2781
G01 X36.3441 Y39.3389
G01 X36.3256 Y39.3569
G01 X36.2711 Y39.4064
G01 X36.2581 Y39.4176
G01 X36.2445 Y39.4282
G01 X36.1854 Y39.4720
G01 X36.1641 Y39.4866
G01 X36.0937 Y39.5290
G01 X36.0787 Y39.5375
G01 X36.0634 Y39.5452
G01 X35.9968 Y39.5767
G01 X35.9811 Y39.5836
G01 X35.9651 Y39.5898
G01 X35.8957 Y39.6146
G01 X35.8794 Y39.6200
G01 X35.8629 Y39.6246
G01 X35.7914 Y39.6425
G01 X35.7662 Y39.6478
G01 X35.6849 Y39.6600
G01 X35.6679 Y39.6621
G01 X35.6507 Y39.6634
G01 X35.5686 Y39.6673
G01 X35.0217 Y39.6674
G01 X35.0111 Y39.6723
G01 X34.9952 Y39.6789
G01 X34.9005 Y39.7127
G01 X34.8758 Y39.7199
G01 X34.7865 Y39.7422
G01 X34.7612 Y39.7469
G01 X34.6787 Y39.7591
G01 X34.6616 Y39.7612
G01 X34.6445 Y39.7625
G01 X34.5612 Y39.7666
G01 X34.5440 Y39.7670
G01 X34.5268 Y39.7666
G01 X34.4435 Y39.7625
G01 X34.4264 Y39.7612
G01 X34.4093 Y39.7591
G01 X34.3268 Y39.7469
G01 X34.3099 Y39.7440
G01 X34.2931 Y39.7402
G01 X34.2122 Y39.7199
G01 X34.1957 Y39.7153
G01 X34.1793 Y39.7099
G01 X34.1008 Y39.6818
G01 X34.0848 Y39.6757
G01 X34.0663 Y39.6674
G01 X32.5120 Y39.6674
G01 X32.4838 Y39.6664
G00 Z1.7000
G00 X32.7017 Y40.1317
F60.00
G01 Z-0.2800
F100.00
G01 X33.8463 Y40.1317
G01 X33.8702 Y40.1141
G01 X33.8845 Y40.1046
G01 X33.9634 Y40.0572
G01 X33.9859 Y40.0447
G01 X34.0691 Y40.0053
G01 X34.0848 Y39.9984
G01 X34.1008 Y39.9922
G01 X34.1875 Y39.9613
G01 X34.2122 Y39.9541
G01 X34.2931 Y39.9338
G01 X34.3099 Y39.9301
G01 X34.3268 Y39.9271
G01 X34.4093 Y39.9149
G01 X34.4264 Y39.9128
G01 X34.4435 Y39.9115
G01 X34.5268 Y39.9074
G01 X34.5440 Y39.9070
G01 X34.5612 Y39.9074
G01 X34.6445 Y39.9115
G01 X34.6616 Y39.9128
G01 X34.6787 Y39.9149
G01 X34.7612 Y39.9271
G01 X34.7781 Y39.9301
G01 X34.7949 Y39.9338
G01 X34.8758 Y39.9541
G01 X34.9005 Y39.9613
G01 X34.9872 Y39.9922
G01 X35.0032 Y39.9984
G01 X35.0189 Y40.0053
G01 X35.1021 Y40.0447
G01 X35.1246 Y40.0572
G01 X35.2035 Y40.1046
G01 X35.2178 Y40.1141
G01 X35.2417 Y40.1317
G01 X36.1720 Y40.1317
G01 X41.9823 Y34.3214
G01 X41.9948 Y34.3095
G01 X42.0403 Y34.2683
G01 X42.0533 Y34.2571
G01 X42.0668 Y34.2465
G01 X42.1161 Y34.2100
G01 X42.1301 Y34.2001
G01 X42.1447 Y34.1909
G01 X42.1973 Y34.1593
G01 X42.2122 Y34.1509
G01 X42.2276 Y34.1431
G01 X42.2909 Y34.1133
G01 X42.3148 Y34.1038
G01 X42.3726 Y34.0831
G01 X42.3889 Y34.0777
G01 X42.4054 Y34.0731
G01 X42.4650 Y34.0582
G01 X42.4817 Y34.0544
G01 X42.4987 Y34.0515
G01 X42.5594 Y34.0425
G01 X42.5850 Y34.0397
G01 X42.6548 Y34.0361
G01 X42.6720 Y34.0357
G01 X43.4983 Y34.0357
G01 X43.5222 Y34.0181
G01 X43.5438 Y34.0041
G01 X43.6228 Y33.9568
G01 X43.6457 Y33.9450
G01 X43.7211 Y33.9093
G01 X43.7448 Y33.8992
G01 X43.8395 Y33.8653
G01 X43.8642 Y33.8581
G01 X43.9451 Y33.8378
G01 X43.9619 Y33.8341
G01 X43.9788 Y33.8311
G01 X44.0613 Y33.8189
G01 X44.0869 Y33.8161
G01 X44.1788 Y33.8114
G01 X44.1960 Y33.8110
G01 X44.2132 Y33.8114
G01 X44.2965 Y33.8155
G01 X44.3136 Y33.8168
G01 X44.3307 Y33.8189
G01 X44.4132 Y33.8311
G01 X44.4301 Y33.8341
G01 X44.4469 Y33.8378
G01 X44.5278 Y33.8581
G01 X44.5443 Y33.8627
G01 X44.5607 Y33.8681
G01 X44.6392 Y33.8962
G01 X44.6552 Y33.9024
G01 X44.6709 Y33.9093
G01 X44.7463 Y33.9450
G01 X44.7617 Y33.9527
G01 X44.7766 Y33.9612
G01 X44.8482 Y34.0041
G01 X44.8627 Y34.0132
G01 X44.8767 Y34.0231
G01 X44.9437 Y34.0728
G01 X44.9573 Y34.0834
G01 X44.9703 Y34.0946
G01 X45.0321 Y34.1506
G01 X45.0445 Y34.1625
G01 X45.0564 Y34.1749
G01 X45.1124 Y34.2367
G01 X45.1236 Y34.2497
G01 X45.1342 Y34.2633
G01 X45.1839 Y34.3303
G01 X45.1938 Y34.3443
G01 X45.2030 Y34.3588
G01 X45.2458 Y34.4304
G01 X45.2583 Y34.4530
G01 X45.3013 Y34.5439
G01 X45.3108 Y34.5678
G01 X45.3389 Y34.6464
G01 X45.3443 Y34.6627
G01 X45.3489 Y34.6792
G01 X45.3692 Y34.7601
G01 X45.3729 Y34.7769
G01 X45.3759 Y34.7938
G01 X45.3881 Y34.8763
G01 X45.3902 Y34.8934
G01 X45.3915 Y34.9105
G01 X45.3956 Y34.9938
G01 X45.3960 Y35.0110
G01 X45.3956 Y35.0282
G01 X45.3915 Y35.1115
G01 X45.3902 Y35.1286
G01 X45.3881 Y35.1457
G01 X45.3745 Y35.2367
G01 X45.3692 Y35.2619
G01 X45.3489 Y35.3428
G01 X45.3443 Y35.3594
G01 X45.3389 Y35.3757
G01 X45.3108 Y35.4542
G01 X45.3047 Y35.4702
G01 X45.2977 Y35.4859
G01 X45.2620 Y35.5613
G01 X45.2543 Y35.5767
G01 X45.2458 Y35.5916
G01 X45.2030 Y35.6632
G01 X45.1938 Y35.6777
G01 X45.1839 Y35.6917
G01 X45.1342 Y35.7587
G01 X45.1181 Y35.7789
G01 X45.0564 Y35.8471
G01 X45.0445 Y35.8595
G01 X45.0321 Y35.8714
G01 X44.9703 Y35.9274
G01 X44.9506 Y35.9440
G01 X44.8767 Y35.9989
G01 X44.8627 Y36.0088
G01 X44.8482 Y36.0180
G01 X44.7766 Y36.0608
G01 X44.7541 Y36.0733
G01 X44.6631 Y36.1163
G01 X44.6392 Y36.1258
G01 X44.5607 Y36.1539
G01 X44.5443 Y36.1593
G01 X44.5278 Y36.1639
G01 X44.4469 Y36.1842
G01 X44.4301 Y36.1880
G01 X44.4132 Y36.1909
G01 X44.3307 Y36.2031
G01 X44.3136 Y36.2052
G01 X44.2965 Y36.2065
G01 X44.2046 Y36.2109
G01 X44.1788 Y36.2106
G01 X44.0955 Y36.2065
G01 X44.0784 Y36.2052
G01 X44.0613 Y36.2031
G01 X43.9788 Y36.1909
G01 X43.9619 Y36.1880
G01 X43.9451 Y36.1842
G01 X43.8642 Y36.1639
G01 X43.8395 Y36.1567
G01 X43.7528 Y36.1258
G01 X43.7368 Y36.1197
G01 X43.7211 Y36.1127
G01 X43.6379 Y36.0733
G01 X43.6154 Y36.0608
G01 X43.5365 Y36.0135
G01 X43.5222 Y36.0039
G01 X43.4983 Y35.9863
G01 X43.0760 Y35.9863
G01 X37.2657 Y41.7967
G01 X37.2532 Y41.8085
G01 X37.2077 Y41.8497
G01 X37.1947 Y41.8609
G01 X37.1812 Y41.8715
G01 X37.1319 Y41.9081
G01 X37.1179 Y41.9180
G01 X37.1033 Y41.9271
G01 X37.0507 Y41.9587
G01 X37.0358 Y41.9672
G01 X37.0204 Y41.9749
G01 X36.9571 Y42.0047
G01 X36.9332 Y42.0143
G01 X36.8754 Y42.0349
G01 X36.8591 Y42.0403
G01 X36.8426 Y42.0449
G01 X36.7747 Y42.0618
G01 X36.7493 Y42.0665
G01 X36.6886 Y42.0755
G01 X36.6716 Y42.0776
G01 X36.6545 Y42.0789
G01 X36.5932 Y42.0819
G01 X36.5760 Y42.0823
G01 X35.2417 Y42.0823
G01 X35.2178 Y42.0999
G01 X35.2035 Y42.1095
G01 X35.1246 Y42.1568
G01 X35.1021 Y42.1693
G01 X35.0189 Y42.2087
G01 X35.0032 Y42.2157
G01 X34.9872 Y42.2218
G01 X34.9005 Y42.2527
G01 X34.8758 Y42.2599
G01 X34.7949 Y42.2802
G01 X34.7781 Y42.2840
G01 X34.7612 Y42.2869
G01 X34.6787 Y42.2991
G01 X34.6616 Y42.3012
G01 X34.6445 Y42.3025
G01 X34.5526 Y42.3069
G01 X34.5268 Y42.3066
G01 X34.4435 Y42.3025
G01 X34.4264 Y42.3012
G01 X34.4093 Y42.2991
G01 X34.3268 Y42.2869
G01 X34.3099 Y42.2840
G01 X34.2931 Y42.2802
G01 X34.2122 Y42.2599
G01 X34.1875 Y42.2527
G01 X34.1008 Y42.2218
G01 X34.0848 Y42.2157
G01 X34.0691 Y42.2087
G01 X33.9859 Y42.1693
G01 X33.9634 Y42.1568
G01 X33.8845 Y42.1095
G01 X33.8702 Y42.0999
G01 X33.8463 Y42.0823
G01 X32.7017 Y42.0823
G01 X32.6778 Y42.0999
G01 X32.6635 Y42.1095
G01 X32.5846 Y42.1568
G01 X32.5621 Y42.1693
G01 X32.4789 Y42.2087
G01 X32.4632 Y42.2157
G01 X32.4472 Y42.2218
G01 X32.3605 Y42.2527
G01 X32.3358 Y42.2599
G01 X32.2549 Y42.2802
G01 X32.2381 Y42.2840
G01 X32.2212 Y42.2869
G01 X32.1387 Y42.2991
G01 X32.1216 Y42.3012
G01 X32.1045 Y42.3025
G01 X32.0212 Y42.3066
G01 X32.0040 Y42.3070
G01 X31.9868 Y42.3066
G01 X31.9035 Y42.3025
G01 X31.8864 Y42.3012
G01 X31.8693 Y42.2991
G01 X31.7868 Y42.2869
G01 X31.7699 Y42.2840
G01 X31.7531 Y42.2802
G01 X31.6722 Y42.2599
G01 X31.6557 Y42.2553
G01 X31.6393 Y42.2499
G01 X31.5608 Y42.2218
G01 X31.5448 Y42.2157
G01 X31.5291 Y42.2087
G01 X31.4537 Y42.1730
G01 X31.4383 Y42.1653
G01 X31.4234 Y42.1568
G01 X31.3518 Y42.1140
G01 X31.3302 Y42.0999
G01 X31.2563 Y42.0452
G01 X31.2427 Y42.0346
G01 X31.2297 Y42.0234
G01 X31.1679 Y41.9674
G01 X31.1555 Y41.9555
G01 X31.1436 Y41.9431
G01 X31.0876 Y41.8813
G01 X31.0764 Y41.8683
G01 X31.0658 Y41.8547
G01 X31.0161 Y41.7877
G01 X31.0062 Y41.7737
G01 X30.9970 Y41.7592
G01 X30.9542 Y41.6876
G01 X30.9457 Y41.6727
G01 X30.9380 Y41.6573
G01 X30.9023 Y41.5819
G01 X30.8953 Y41.5662
G01 X30.8892 Y41.5502
G01 X30.8611 Y41.4717
G01 X30.8557 Y41.4554
G01 X30.8511 Y41.4388
G01 X30.8308 Y41.3579
G01 X30.8271 Y41.3411
G01 X30.8241 Y41.3242
G01 X30.8119 Y41.2417
G01 X30.8098 Y41.2246
G01 X30.8085 Y41.2075
G01 X30.8044 Y41.1242
G01 X30.8040 Y41.1070
G01 X30.8044 Y41.0898
G01 X30.8085 Y41.0065
G01 X30.8098 Y40.9894
G01 X30.8119 Y40.9723
G01 X30.8241 Y40.8898
G01 X30.8271 Y40.8729
G01 X30.8308 Y40.8561
G01 X30.8511 Y40.7752
G01 X30.8557 Y40.7587
G01 X30.8611 Y40.7424
G01 X30.8892 Y40.6638
G01 X30.8953 Y40.6478
G01 X30.9023 Y40.6321
G01 X30.9380 Y40.5567
G01 X30.9457 Y40.5413
G01 X30.9542 Y40.5264
G01 X30.9970 Y40.4548
G01 X31.0111 Y40.4332
G01 X31.0658 Y40.3593
G01 X31.0764 Y40.3457
G01 X31.0876 Y40.3327
G01 X31.1436 Y40.2709
G01 X31.1555 Y40.2585
G01 X31.1679 Y40.2466
G01 X31.2297 Y40.1906
G01 X31.2427 Y40.1794
G01 X31.2563 Y40.1688
G01 X31.3233 Y40.1191
G01 X31.3373 Y40.1092
G01 X31.3518 Y40.1001
G01 X31.4234 Y40.0572
G01 X31.4383 Y40.0487
G01 X31.4537 Y40.0410
G01 X31.5291 Y40.0053
G01 X31.5448 Y39.9984
G01 X31.5608 Y39.9922
G01 X31.6393 Y39.9641
G01 X31.6557 Y39.9587
G01 X31.6722 Y39.9541
G01 X31.7531 Y39.9338
G01 X31.7783 Y39.9285
G01 X31.8693 Y39.9149
G01 X31.8864 Y39.9128
G01 X31.9035 Y39.9115
G01 X31.9868 Y39.9074
G01 X32.0040 Y39.9070
G01 X32.0212 Y39.9074
G01 X32.1045 Y39.9115
G01 X32.1216 Y39.9128
G01 X32.1387 Y39.9149
G01 X32.2212 Y39.9271
G01 X32.2465 Y39.9318
G01 X32.3358 Y39.9541
G01 X32.3523 Y39.9587
G01 X32.3687 Y39.9641
G01 X32.4472 Y39.9922
G01 X32.4711 Y40.0017
G01 X32.5543 Y40.0410
G01 X32.5772 Y40.0528
G01 X32.6635 Y40.1046
G01 X32.6778 Y40.1141
G01 X32.7017 Y40.1317
G00 Z1.7000
G00 X32.4258 Y42.5245
F60.00
G01 Z-0.2800
F100.00
G01 X32.4910 Y42.5081
G01 X32.5078 Y42.5044
G01 X32.5247 Y42.5014
G01 X32.5854 Y42.4924
G01 X32.6110 Y42.4896
G01 X32.6895 Y42.4857
G01 X34.2461 Y42.4856
G01 X34.3015 Y42.4718
G01 X34.3183 Y42.4685
G01 X34.4178 Y42.4537
G01 X34.4435 Y42.4515
G01 X34.5268 Y42.4474
G01 X34.5440 Y42.4470
G01 X34.5612 Y42.4474
G01 X34.6445 Y42.4515
G01 X34.6702 Y42.4537
G01 X34.7697 Y42.4685
G01 X34.7865 Y42.4718
G01 X34.8419 Y42.4856
G01 X36.6800 Y42.4856
G01 X42.3043 Y36.8614
G01 X42.3167 Y36.8495
G01 X42.3622 Y36.8083
G01 X42.3752 Y36.7971
G01 X42.3887 Y36.7865
G01 X42.4380 Y36.7500
G01 X42.4593 Y36.7354
G01 X42.5192 Y36.6993
G01 X42.5342 Y36.6909
G01 X42.5495 Y36.6831
G01 X42.6050 Y36.6569
G01 X42.6207 Y36.6499
G01 X42.6367 Y36.6438
G01 X42.6945 Y36.6231
G01 X42.7108 Y36.6177
G01 X42.7274 Y36.6131
G01 X42.7869 Y36.5982
G01 X42.8036 Y36.5944
G01 X42.8206 Y36.5915
G01 X42.8813 Y36.5825
G01 X42.8983 Y36.5804
G01 X42.9155 Y36.5791
G01 X42.9853 Y36.5758
G01 X43.4983 Y36.5757
G01 X43.5222 Y36.5581
G01 X43.5365 Y36.5486
G01 X43.6154 Y36.5012
G01 X43.6379 Y36.4887
G01 X43.7211 Y36.4493
G01 X43.7368 Y36.4424
G01 X43.7528 Y36.4362
G01 X43.8313 Y36.4081
G01 X43.8559 Y36.4003
G01 X43.9451 Y36.3778
G01 X43.9619 Y36.3741
G01 X43.9788 Y36.3711
G01 X44.0613 Y36.3589
G01 X44.0784 Y36.3568
G01 X44.0955 Y36.3555
G01 X44.1788 Y36.3514
G01 X44.1960 Y36.3510
G01 X44.2132 Y36.3514
G01 X44.2965 Y36.3555
G01 X44.3222 Y36.3577
G01 X44.4132 Y36.3711
G01 X44.4301 Y36.3741
G01 X44.4469 Y36.3778
G01 X44.5278 Y36.3981
G01 X44.5443 Y36.4027
G01 X44.5607 Y36.4081
G01 X44.6392 Y36.4362
G01 X44.6552 Y36.4424
G01 X44.6709 Y36.4493
G01 X44.7463 Y36.4850
G01 X44.7617 Y36.4927
G01 X44.7766 Y36.5012
G01 X44.8482 Y36.5441
G01 X44.8627 Y36.5532
G01 X44.8767 Y36.5631
G01 X44.9437 Y36.6128
G01 X44.9573 Y36.6234
G01 X44.9703 Y36.6346
G01 X45.0321 Y36.6906
G01 X45.0445 Y36.7025
G01 X45.0564 Y36.7149
G01 X45.1124 Y36.7767
G01 X45.1236 Y36.7897
G01 X45.1342 Y36.8033
G01 X45.1839 Y36.8703
G01 X45.1938 Y36.8843
G01 X45.2030 Y36.8988
G01 X45.2458 Y36.9704
G01 X45.2543 Y36.9853
G01 X45.2620 Y37.0007
G01 X45.2977 Y37.0761
G01 X45.3047 Y37.0918
G01 X45.3108 Y37.1078
G01 X45.3389 Y37.1864
G01 X45.3443 Y37.2027
G01 X45.3489 Y37.2192
G01 X45.3692 Y37.3001
G01 X45.3729 Y37.3169
G01 X45.3759 Y37.3338
G01 X45.3881 Y37.4163
G01 X45.3902 Y37.4334
G01 X45.3915 Y37.4505
G01 X45.3956 Y37.5338
G01 X45.3960 Y37.5510
G01 X45.3956 Y37.5682
G01 X45.3915 Y37.6515
G01 X45.3902 Y37.6686
G01 X45.3881 Y37.6857
G01 X45.3759 Y37.7682
G01 X45.3729 Y37.7851
G01 X45.3692 Y37.8019
G01 X45.3489 Y37.8828
G01 X45.3443 Y37.8994
G01 X45.3389 Y37.9157
G01 X45.3108 Y37.9942
G01 X45.3047 Y38.0102
G01 X45.2977 Y38.0259
G01 X45.2620 Y38.1013
G01 X45.2543 Y38.1167
G01 X45.2458 Y38.1316
G01 X45.2030 Y38.2032
G01 X45.1938 Y38.2177
G01 X45.1839 Y38.2317
G01 X45.1342 Y38.2987
G01 X45.1236 Y38.3123
G01 X45.1124 Y38.3253
G01 X45.0505 Y38.3934
G01 X45.0321 Y38.4114
G01 X44.9703 Y38.4674
G01 X44.9573 Y38.4786
G01 X44.9437 Y38.4892
G01 X44.8767 Y38.5389
G01 X44.8627 Y38.5488
G01 X44.8482 Y38.5580
G01 X44.7766 Y38.6008
G01 X44.7617 Y38.6093
G01 X44.7463 Y38.6170
G01 X44.6709 Y38.6527
G01 X44.6472 Y38.6629
G01 X44.5607 Y38.6939
G01 X44.5443 Y38.6993
G01 X44.5278 Y38.7039
G01 X44.4469 Y38.7242
G01 X44.4301 Y38.7280
G01 X44.4132 Y38.7309
G01 X44.3307 Y38.7431
G01 X44.3051 Y38.7460
G01 X44.2132 Y38.7506
G01 X44.1960 Y38.7510
G01 X44.1788 Y38.7506
G01 X44.0955 Y38.7465
G01 X44.0784 Y38.7452
G01 X44.0613 Y38.7431
G01 X43.9703 Y38.7295
G01 X43.9451 Y38.7242
G01 X43.8642 Y38.7039
G01 X43.8477 Y38.6993
G01 X43.8313 Y38.6939
G01 X43.7528 Y38.6658
G01 X43.7289 Y38.6563
G01 X43.6457 Y38.6170
G01 X43.6228 Y38.6052
G01 X43.5365 Y38.5535
G01 X43.5222 Y38.5439
G01 X43.4983 Y38.5263
G01 X43.3979 Y38.5263
G01 X37.7737 Y44.1506
G01 X37.7612 Y44.1624
G01 X37.7157 Y44.2036
G01 X37.7027 Y44.2149
G01 X37.6892 Y44.2254
G01 X37.6399 Y44.2620
G01 X37.6259 Y44.2719
G01 X37.6113 Y44.2811
G01 X37.5587 Y44.3126
G01 X37.5438 Y44.3211
G01 X37.5284 Y44.3288
G01 X37.4729 Y44.3550
G01 X37.4572 Y44.3620
G01 X37.4412 Y44.3682
G01 X37.3834 Y44.3889
G01 X37.3671 Y44.3942
G01 X37.3506 Y44.3988
G01 X37.2910 Y44.4137
G01 X37.2743 Y44.4175
G01 X37.2573 Y44.4204
G01 X37.1966 Y44.4294
G01 X37.1796 Y44.4315
G01 X37.1625 Y44.4328
G01 X37.1012 Y44.4358
G01 X37.0840 Y44.4362
G01 X35.4468 Y44.4362
G01 X35.4044 Y44.4831
G01 X35.3864 Y44.5015
G01 X35.3183 Y44.5634
G01 X35.2986 Y44.5800
G01 X35.2247 Y44.6349
G01 X35.2107 Y44.6448
G01 X35.1962 Y44.6540
G01 X35.1246 Y44.6968
G01 X35.1021 Y44.7093
G01 X35.0189 Y44.7487
G01 X35.0032 Y44.7557
G01 X34.9872 Y44.7618
G01 X34.9087 Y44.7899
G01 X34.8923 Y44.7953
G01 X34.8758 Y44.7999
G01 X34.7949 Y44.8202
G01 X34.7781 Y44.8240
G01 X34.7612 Y44.8269
G01 X34.6787 Y44.8391
G01 X34.6531 Y44.8420
G01 X34.5526 Y44.8469
G01 X34.5268 Y44.8466
G01 X34.4435 Y44.8425
G01 X34.4264 Y44.8412
G01 X34.4093 Y44.8391
G01 X34.3268 Y44.8269
G01 X34.3099 Y44.8240
G01 X34.2931 Y44.8202
G01 X34.2122 Y44.7999
G01 X34.1957 Y44.7953
G01 X34.1793 Y44.7899
G01 X34.1008 Y44.7618
G01 X34.0848 Y44.7557
G01 X34.0691 Y44.7487
G01 X33.9937 Y44.7130
G01 X33.9783 Y44.7053
G01 X33.9634 Y44.6968
G01 X33.8918 Y44.6540
G01 X33.8702 Y44.6399
G01 X33.7894 Y44.5800
G01 X33.7697 Y44.5634
G01 X33.7079 Y44.5074
G01 X33.6955 Y44.4955
G01 X33.6836 Y44.4831
G01 X33.6412 Y44.4362
G01 X33.0838 Y44.4362
G01 X33.0609 Y44.4531
G01 X33.0467 Y44.4626
G01 X32.9793 Y44.5030
G01 X32.9564 Y44.5149
G01 X32.9009 Y44.5411
G01 X32.8773 Y44.5513
G01 X32.8033 Y44.5777
G01 X32.7869 Y44.5827
G01 X32.7386 Y44.5949
G01 X32.6847 Y44.6349
G01 X32.6707 Y44.6448
G01 X32.6562 Y44.6540
G01 X32.5846 Y44.6968
G01 X32.5621 Y44.7093
G01 X32.4711 Y44.7523
G01 X32.4472 Y44.7618
G01 X32.3687 Y44.7899
G01 X32.3523 Y44.7953
G01 X32.3358 Y44.7999
G01 X32.2549 Y44.8202
G01 X32.2381 Y44.8240
G01 X32.2212 Y44.8269
G01 X32.1387 Y44.8391
G01 X32.1216 Y44.8412
G01 X32.1045 Y44.8425
G01 X32.0212 Y44.8466
G01 X32.0040 Y44.8470
G01 X31.9868 Y44.8466
G01 X31.9035 Y44.8425
G01 X31.8864 Y44.8412
G01 X31.8693 Y44.8391
G01 X31.7868 Y44.8269
G01 X31.7699 Y44.8240
G01 X31.7531 Y44.8202
G01 X31.6722 Y44.7999
G01 X31.6557 Y44.7953
G01 X31.6393 Y44.7899
G01 X31.5528 Y44.7589
G01 X31.5291 Y44.7487
G01 X31.4537 Y44.7130
G01 X31.4383 Y44.7053
G01 X31.4234 Y44.6968
G01 X31.3518 Y44.6540
G01 X31.3373 Y44.6448
G01 X31.3233 Y44.6349
G01 X31.2563 Y44.5852
G01 X31.2427 Y44.5746
G01 X31.2297 Y44.5634
G01 X31.1679 Y44.5074
G01 X31.1555 Y44.4955
G01 X31.1436 Y44.4831
G01 X31.0876 Y44.4213
G01 X31.0764 Y44.4083
G01 X31.0658 Y44.3947
G01 X31.0161 Y44.3277
G01 X31.0062 Y44.3137
G01 X30.9970 Y44.2992
G01 X30.9542 Y44.2276
G01 X30.9457 Y44.2127
G01 X30.9380 Y44.1973
G01 X30.9023 Y44.1219
G01 X30.8953 Y44.1062
G01 X30.8892 Y44.0902
G01 X30.8611 Y44.0117
G01 X30.8557 Y43.9954
G01 X30.8511 Y43.9788
G01 X30.8308 Y43.8979
G01 X30.8271 Y43.8811
G01 X30.8241 Y43.8642
G01 X30.8119 Y43.7817
G01 X30.8098 Y43.7646
G01 X30.8085 Y43.7475
G01 X30.8044 Y43.6642
G01 X30.8040 Y43.6470
G01 X30.8044 Y43.6298
G01 X30.8085 Y43.5465
G01 X30.8098 Y43.5294
G01 X30.8119 Y43.5123
G01 X30.8241 Y43.4298
G01 X30.8271 Y43.4129
G01 X30.8308 Y43.3961
G01 X30.8511 Y43.3152
G01 X30.8557 Y43.2987
G01 X30.8611 Y43.2824
G01 X30.8922 Y43.1958
G01 X30.9023 Y43.1721
G01 X30.9380 Y43.0967
G01 X30.9457 Y43.0813
G01 X30.9542 Y43.0664
G01 X30.9970 Y42.9948
G01 X31.0062 Y42.9803
G01 X31.0161 Y42.9663
G01 X31.0658 Y42.8993
G01 X31.0764 Y42.8857
G01 X31.0876 Y42.8727
G01 X31.1436 Y42.8109
G01 X31.1555 Y42.7985
G01 X31.1679 Y42.7866
G01 X31.2297 Y42.7306
G01 X31.2427 Y42.7194
G01 X31.2563 Y42.7088
G01 X31.3233 Y42.6591
G01 X31.3373 Y42.6492
G01 X31.3518 Y42.6401
G01 X31.4234 Y42.5972
G01 X31.4383 Y42.5887
G01 X31.4537 Y42.5810
G01 X31.5369 Y42.5417
G01 X31.5608 Y42.5322
G01 X31.6393 Y42.5041
G01 X31.6557 Y42.4987
G01 X31.6722 Y42.4941
G01 X31.7531 Y42.4738
G01 X31.7699 Y42.4701
G01 X31.7868 Y42.4671
G01 X31.8693 Y42.4549
G01 X31.8864 Y42.4528
G01 X31.9035 Y42.4515
G01 X31.9954 Y42.4471
G01 X32.0212 Y42.4474
G01 X32.1045 Y42.4515
G01 X32.1216 Y42.4528
G01 X32.1387 Y42.4549
G01 X32.2297 Y42.4685
G01 X32.2549 Y42.4738
G01 X32.3441 Y42.4963
G01 X32.3687 Y42.5041
G01 X32.4258 Y42.5245
G00 Z1.7000
G00 X35.2417 Y45.2117
F60.00
G01 Z-0.2800
F100.00
G01 X40.2360 Y45.2117
G01 X40.9663 Y44.4814
G01 X40.9788 Y44.4695
G01 X41.0307 Y44.4226
G01 X41.0508 Y44.4065
G01 X41.1001 Y44.3700
G01 X41.1141 Y44.3601
G01 X41.1287 Y44.3509
G01 X41.1813 Y44.3193
G01 X41.1962 Y44.3109
G01 X41.2116 Y44.3031
G01 X41.2671 Y44.2769
G01 X41.2828 Y44.2699
G01 X41.2988 Y44.2638
G01 X41.3566 Y44.2431
G01 X41.3729 Y44.2377
G01 X41.3894 Y44.2331
G01 X41.4490 Y44.2182
G01 X41.4657 Y44.2144
G01 X41.4827 Y44.2115
G01 X41.5434 Y44.2025
G01 X41.5604 Y44.2004
G01 X41.5775 Y44.1991
G01 X41.6474 Y44.1958
G01 X43.4983 Y44.1957
G01 X43.5222 Y44.1781
G01 X43.5365 Y44.1686
G01 X43.6154 Y44.1212
G01 X43.6379 Y44.1087
G01 X43.7211 Y44.0693
G01 X43.7368 Y44.0624
G01 X43.7528 Y44.0562
G01 X43.8395 Y44.0253
G01 X43.8642 Y44.0181
G01 X43.9451 Y43.9978
G01 X43.9619 Y43.9941
G01 X43.9788 Y43.9911
G01 X44.0613 Y43.9789
G01 X44.0784 Y43.9768
G01 X44.0955 Y43.9755
G01 X44.1788 Y43.9714
G01 X44.1960 Y43.9710
G01 X44.2132 Y43.9714
G01 X44.2965 Y43.9755
G01 X44.3136 Y43.9768
G01 X44.3307 Y43.9789
G01 X44.4132 Y43.9911
G01 X44.4301 Y43.9941
G01 X44.4469 Y43.9978
G01 X44.5278 Y44.0181
G01 X44.5443 Y44.0227
G01 X44.5607 Y44.0281
G01 X44.6392 Y44.0562
G01 X44.6552 Y44.0624
G01 X44.6709 Y44.0693
G01 X44.7463 Y44.1050
G01 X44.7617 Y44.1127
G01 X44.7766 Y44.1212
G01 X44.8482 Y44.1641
