(G-CODE GENERATED BY FLATCAM v8.994 - www.flatcam.org - Version Date: 2020/11/7)

(Name: PiHat-B_Cu_iso_cnc)
(Type: G-code from Geometry)
(Units: MM)

(Created on Saturday, 22 May 2021 at 15:24)

(This preprocessor is the default preprocessor used by FlatCAM.)
(It is made to work with MACH3 compatible motion controllers.)

(TOOL DIAMETER: 0.7 mm)
(Feedrate_XY: 100.0 mm/min)
(Feedrate_Z: 60.0 mm/min)
(Feedrate rapids 900.0 mm/min)

(Z_Cut: -0.28 mm)
(Z_Move: 1.7 mm)
(Z Start: None mm)
(Z End: 15.0 mm)
(X,Y End: None mm)
(Steps per circle: 64)
(Preprocessor Geometry: default)

(X range:    0.8995 ...   48.4500  mm)
(Y range:    1.7900 ...   61.8505  mm)

(Spindle Speed: 20000.0 RPM)
G21
G90
G94

F100.00
G00 Z15.0000

M03 S20000.0
G4 P2.0
F100.00
G00 X4.7340 Y8.4236
F60.00
G01 Z-0.2800
F100.00
G01 X4.7341 Y8.2819
G01 X4.7362 Y8.2402
G01 X4.7378 Y8.2232
G01 X4.7426 Y8.1904
G01 X4.7455 Y8.1734
G01 X4.7553 Y8.1329
G01 X4.7624 Y8.1081
G01 X4.7735 Y8.0769
G01 X4.7797 Y8.0609
G01 X4.7866 Y8.0452
G01 X4.8009 Y8.0153
G01 X4.8090 Y8.0001
G01 X4.8259 Y7.9717
G01 X4.8400 Y7.9501
G01 X4.8596 Y7.9234
G01 X4.8702 Y7.9099
G01 X4.8814 Y7.8969
G01 X4.9037 Y7.8724
G01 X4.9222 Y7.8544
G01 X4.9534 Y7.8267
G01 X4.9669 Y7.8161
G01 X4.9936 Y7.7965
G01 X5.0152 Y7.7824
G01 X5.0436 Y7.7655
G01 X5.0588 Y7.7574
G01 X5.0887 Y7.7431
G01 X5.1044 Y7.7362
G01 X5.1204 Y7.7300
G01 X5.1516 Y7.7189
G01 X5.1681 Y7.7139
G01 X5.2085 Y7.7038
G01 X5.2254 Y7.7005
G01 X5.2667 Y7.6943
G01 X5.2837 Y7.6927
G01 X5.3254 Y7.6906
G01 X5.3813 Y7.6905
G01 X5.4675 Y7.6498
G01 X5.4912 Y7.6396
G01 X5.5917 Y7.6035
G01 X5.6080 Y7.5982
G01 X5.6245 Y7.5936
G01 X5.7198 Y7.5697
G01 X5.7365 Y7.5659
G01 X5.7535 Y7.5630
G01 X5.8506 Y7.5486
G01 X5.8762 Y7.5458
G01 X5.9828 Y7.5404
G01 X6.0000 Y7.5400
G01 X11.5000 Y7.5400
G01 X11.5172 Y7.5404
G01 X11.6250 Y7.5459
G01 X11.7328 Y7.5404
G01 X11.7500 Y7.5400
G01 X28.1906 Y7.5400
G01 X30.5451 Y5.1856
G01 X30.5575 Y5.1737
G01 X30.6302 Y5.1078
G01 X30.6433 Y5.0965
G01 X30.6568 Y5.0860
G01 X30.7357 Y5.0275
G01 X30.7497 Y5.0176
G01 X30.7642 Y5.0084
G01 X30.8484 Y4.9579
G01 X30.8710 Y4.9455
G01 X30.9675 Y4.8998
G01 X30.9832 Y4.8928
G01 X30.9992 Y4.8866
G01 X31.0917 Y4.8535
G01 X31.1080 Y4.8482
G01 X31.1245 Y4.8436
G01 X31.2198 Y4.8197
G01 X31.2365 Y4.8159
G01 X31.2535 Y4.8130
G01 X31.3506 Y4.7986
G01 X31.3676 Y4.7965
G01 X31.3848 Y4.7952
G01 X31.4828 Y4.7904
G01 X31.5000 Y4.7900
G01 X36.7500 Y4.7900
G01 X36.7672 Y4.7904
G01 X36.8652 Y4.7952
G01 X36.8824 Y4.7965
G01 X36.8994 Y4.7986
G01 X36.9965 Y4.8130
G01 X37.0135 Y4.8159
G01 X37.0302 Y4.8197
G01 X37.1338 Y4.8458
G01 X37.1583 Y4.8535
G01 X37.2508 Y4.8866
G01 X37.2668 Y4.8928
G01 X37.2825 Y4.8998
G01 X37.3713 Y4.9417
G01 X37.3866 Y4.9495
G01 X37.4016 Y4.9579
G01 X37.4858 Y5.0084
G01 X37.5003 Y5.0176
G01 X37.5143 Y5.0275
G01 X37.5932 Y5.0860
G01 X37.6067 Y5.0965
G01 X37.6198 Y5.1078
G01 X37.6988 Y5.1796
G01 X37.7168 Y5.1980
G01 X37.7827 Y5.2707
G01 X37.7940 Y5.2838
G01 X37.8045 Y5.2973
G01 X37.8630 Y5.3762
G01 X37.8729 Y5.3902
G01 X37.8821 Y5.4047
G01 X37.9369 Y5.4964
G01 X37.9488 Y5.5192
G01 X37.9907 Y5.6080
G01 X38.0009 Y5.6317
G01 X38.0370 Y5.7322
G01 X38.0423 Y5.7485
G01 X38.0469 Y5.7650
G01 X38.0646 Y5.8356
G01 X38.0715 Y5.7898
G01 X38.0748 Y5.7730
G01 X38.0971 Y5.6837
G01 X38.1043 Y5.6590
G01 X38.1352 Y5.5723
G01 X38.1413 Y5.5563
G01 X38.1483 Y5.5406
G01 X38.1877 Y5.4574
G01 X38.2002 Y5.4349
G01 X38.2430 Y5.3633
G01 X38.2522 Y5.3488
G01 X38.2621 Y5.3348
G01 X38.3118 Y5.2678
G01 X38.3224 Y5.2542
G01 X38.3336 Y5.2412
G01 X38.3896 Y5.1794
G01 X38.4076 Y5.1610
G01 X38.4757 Y5.0991
G01 X38.4887 Y5.0879
G01 X38.5023 Y5.0773
G01 X38.5693 Y5.0276
G01 X38.5833 Y5.0177
G01 X38.5978 Y5.0085
G01 X38.6694 Y4.9657
G01 X38.6843 Y4.9572
G01 X38.6997 Y4.9495
G01 X38.7751 Y4.9138
G01 X38.7988 Y4.9037
G01 X38.8853 Y4.8726
G01 X38.9017 Y4.8672
G01 X38.9182 Y4.8626
G01 X38.9991 Y4.8423
G01 X39.0159 Y4.8386
G01 X39.0328 Y4.8356
G01 X39.1153 Y4.8234
G01 X39.1409 Y4.8205
G01 X39.2328 Y4.8159
G01 X39.2500 Y4.8155
G01 X39.2672 Y4.8159
G01 X39.3505 Y4.8200
G01 X39.3676 Y4.8213
G01 X39.3847 Y4.8234
G01 X39.4672 Y4.8356
G01 X39.4841 Y4.8386
G01 X39.5009 Y4.8423
G01 X39.5818 Y4.8626
G01 X39.5983 Y4.8672
G01 X39.6147 Y4.8726
G01 X39.7012 Y4.9037
G01 X39.7249 Y4.9138
G01 X39.8003 Y4.9495
G01 X39.8157 Y4.9572
G01 X39.8306 Y4.9657
G01 X39.9022 Y5.0085
G01 X39.9167 Y5.0177
G01 X39.9307 Y5.0276
G01 X39.9977 Y5.0773
G01 X40.0113 Y5.0879
G01 X40.0243 Y5.0991
G01 X40.0861 Y5.1551
G01 X40.0985 Y5.1670
G01 X40.1104 Y5.1794
G01 X40.1664 Y5.2412
G01 X40.1776 Y5.2542
G01 X40.1882 Y5.2678
G01 X40.2379 Y5.3348
G01 X40.2478 Y5.3488
G01 X40.2570 Y5.3633
G01 X40.3042 Y5.4423
G01 X40.3160 Y5.4652
G01 X40.3517 Y5.5406
G01 X40.3587 Y5.5563
G01 X40.3648 Y5.5723
G01 X40.3929 Y5.6508
G01 X40.3995 Y5.6712
G01 X40.3995 Y4.4910
G01 X5.0594 Y4.4910
G01 X3.6005 Y5.9499
G01 X3.6005 Y9.3311
G01 X4.9219 Y10.6525
G01 X4.9681 Y10.6064
G01 X5.0354 Y10.5454
G01 X5.0555 Y10.5293
G01 X5.1216 Y10.4804
G01 X5.1432 Y10.4664
G01 X5.2138 Y10.4242
G01 X5.2289 Y10.4161
G01 X5.2464 Y10.4077
G01 X5.2602 Y10.3976
G01 X5.2745 Y10.3881
G01 X5.3608 Y10.3363
G01 X5.3837 Y10.3245
G01 X5.4591 Y10.2888
G01 X5.4748 Y10.2818
G01 X5.4908 Y10.2757
G01 X5.5693 Y10.2476
G01 X5.5939 Y10.2398
G01 X5.6831 Y10.2173
G01 X5.6999 Y10.2136
G01 X5.7170 Y10.2106
G01 X5.6162 Y10.1852
G01 X5.5917 Y10.1775
G01 X5.4992 Y10.1444
G01 X5.4832 Y10.1382
G01 X5.4675 Y10.1312
G01 X5.3813 Y10.0905
G01 X5.3254 Y10.0904
G01 X5.2837 Y10.0883
G01 X5.2581 Y10.0855
G01 X5.2169 Y10.0790
G01 X5.1764 Y10.0692
G01 X5.1516 Y10.0621
G01 X5.1204 Y10.0510
G01 X5.1044 Y10.0448
G01 X5.0665 Y10.0274
G01 X5.0512 Y10.0197
G01 X5.0362 Y10.0112
G01 X5.0079 Y9.9941
G01 X4.9936 Y9.9845
G01 X4.9669 Y9.9649
G01 X4.9534 Y9.9543
G01 X4.9404 Y9.9431
G01 X4.9159 Y9.9208
G01 X4.9037 Y9.9086
G01 X4.8814 Y9.8841
G01 X4.8702 Y9.8711
G01 X4.8596 Y9.8576
G01 X4.8400 Y9.8309
G01 X4.8304 Y9.8166
G01 X4.8133 Y9.7883
G01 X4.8048 Y9.7733
G01 X4.7971 Y9.7580
G01 X4.7831 Y9.7280
G01 X4.7765 Y9.7121
G01 X4.7652 Y9.6810
G01 X4.7574 Y9.6564
G01 X4.7493 Y9.6243
G01 X4.7455 Y9.6076
G01 X4.7426 Y9.5906
G01 X4.7378 Y9.5578
G01 X4.7362 Y9.5408
G01 X4.7344 Y9.5077
G01 X4.7340 Y9.4905
G01 X4.7340 Y9.3574
G01 X4.7130 Y9.2988
G01 X4.7077 Y9.2825
G01 X4.7031 Y9.2660
G01 X4.6772 Y9.1624
G01 X4.6725 Y9.1370
G01 X4.6581 Y9.0399
G01 X4.6560 Y9.0229
G01 X4.6547 Y9.0057
G01 X4.6499 Y8.9077
G01 X4.6496 Y8.8819
G01 X4.6547 Y8.7753
G01 X4.6560 Y8.7581
G01 X4.6581 Y8.7411
G01 X4.6739 Y8.6355
G01 X4.6792 Y8.6103
G01 X4.7031 Y8.5150
G01 X4.7077 Y8.4985
G01 X4.7130 Y8.4822
G01 X4.7340 Y8.4236
G00 Z1.7000
G00 X5.7100 Y10.2000
F60.00
G01 Z-0.2800
F100.00
G01 X6.6500 Y10.2500
G00 Z1.7000
G00 X6.5783 Y10.2410
F60.00
G01 Z-0.2800
F100.00
G01 X6.5987 Y10.2476
G01 X6.6772 Y10.2757
G01 X6.6932 Y10.2818
G01 X6.7117 Y10.2901
G01 X10.8149 Y10.2901
G01 X10.8320 Y10.2809
G01 X10.8814 Y10.2575
G01 X10.8972 Y10.2510
G01 X10.9247 Y10.2410
G01 X6.5783 Y10.2410
G00 Z1.7000
G00 X10.8900 Y10.2400
F60.00
G01 Z-0.2800
F100.00
G01 X12.2300 Y10.2500
G00 Z1.7000
G00 X11.9482 Y7.3421
F60.00
G01 Z-0.2800
F100.00
G01 X11.9310 Y7.3425
G01 X11.1604 Y7.3424
G01 X11.1059 Y7.3397
G01 X11.0803 Y7.3369
G01 X11.0433 Y7.3314
G01 X11.0264 Y7.3285
G01 X11.0096 Y7.3247
G01 X10.9651 Y7.3134
G01 X10.9405 Y7.3056
G01 X10.9053 Y7.2930
G01 X10.8893 Y7.2869
G01 X10.8736 Y7.2799
G01 X10.8398 Y7.2639
G01 X10.8244 Y7.2562
G01 X10.8095 Y7.2477
G01 X10.7774 Y7.2285
G01 X10.7629 Y7.2193
G01 X10.7488 Y7.2094
G01 X10.7188 Y7.1871
G01 X10.7053 Y7.1766
G01 X10.6923 Y7.1654
G01 X10.6645 Y7.1402
G01 X10.6521 Y7.1284
G01 X10.6403 Y7.1160
G01 X10.6152 Y7.0882
G01 X10.6039 Y7.0752
G01 X10.5934 Y7.0617
G01 X10.5711 Y7.0317
G01 X10.5612 Y7.0176
G01 X10.5520 Y7.0031
G01 X10.5328 Y6.9710
G01 X10.5243 Y6.9561
G01 X10.5166 Y6.9407
G01 X10.5006 Y6.9069
G01 X10.4936 Y6.8912
G01 X10.4875 Y6.8752
G01 X10.4749 Y6.8400
G01 X10.4671 Y6.8154
G01 X10.4558 Y6.7709
G01 X10.4505 Y6.7457
G01 X10.4425 Y6.6917
G01 X10.4403 Y6.6660
G01 X10.4384 Y6.6287
G01 X10.4380 Y6.6115
G01 X10.4380 Y5.8495
G01 X10.4384 Y5.8323
G01 X10.4403 Y5.7950
G01 X10.4415 Y5.7778
G01 X10.4436 Y5.7608
G01 X10.4505 Y5.7153
G01 X10.4558 Y5.6901
G01 X10.4649 Y5.6539
G01 X10.4695 Y5.6373
G01 X10.4749 Y5.6210
G01 X10.4875 Y5.5858
G01 X10.4936 Y5.5698
G01 X10.5006 Y5.5541
G01 X10.5166 Y5.5203
G01 X10.5285 Y5.4974
G01 X10.5565 Y5.4506
G01 X10.5711 Y5.4293
G01 X10.5986 Y5.3925
G01 X10.6152 Y5.3728
G01 X10.6403 Y5.3450
G01 X10.6521 Y5.3326
G01 X10.6645 Y5.3208
G01 X10.6923 Y5.2957
G01 X10.7120 Y5.2791
G01 X10.7558 Y5.2466
G01 X10.7774 Y5.2325
G01 X10.8095 Y5.2133
G01 X10.8244 Y5.2048
G01 X10.8398 Y5.1971
G01 X10.8736 Y5.1811
G01 X10.8893 Y5.1741
G01 X10.9053 Y5.1680
G01 X10.9405 Y5.1554
G01 X10.9651 Y5.1476
G01 X11.0096 Y5.1363
G01 X11.0348 Y5.1310
G01 X11.0888 Y5.1230
G01 X11.1145 Y5.1208
G01 X11.1518 Y5.1189
G01 X11.1690 Y5.1185
G01 X11.9310 Y5.1185
G01 X11.9482 Y5.1189
G01 X11.9855 Y5.1208
G01 X12.0027 Y5.1220
G01 X12.0197 Y5.1241
G01 X12.0652 Y5.1310
G01 X12.0904 Y5.1363
G01 X12.1266 Y5.1454
G01 X12.1432 Y5.1500
G01 X12.1595 Y5.1554
G01 X12.1947 Y5.1680
G01 X12.2107 Y5.1741
G01 X12.2264 Y5.1811
G01 X12.2602 Y5.1971
G01 X12.2831 Y5.2090
G01 X12.3299 Y5.2370
G01 X12.3512 Y5.2516
G01 X12.3880 Y5.2791
G01 X12.4077 Y5.2957
G01 X12.4355 Y5.3208
G01 X12.4479 Y5.3326
G01 X12.4597 Y5.3450
G01 X12.4848 Y5.3728
G01 X12.5014 Y5.3925
G01 X12.5339 Y5.4363
G01 X12.5480 Y5.4579
G01 X12.5672 Y5.4900
G01 X12.5757 Y5.5049
G01 X12.5834 Y5.5203
G01 X12.5994 Y5.5541
G01 X12.6095 Y5.5777
G01 X12.6279 Y5.6291
G01 X12.6351 Y5.6539
G01 X12.6442 Y5.6901
G01 X12.6480 Y5.7069
G01 X12.6509 Y5.7238
G01 X12.6564 Y5.7608
G01 X12.6592 Y5.7864
G01 X12.6616 Y5.8323
G01 X12.6620 Y5.8495
G01 X12.6619 Y6.6201
G01 X12.6597 Y6.6660
G01 X12.6585 Y6.6832
G01 X12.6564 Y6.7002
G01 X12.6509 Y6.7372
G01 X12.6480 Y6.7541
G01 X12.6442 Y6.7709
G01 X12.6329 Y6.8154
G01 X12.6279 Y6.8319
G01 X12.6125 Y6.8752
G01 X12.6064 Y6.8912
G01 X12.5994 Y6.9069
G01 X12.5834 Y6.9407
G01 X12.5757 Y6.9561
G01 X12.5672 Y6.9710
G01 X12.5435 Y7.0104
G01 X12.5339 Y7.0247
G01 X12.5066 Y7.0617
G01 X12.4961 Y7.0752
G01 X12.4848 Y7.0882
G01 X12.4539 Y7.1222
G01 X12.4417 Y7.1344
G01 X12.4077 Y7.1654
G01 X12.3947 Y7.1766
G01 X12.3812 Y7.1871
G01 X12.3512 Y7.2094
G01 X12.3371 Y7.2193
G01 X12.3226 Y7.2285
G01 X12.2905 Y7.2477
G01 X12.2756 Y7.2562
G01 X12.2602 Y7.2639
G01 X12.2264 Y7.2799
G01 X12.2107 Y7.2869
G01 X12.1947 Y7.2930
G01 X12.1595 Y7.3056
G01 X12.1432 Y7.3110
G01 X12.1266 Y7.3156
G01 X12.0820 Y7.3267
G01 X12.0652 Y7.3300
G01 X12.0197 Y7.3369
G01 X12.0027 Y7.3390
G01 X11.9855 Y7.3402
G01 X11.9482 Y7.3421
G00 Z1.7000
G00 X10.7880 Y14.9625
F60.00
G01 Z-0.2800
F100.00
G01 X10.7708 Y14.9621
G01 X10.7537 Y14.9608
G01 X10.7366 Y14.9587
G01 X10.7197 Y14.9558
G01 X10.7030 Y14.9520
G01 X10.6864 Y14.9474
G01 X10.6701 Y14.9420
G01 X10.6541 Y14.9359
G01 X10.6384 Y14.9289
G01 X10.6230 Y14.9212
G01 X10.6008 Y14.9082
G01 X10.5865 Y14.8987
G01 X10.5727 Y14.8884
G01 X10.5594 Y14.8775
G01 X10.5467 Y14.8660
G01 X10.5345 Y14.8538
G01 X10.5230 Y14.8411
G01 X10.5121 Y14.8278
G01 X10.5018 Y14.8140
G01 X10.4923 Y14.7997
G01 X10.4835 Y14.7850
G01 X10.4716 Y14.7621
G01 X10.4615 Y14.7385
G01 X10.4557 Y14.7223
G01 X10.4507 Y14.7058
G01 X10.4465 Y14.6892
G01 X10.4432 Y14.6723
G01 X10.4406 Y14.6553
G01 X10.4389 Y14.6382
G01 X10.4380 Y14.6125
G01 X10.4380 Y13.0885
G01 X10.4384 Y13.0713
G01 X10.4397 Y13.0542
G01 X10.4418 Y13.0371
G01 X10.4465 Y13.0118
G01 X10.4531 Y12.9869
G01 X10.4585 Y12.9706
G01 X10.4646 Y12.9546
G01 X10.4754 Y12.9311
G01 X10.4878 Y12.9086
G01 X10.4970 Y12.8941
G01 X10.5069 Y12.8800
G01 X10.5230 Y12.8599
G01 X10.5345 Y12.8472
G01 X10.5530 Y12.8292
G01 X10.5660 Y12.8179
G01 X10.5865 Y12.8023
G01 X10.6008 Y12.7928
G01 X10.6230 Y12.7798
G01 X10.6462 Y12.7685
G01 X10.6620 Y12.7620
G01 X10.6782 Y12.7562
G01 X10.6947 Y12.7512
G01 X10.7113 Y12.7470
G01 X10.7366 Y12.7423
G01 X10.7623 Y12.7394
G01 X10.7794 Y12.7386
G01 X12.3206 Y12.7386
G01 X12.3463 Y12.7402
G01 X12.3718 Y12.7437
G01 X12.3887 Y12.7470
G01 X12.4136 Y12.7536
G01 X12.4299 Y12.7590
G01 X12.4538 Y12.7685
G01 X12.4770 Y12.7798
G01 X12.4949 Y12.7901
G01 X14.2500 Y12.7901
G01 X14.2672 Y12.7905
G01 X14.3407 Y12.7942
G01 X14.3664 Y12.7964
G01 X14.4477 Y12.8083
G01 X14.4647 Y12.8113
G01 X14.4814 Y12.8150
G01 X14.5529 Y12.8329
G01 X14.5694 Y12.8375
G01 X14.5857 Y12.8429
G01 X14.6551 Y12.8677
G01 X14.6790 Y12.8773
G01 X14.7534 Y12.9123
G01 X14.7687 Y12.9201
G01 X14.7837 Y12.9285
G01 X14.8468 Y12.9664
G01 X14.8613 Y12.9756
G01 X14.8754 Y12.9855
G01 X14.9345 Y13.0293
G01 X14.9481 Y13.0399
G01 X14.9611 Y13.0511
G01 X15.0219 Y13.1064
G01 X19.1372 Y17.2215
G01 X19.2444 Y17.2484
G01 X19.2609 Y17.2529
G01 X19.2772 Y17.2583
G01 X19.3789 Y17.2947
G01 X19.3949 Y17.3009
G01 X19.4106 Y17.3078
G01 X19.5082 Y17.3540
G01 X19.5235 Y17.3617
G01 X19.5385 Y17.3702
G01 X19.6311 Y17.4257
G01 X19.6456 Y17.4349
G01 X19.6596 Y17.4448
G01 X19.7463 Y17.5091
G01 X19.7599 Y17.5196
G01 X19.7729 Y17.5309
G01 X19.8529 Y17.6033
G01 X19.8653 Y17.6152
G01 X19.8772 Y17.6276
G01 X19.9553 Y17.7141
G01 X19.9714 Y17.7342
G01 X20.0357 Y17.8209
G01 X20.0456 Y17.8349
G01 X20.0548 Y17.8494
G01 X20.1103 Y17.9420
G01 X20.1188 Y17.9570
G01 X20.1265 Y17.9723
G01 X20.1727 Y18.0699
G01 X20.1796 Y18.0856
G01 X20.1858 Y18.1016
G01 X20.2222 Y18.2033
G01 X20.2276 Y18.2196
G01 X20.2321 Y18.2361
G01 X20.2584 Y18.3409
G01 X20.2621 Y18.3576
G01 X20.2651 Y18.3745
G01 X20.2809 Y18.4813
G01 X20.2830 Y18.4984
G01 X20.2843 Y18.5155
G01 X20.2896 Y18.6233
G01 X20.2900 Y18.6405
G01 X20.2896 Y18.6577
G01 X20.2843 Y18.7655
G01 X20.2830 Y18.7826
G01 X20.2809 Y18.7997
G01 X20.2651 Y18.9065
G01 X20.2621 Y18.9234
G01 X20.2584 Y18.9401
G01 X20.2321 Y19.0449
G01 X20.2276 Y19.0614
G01 X20.2222 Y19.0777
G01 X20.1858 Y19.1794
G01 X20.1762 Y19.2033
G01 X20.1265 Y19.3087
G01 X20.1188 Y19.3240
G01 X20.1103 Y19.3390
G01 X20.0548 Y19.4316
G01 X20.0456 Y19.4461
G01 X20.0357 Y19.4601
G01 X19.9714 Y19.5468
G01 X19.9609 Y19.5604
G01 X19.9496 Y19.5734
G01 X19.8772 Y19.6534
G01 X19.8653 Y19.6658
G01 X19.8529 Y19.6777
G01 X19.7729 Y19.7501
G01 X19.7599 Y19.7614
G01 X19.7463 Y19.7719
G01 X19.6596 Y19.8362
G01 X19.6456 Y19.8461
G01 X19.6311 Y19.8553
G01 X19.5385 Y19.9108
G01 X19.5235 Y19.9193
G01 X19.5082 Y19.9270
G01 X19.4106 Y19.9732
G01 X19.3949 Y19.9801
G01 X19.3789 Y19.9863
G01 X19.2772 Y20.0227
G01 X19.2609 Y20.0281
G01 X19.2444 Y20.0326
G01 X19.1396 Y20.0589
G01 X19.1229 Y20.0626
G01 X19.1060 Y20.0656
G01 X18.9992 Y20.0814
G01 X18.9821 Y20.0835
G01 X18.9650 Y20.0848
G01 X18.8572 Y20.0901
G01 X18.8400 Y20.0905
G01 X18.8228 Y20.0901
G01 X18.7150 Y20.0848
G01 X18.6979 Y20.0835
G01 X18.6808 Y20.0814
G01 X18.5740 Y20.0656
G01 X18.5571 Y20.0626
G01 X18.5404 Y20.0589
G01 X18.4356 Y20.0326
G01 X18.4191 Y20.0281
G01 X18.4028 Y20.0227
G01 X18.3011 Y19.9863
G01 X18.2772 Y19.9767
G01 X18.1718 Y19.9270
G01 X18.1565 Y19.9193
G01 X18.1415 Y19.9108
G01 X18.0489 Y19.8553
G01 X18.0344 Y19.8461
G01 X18.0204 Y19.8362
G01 X17.9337 Y19.7719
G01 X17.9201 Y19.7614
G01 X17.9071 Y19.7501
G01 X17.8271 Y19.6777
G01 X17.8147 Y19.6658
G01 X17.8028 Y19.6534
G01 X17.7304 Y19.5734
G01 X17.7191 Y19.5604
G01 X17.7086 Y19.5468
G01 X17.6443 Y19.4601
G01 X17.6297 Y19.4389
G01 X17.5697 Y19.3390
G01 X17.5612 Y19.3240
G01 X17.5535 Y19.3087
G01 X17.5073 Y19.2111
G01 X17.5004 Y19.1954
G01 X17.4942 Y19.1794
G01 X17.4578 Y19.0777
G01 X17.4500 Y19.0532
G01 X17.4216 Y18.9401
G01 X17.4179 Y18.9234
G01 X17.4149 Y18.9065
G01 X17.3979 Y18.7912
G01 X17.3957 Y18.7655
G01 X17.3901 Y18.6491
G01 X17.3901 Y18.6319
G01 X17.3921 Y18.5888
G01 X13.7942 Y14.9909
G01 X11.7500 Y14.9909
G01 X11.7328 Y14.9905
G01 X11.6593 Y14.9868
G01 X11.6336 Y14.9846
G01 X11.5438 Y14.9713
G01 X11.5269 Y14.9680
G01 X11.5047 Y14.9625
G01 X10.7880 Y14.9625
G00 Z1.7000
G00 X8.1250 Y26.3405
F60.00
G01 Z-0.2800
F100.00
G01 X8.1078 Y26.3401
G01 X8.0245 Y26.3360
G01 X8.0074 Y26.3347
G01 X7.9903 Y26.3326
G01 X7.9078 Y26.3204
G01 X7.8909 Y26.3174
G01 X7.8741 Y26.3137
G01 X7.7932 Y26.2934
G01 X7.7767 Y26.2888
G01 X7.7603 Y26.2834
G01 X7.6818 Y26.2553
G01 X7.6658 Y26.2492
G01 X7.6501 Y26.2422
G01 X7.5747 Y26.2065
G01 X7.5593 Y26.1988
G01 X7.5444 Y26.1903
G01 X7.4728 Y26.1475
G01 X7.4583 Y26.1383
G01 X7.4443 Y26.1284
G01 X7.3773 Y26.0787
G01 X7.3637 Y26.0681
G01 X7.3507 Y26.0569
G01 X7.2889 Y26.0009
G01 X7.2765 Y25.9890
G01 X7.2646 Y25.9766
G01 X7.2086 Y25.9148
G01 X7.1974 Y25.9018
G01 X7.1868 Y25.8882
G01 X7.1371 Y25.8212
G01 X7.1272 Y25.8072
G01 X7.1180 Y25.7927
G01 X7.0752 Y25.7211
G01 X7.0667 Y25.7062
G01 X7.0590 Y25.6908
G01 X7.0233 Y25.6154
G01 X7.0163 Y25.5997
G01 X7.0102 Y25.5837
G01 X6.9821 Y25.5052
G01 X6.9767 Y25.4888
G01 X6.9721 Y25.4723
G01 X6.9518 Y25.3914
G01 X6.9481 Y25.3746
G01 X6.9451 Y25.3577
G01 X6.9329 Y25.2752
G01 X6.9308 Y25.2581
G01 X6.9295 Y25.2410
G01 X6.9254 Y25.1577
G01 X6.9250 Y25.1405
G01 X6.9254 Y25.1233
G01 X6.9295 Y25.0400
G01 X6.9308 Y25.0229
G01 X6.9329 Y25.0058
G01 X6.9451 Y24.9233
G01 X6.9481 Y24.9064
G01 X6.9518 Y24.8896
G01 X6.9721 Y24.8087
G01 X6.9767 Y24.7922
G01 X6.9821 Y24.7758
G01 X7.0102 Y24.6973
G01 X7.0163 Y24.6813
G01 X7.0233 Y24.6656
G01 X7.0590 Y24.5902
G01 X7.0667 Y24.5748
G01 X7.0752 Y24.5599
G01 X7.1180 Y24.4883
G01 X7.1272 Y24.4738
G01 X7.1371 Y24.4598
G01 X7.1868 Y24.3928
G01 X7.1974 Y24.3792
G01 X7.2086 Y24.3662
G01 X7.2646 Y24.3044
G01 X7.2765 Y24.2920
G01 X7.2889 Y24.2801
G01 X7.3507 Y24.2241
G01 X7.3637 Y24.2129
G01 X7.3773 Y24.2023
G01 X7.4443 Y24.1526
G01 X7.4583 Y24.1427
G01 X7.4728 Y24.1335
G01 X7.5444 Y24.0907
G01 X7.5593 Y24.0822
G01 X7.5747 Y24.0745
G01 X7.6501 Y24.0388
G01 X7.6658 Y24.0318
G01 X7.6818 Y24.0257
G01 X7.7603 Y23.9976
G01 X7.7767 Y23.9922
G01 X7.7932 Y23.9876
G01 X7.8741 Y23.9673
G01 X7.8909 Y23.9636
G01 X7.9078 Y23.9606
G01 X7.9903 Y23.9484
G01 X8.0074 Y23.9463
G01 X8.0245 Y23.9450
G01 X8.1078 Y23.9409
G01 X8.1250 Y23.9405
G01 X8.3836 Y23.9406
G01 X8.4841 Y23.9455
G01 X8.5097 Y23.9484
G01 X8.5922 Y23.9606
G01 X8.6091 Y23.9636
G01 X8.6259 Y23.9673
G01 X8.7151 Y23.9898
G01 X8.7397 Y23.9976
G01 X8.8182 Y24.0257
G01 X8.8342 Y24.0318
G01 X8.8527 Y24.0401
G01 X9.5000 Y24.0401
G01 X9.5172 Y24.0405
G01 X9.5907 Y24.0442
G01 X9.6164 Y24.0464
G01 X9.6977 Y24.0583
G01 X9.7147 Y24.0613
G01 X9.7314 Y24.0650
G01 X9.8029 Y24.0829
G01 X9.8194 Y24.0875
G01 X9.8357 Y24.0929
G01 X9.9051 Y24.1177
G01 X9.9211 Y24.1239
G01 X9.9368 Y24.1308
G01 X10.0034 Y24.1623
G01 X10.0262 Y24.1742
G01 X10.0968 Y24.2164
G01 X10.1113 Y24.2256
G01 X10.1254 Y24.2355
G01 X10.1845 Y24.2793
G01 X10.2046 Y24.2954
G01 X10.2719 Y24.3564
G01 X12.2058 Y26.2901
G01 X15.3547 Y26.2901
G01 X15.3465 Y26.2818
G01 X15.3350 Y26.2691
G01 X15.3241 Y26.2558
G01 X15.3138 Y26.2420
G01 X15.3043 Y26.2277
G01 X15.2955 Y26.2130
G01 X15.2874 Y26.1979
G01 X15.2800 Y26.1823
G01 X15.2735 Y26.1665
G01 X15.2677 Y26.1503
G01 X15.2605 Y26.1255
G01 X15.2567 Y26.1088
G01 X15.2538 Y26.0919
G01 X15.2517 Y26.0748
G01 X15.2504 Y26.0577
G01 X15.2500 Y26.0405
G01 X15.2500 Y24.2405
G01 X15.2504 Y24.2233
G01 X15.2526 Y24.1977
G01 X15.2567 Y24.1722
G01 X15.2605 Y24.1555
G01 X15.2651 Y24.1389
G01 X15.2735 Y24.1145
G01 X15.2836 Y24.0909
G01 X15.2913 Y24.0755
G01 X15.3043 Y24.0533
G01 X15.3138 Y24.0390
G01 X15.3294 Y24.0185
G01 X15.3407 Y24.0055
G01 X15.3587 Y23.9870
G01 X15.3714 Y23.9755
G01 X15.3847 Y23.9646
G01 X15.3996 Y23.9536
G01 X15.3996 Y21.0963
G01 X13.7702 Y19.4669
G01 X3.3504 Y19.4669
G01 X3.3504 Y37.7901
G01 X5.8723 Y37.7901
G01 X5.8908 Y37.7818
G01 X5.9068 Y37.7757
G01 X5.9935 Y37.7448
G01 X6.0182 Y37.7376
G01 X6.0991 Y37.7173
G01 X6.1159 Y37.7136
G01 X6.1328 Y37.7106
G01 X6.2153 Y37.6984
G01 X6.2409 Y37.6955
G01 X6.3328 Y37.6909
G01 X6.3500 Y37.6905
G01 X6.6586 Y37.6906
G01 X6.7505 Y37.6950
G01 X6.7676 Y37.6963
G01 X6.7847 Y37.6984
G01 X6.8672 Y37.7106
G01 X6.8841 Y37.7136
G01 X6.9009 Y37.7173
G01 X6.9818 Y37.7376
G01 X6.9983 Y37.7422
G01 X7.0147 Y37.7476
G01 X7.0932 Y37.7757
G01 X7.1092 Y37.7818
G01 X7.1249 Y37.7888
G01 X7.2003 Y37.8245
G01 X7.2157 Y37.8322
G01 X7.2306 Y37.8407
G01 X7.3022 Y37.8835
G01 X7.3167 Y37.8927
G01 X7.3307 Y37.9026
G01 X7.4046 Y37.9575
G01 X7.4243 Y37.9741
G01 X7.4861 Y38.0301
G01 X7.4985 Y38.0420
G01 X7.5104 Y38.0544
G01 X7.5664 Y38.1162
G01 X7.5776 Y38.1292
G01 X7.5882 Y38.1428
G01 X7.6379 Y38.2098
G01 X7.6478 Y38.2238
G01 X7.6570 Y38.2383
G01 X7.6998 Y38.3099
G01 X7.7083 Y38.3248
G01 X7.7160 Y38.3402
G01 X7.7517 Y38.4156
G01 X7.7587 Y38.4313
G01 X7.7648 Y38.4473
G01 X7.7929 Y38.5258
G01 X7.7983 Y38.5422
G01 X7.8029 Y38.5587
G01 X7.8252 Y38.6480
G01 X7.8299 Y38.6733
G01 X7.8421 Y38.7558
G01 X7.8442 Y38.7729
G01 X7.8455 Y38.7900
G01 X7.8496 Y38.8733
G01 X7.8500 Y38.8905
G01 X7.8496 Y38.9077
G01 X7.8455 Y38.9910
G01 X7.8442 Y39.0081
G01 X7.8421 Y39.0252
G01 X7.8299 Y39.1077
G01 X7.8252 Y39.1330
G01 X7.8029 Y39.2223
G01 X7.7983 Y39.2388
G01 X7.7929 Y39.2552
G01 X7.7648 Y39.3337
G01 X7.7587 Y39.3497
G01 X7.7517 Y39.3654
G01 X7.7160 Y39.4408
G01 X7.7083 Y39.4562
G01 X7.6998 Y39.4711
G01 X7.6570 Y39.5427
G01 X7.6478 Y39.5572
G01 X7.6379 Y39.5712
G01 X7.5882 Y39.6382
G01 X7.5776 Y39.6518
G01 X7.5664 Y39.6648
G01 X7.5104 Y39.7266
G01 X7.4985 Y39.7390
G01 X7.4861 Y39.7509
G01 X7.4243 Y39.8069
G01 X7.4046 Y39.8235
G01 X7.3307 Y39.8784
G01 X7.3167 Y39.8883
G01 X7.3022 Y39.8975
G01 X7.2306 Y39.9403
G01 X7.2157 Y39.9488
G01 X7.2003 Y39.9565
G01 X7.1249 Y39.9922
G01 X7.1092 Y39.9992
G01 X7.0932 Y40.0053
G01 X7.0147 Y40.0334
G01 X6.9983 Y40.0388
G01 X6.9818 Y40.0434
G01 X6.9009 Y40.0637
G01 X6.8841 Y40.0674
G01 X6.8672 Y40.0704
G01 X6.7847 Y40.0826
G01 X6.7676 Y40.0847
G01 X6.7505 Y40.0860
G01 X6.6586 Y40.0904
G01 X6.3500 Y40.0905
G01 X6.3328 Y40.0901
G01 X6.2409 Y40.0855
G01 X6.2153 Y40.0826
G01 X6.1328 Y40.0704
G01 X6.1159 Y40.0674
G01 X6.0991 Y40.0637
G01 X6.0182 Y40.0434
G01 X5.9935 Y40.0362
G01 X5.9068 Y40.0053
G01 X5.8908 Y39.9992
G01 X5.8723 Y39.9909
G01 X3.3504 Y39.9909
G01 X3.3504 Y48.2901
G01 X5.6223 Y48.2901
G01 X5.6408 Y48.2818
G01 X5.6568 Y48.2757
G01 X5.7353 Y48.2476
G01 X5.7517 Y48.2422
G01 X5.7682 Y48.2376
G01 X5.8491 Y48.2173
G01 X5.8743 Y48.2120
G01 X5.9653 Y48.1984
G01 X5.9909 Y48.1955
G01 X6.0914 Y48.1906
G01 X6.1712 Y48.1905
G01 X6.0949 Y48.1633
G01 X6.0710 Y48.1537
G01 X5.9889 Y48.1149
G01 X5.9738 Y48.1068
G01 X5.9464 Y48.0905
G01 X5.5000 Y48.0905
G01 X5.4828 Y48.0901
G01 X5.4497 Y48.0883
G01 X5.4241 Y48.0855
G01 X5.3914 Y48.0805
G01 X5.3745 Y48.0772
G01 X5.3424 Y48.0692
G01 X5.3258 Y48.0647
G01 X5.3095 Y48.0593
G01 X5.2784 Y48.0480
G01 X5.2547 Y48.0379
G01 X5.2172 Y48.0197
G01 X5.1812 Y47.9986
G01 X5.1667 Y47.9894
G01 X5.1526 Y47.9795
G01 X5.1194 Y47.9543
G01 X5.0882 Y47.9266
G01 X5.0757 Y47.9148
G01 X5.0639 Y47.9023
G01 X5.0362 Y47.8711
G01 X5.0110 Y47.8379
G01 X4.9964 Y47.8166
G01 X4.9750 Y47.7809
G01 X4.9669 Y47.7657
G01 X4.9491 Y47.7280
G01 X4.9395 Y47.7041
G01 X4.9284 Y47.6729
G01 X4.9234 Y47.6564
G01 X4.9153 Y47.6243
G01 X4.9115 Y47.6076
G01 X4.9050 Y47.5664
G01 X4.9029 Y47.5493
G01 X4.9016 Y47.5322
G01 X4.9001 Y47.4991
G01 X4.9000 Y46.2905
G01 X4.9016 Y46.2488
G01 X4.9029 Y46.2317
G01 X4.9050 Y46.2146
G01 X4.9100 Y46.1819
G01 X4.9153 Y46.1567
G01 X4.9258 Y46.1163
G01 X4.9312 Y46.1000
G01 X4.9425 Y46.0689
G01 X4.9526 Y46.0452
G01 X4.9708 Y46.0077
G01 X4.9793 Y45.9927
G01 X4.9964 Y45.9644
G01 X5.0110 Y45.9431
G01 X5.0362 Y45.9099
G01 X5.0639 Y45.8787
G01 X5.0819 Y45.8602
G01 X5.1064 Y45.8379
G01 X5.1194 Y45.8267
G01 X5.1526 Y45.8015
G01 X5.1739 Y45.7869
G01 X5.2096 Y45.7655
G01 X5.2325 Y45.7536
G01 X5.2704 Y45.7362
G01 X5.3095 Y45.7217
G01 X5.3258 Y45.7163
G01 X5.3662 Y45.7058
G01 X5.3829 Y45.7020
G01 X5.4241 Y45.6955
G01 X5.4412 Y45.6934
G01 X5.4583 Y45.6921
G01 X5.4914 Y45.6906
G01 X7.0086 Y45.6906
G01 X7.0417 Y45.6921
G01 X7.0588 Y45.6934
G01 X7.1001 Y45.6991
G01 X7.1255 Y45.7038
G01 X7.1576 Y45.7118
G01 X7.1742 Y45.7163
G01 X7.1905 Y45.7217
G01 X7.2216 Y45.7330
G01 X7.2453 Y45.7431
G01 X7.2828 Y45.7613
G01 X7.2978 Y45.7698
G01 X7.3310 Y45.7901
G01 X9.3996 Y45.7901
G01 X9.3996 Y37.2409
G01 X7.7950 Y37.2409
G01 X7.7792 Y37.2733
G01 X7.7707 Y37.2883
G01 X7.7536 Y37.3166
G01 X7.7390 Y37.3379
G01 X7.7138 Y37.3711
G01 X7.7026 Y37.3841
G01 X7.6803 Y37.4086
G01 X7.6618 Y37.4266
G01 X7.6306 Y37.4543
G01 X7.6171 Y37.4649
G01 X7.5904 Y37.4845
G01 X7.5688 Y37.4986
G01 X7.5328 Y37.5197
G01 X7.5175 Y37.5274
G01 X7.4875 Y37.5414
G01 X7.4636 Y37.5510
G01 X7.4242 Y37.5647
G01 X7.4076 Y37.5692
G01 X7.3755 Y37.5772
G01 X7.3586 Y37.5805
G01 X7.3259 Y37.5855
G01 X7.3003 Y37.5883
G01 X7.2672 Y37.5901
G01 X7.2500 Y37.5905
G01 X5.7414 Y37.5904
G01 X5.7083 Y37.5889
G01 X5.6912 Y37.5876
G01 X5.6741 Y37.5855
G01 X5.6329 Y37.5790
G01 X5.6162 Y37.5752
G01 X5.5758 Y37.5647
G01 X5.5595 Y37.5593
G01 X5.5284 Y37.5480
G01 X5.5047 Y37.5379
G01 X5.4672 Y37.5197
G01 X5.4312 Y37.4986
G01 X5.4167 Y37.4894
G01 X5.3829 Y37.4649
G01 X5.3628 Y37.4488
G01 X5.3319 Y37.4208
G01 X5.3139 Y37.4023
G01 X5.2862 Y37.3711
G01 X5.2610 Y37.3379
G01 X5.2464 Y37.3166
G01 X5.2250 Y37.2809
G01 X5.2131 Y37.2580
G01 X5.1957 Y37.2201
G01 X5.1812 Y37.1810
G01 X5.1758 Y37.1647
G01 X5.1713 Y37.1481
G01 X5.1633 Y37.1160
G01 X5.1586 Y37.0906
G01 X5.1529 Y37.0493
G01 X5.1516 Y37.0322
G01 X5.1501 Y36.9991
G01 X5.1500 Y36.3467
G01 X4.7159 Y35.9124
G01 X4.6606 Y35.8516
G01 X4.6494 Y35.8386
G01 X4.6388 Y35.8250
G01 X4.5950 Y35.7659
G01 X4.5851 Y35.7518
G01 X4.5759 Y35.7373
G01 X4.5380 Y35.6742
G01 X4.5296 Y35.6592
G01 X4.5218 Y35.6439
G01 X4.4903 Y35.5773
G01 X4.4834 Y35.5616
G01 X4.4772 Y35.5456
G01 X4.4524 Y35.4762
G01 X4.4470 Y35.4599
G01 X4.4424 Y35.4434
G01 X4.4245 Y35.3719
G01 X4.4208 Y35.3552
G01 X4.4178 Y35.3382
G01 X4.4070 Y35.2654
G01 X4.4049 Y35.2484
G01 X4.4037 Y35.2312
G01 X4.4000 Y35.1577
G01 X4.3996 Y35.1405
G01 X4.3997 Y22.6319
G01 X4.4037 Y22.5498
G01 X4.4049 Y22.5326
G01 X4.4070 Y22.5156
G01 X4.4178 Y22.4428
G01 X4.4208 Y22.4258
G01 X4.4245 Y22.4091
G01 X4.4424 Y22.3376
G01 X4.4470 Y22.3211
G01 X4.4524 Y22.3048
G01 X4.4772 Y22.2354
G01 X4.4868 Y22.2115
G01 X4.5218 Y22.1371
G01 X4.5296 Y22.1218
G01 X4.5380 Y22.1068
G01 X4.5759 Y22.0437
G01 X4.5851 Y22.0292
G01 X4.5950 Y22.0151
G01 X4.6388 Y21.9560
G01 X4.6494 Y21.9424
G01 X4.6606 Y21.9294
G01 X4.7101 Y21.8749
G01 X4.7219 Y21.8624
G01 X4.7344 Y21.8506
G01 X4.7889 Y21.8011
G01 X4.8019 Y21.7899
G01 X4.8155 Y21.7793
G01 X4.8746 Y21.7355
G01 X4.8887 Y21.7256
G01 X4.9032 Y21.7164
G01 X4.9663 Y21.6785
G01 X4.9813 Y21.6701
G01 X4.9966 Y21.6623
G01 X5.0710 Y21.6273
G01 X5.0949 Y21.6177
G01 X5.1643 Y21.5929
G01 X5.1806 Y21.5875
G01 X5.1971 Y21.5829
G01 X5.2686 Y21.5650
G01 X5.2938 Y21.5597
G01 X5.3751 Y21.5475
G01 X5.3921 Y21.5454
G01 X5.4093 Y21.5442
G01 X5.4828 Y21.5405
G01 X5.5000 Y21.5401
G01 X7.1940 Y21.5401
G01 X7.2272 Y21.5198
G01 X7.2422 Y21.5113
G01 X7.2797 Y21.4931
G01 X7.3034 Y21.4830
G01 X7.3345 Y21.4717
G01 X7.3508 Y21.4663
G01 X7.3674 Y21.4618
G01 X7.3995 Y21.4538
G01 X7.4164 Y21.4505
G01 X7.4491 Y21.4455
G01 X7.4747 Y21.4427
G01 X7.5078 Y21.4409
G01 X7.5250 Y21.4405
G01 X8.9750 Y21.4405
G01 X9.0167 Y21.4421
G01 X9.0423 Y21.4443
G01 X9.0836 Y21.4505
G01 X9.1088 Y21.4558
G01 X9.1492 Y21.4663
G01 X9.1655 Y21.4717
G01 X9.1966 Y21.4830
G01 X9.2203 Y21.4931
G01 X9.2502 Y21.5074
G01 X9.2654 Y21.5155
G01 X9.2938 Y21.5324
G01 X9.3083 Y21.5416
G01 X9.3224 Y21.5515
G01 X9.3489 Y21.5713
G01 X9.3622 Y21.5822
G01 X9.3868 Y21.6044
G01 X9.4053 Y21.6224
G01 X9.4276 Y21.6469
G01 X9.4388 Y21.6599
G01 X9.4494 Y21.6734
G01 X9.4690 Y21.7001
G01 X9.4831 Y21.7217
G01 X9.5000 Y21.7501
G01 X9.5081 Y21.7653
G01 X9.5224 Y21.7952
G01 X9.5293 Y21.8109
G01 X9.5355 Y21.8269
G01 X9.5466 Y21.8581
G01 X9.5516 Y21.8746
G01 X9.5597 Y21.9067
G01 X9.5650 Y21.9319
G01 X9.5700 Y21.9646
G01 X9.5721 Y21.9817
G01 X9.5734 Y21.9988
G01 X9.5750 Y22.0405
G01 X9.5750 Y23.2405
G01 X9.5746 Y23.2577
G01 X9.5728 Y23.2908
G01 X9.5712 Y23.3078
G01 X9.5664 Y23.3406
G01 X9.5617 Y23.3660
G01 X9.5516 Y23.4064
G01 X9.5466 Y23.4229
G01 X9.5325 Y23.4621
G01 X9.5224 Y23.4858
G01 X9.5042 Y23.5233
G01 X9.4831 Y23.5593
G01 X9.4739 Y23.5738
G01 X9.4640 Y23.5879
G01 X9.4388 Y23.6211
G01 X9.4111 Y23.6523
G01 X9.3931 Y23.6708
G01 X9.3622 Y23.6988
G01 X9.3489 Y23.7097
G01 X9.3154 Y23.7345
G01 X9.2938 Y23.7486
G01 X9.2578 Y23.7697
G01 X9.2203 Y23.7879
G01 X9.1966 Y23.7980
G01 X9.1574 Y23.8121
G01 X9.1326 Y23.8192
G01 X9.0921 Y23.8290
G01 X9.0751 Y23.8319
G01 X9.0423 Y23.8367
G01 X9.0167 Y23.8389
G01 X8.9750 Y23.8405
G01 X7.5250 Y23.8405
G01 X7.5078 Y23.8401
G01 X7.4747 Y23.8383
G01 X7.4491 Y23.8355
G01 X7.4164 Y23.8305
G01 X7.3995 Y23.8272
G01 X7.3674 Y23.8192
G01 X7.3508 Y23.8147
G01 X7.3345 Y23.8093
G01 X7.3034 Y23.7980
G01 X7.2797 Y23.7879
G01 X7.2422 Y23.7697
G01 X7.2272 Y23.7612
G01 X7.1940 Y23.7409
G01 X6.6004 Y23.7409
G01 X6.6004 Y34.6847
G01 X6.9575 Y35.0418
G01 X6.9828 Y35.0405
G01 X7.0000 Y35.0401
G01 X9.3996 Y35.0401
G01 X9.3997 Y32.6319
G01 X9.4042 Y32.5412
G01 X9.4070 Y32.5156
G01 X9.4178 Y32.4428
G01 X9.4208 Y32.4258
G01 X9.4245 Y32.4091
G01 X9.4424 Y32.3376
G01 X9.4470 Y32.3211
G01 X9.4524 Y32.3048
G01 X9.4772 Y32.2354
G01 X9.4834 Y32.2194
G01 X9.4903 Y32.2037
G01 X9.5218 Y32.1371
G01 X9.5296 Y32.1218
G01 X9.5380 Y32.1068
G01 X9.5759 Y32.0437
G01 X9.5851 Y32.0292
G01 X9.5950 Y32.0151
G01 X9.6440 Y31.9491
G01 X9.6606 Y31.9294
G01 X9.7101 Y31.8749
G01 X9.7219 Y31.8624
G01 X9.7344 Y31.8506
G01 X9.7889 Y31.8011
G01 X9.8019 Y31.7899
G01 X9.8155 Y31.7793
G01 X9.8746 Y31.7355
G01 X9.8887 Y31.7256
G01 X9.9032 Y31.7164
G01 X9.9663 Y31.6785
G01 X9.9813 Y31.6701
G01 X9.9966 Y31.6623
G01 X10.0632 Y31.6308
G01 X10.0789 Y31.6239
G01 X10.0949 Y31.6177
G01 X10.1643 Y31.5929
G01 X10.1806 Y31.5875
G01 X10.1971 Y31.5829
G01 X10.2686 Y31.5650
G01 X10.2853 Y31.5613
G01 X10.3023 Y31.5583
G01 X10.3751 Y31.5475
G01 X10.3921 Y31.5454
G01 X10.4093 Y31.5442
G01 X10.4828 Y31.5405
G01 X10.5000 Y31.5401
G01 X24.0442 Y31.5401
G01 X24.7746 Y30.8097
G01 X24.7747 Y21.7569
G01 X24.7792 Y21.6662
G01 X24.7820 Y21.6406
G01 X24.7928 Y21.5678
G01 X24.7958 Y21.5508
G01 X24.7995 Y21.5341
G01 X24.8174 Y21.4626
G01 X24.8220 Y21.4461
G01 X24.8274 Y21.4298
G01 X24.8522 Y21.3604
G01 X24.8584 Y21.3444
G01 X24.8653 Y21.3287
G01 X24.8968 Y21.2621
G01 X24.9087 Y21.2393
G01 X24.9509 Y21.1687
G01 X24.9601 Y21.1542
G01 X24.9700 Y21.1401
G01 X25.0138 Y21.0810
G01 X25.0244 Y21.0674
G01 X25.0356 Y21.0544
G01 X25.0851 Y20.9999
G01 X25.0969 Y20.9874
G01 X27.5500 Y18.5343
G01 X27.5500 Y17.5405
G01 X27.5509 Y17.5148
G01 X27.5526 Y17.4977
G01 X27.5552 Y17.4807
G01 X27.5605 Y17.4555
G01 X27.5677 Y17.4307
G01 X27.5735 Y17.4145
G01 X27.5800 Y17.3987
G01 X27.5913 Y17.3755
G01 X27.5998 Y17.3606
G01 X27.6090 Y17.3461
G01 X27.6241 Y17.3252
G01 X27.6350 Y17.3119
G01 X27.6465 Y17.2992
G01 X27.6587 Y17.2870
G01 X27.6714 Y17.2755
G01 X27.6847 Y17.2646
G01 X27.6985 Y17.2543
G01 X27.7128 Y17.2448
G01 X27.7275 Y17.2360
G01 X27.7504 Y17.2241
G01 X27.7661 Y17.2171
G01 X27.7821 Y17.2110
G01 X27.8067 Y17.2032
G01 X27.8317 Y17.1972
G01 X27.8486 Y17.1943
G01 X27.8657 Y17.1922
G01 X27.8828 Y17.1909
G01 X27.9000 Y17.1905
G01 X28.6438 Y17.1905
G01 X31.6496 Y14.1847
G01 X31.6497 Y11.6319
G01 X31.6537 Y11.5498
G01 X31.6549 Y11.5326
G01 X31.6570 Y11.5156
G01 X31.6678 Y11.4428
G01 X31.6708 Y11.4258
G01 X31.6745 Y11.4091
G01 X31.6924 Y11.3376
G01 X31.6970 Y11.3211
G01 X31.7024 Y11.3048
G01 X31.7302 Y11.2274
G01 X31.7403 Y11.2037
G01 X31.7718 Y11.1371
G01 X31.7796 Y11.1218
G01 X31.7880 Y11.1068
G01 X31.8259 Y11.0437
G01 X31.8351 Y11.0292
G01 X31.8450 Y11.0151
G01 X31.8888 Y10.9560
G01 X31.8994 Y10.9424
G01 X31.9106 Y10.9294
G01 X31.9659 Y10.8686
G01 X33.4719 Y9.3624
G01 X33.4844 Y9.3506
G01 X33.5389 Y9.3011
G01 X33.5519 Y9.2899
G01 X33.5655 Y9.2793
G01 X33.6316 Y9.2304
G01 X33.6532 Y9.2164
G01 X33.7163 Y9.1785
G01 X33.7313 Y9.1701
G01 X33.7466 Y9.1623
G01 X33.8132 Y9.1308
G01 X33.8289 Y9.1239
G01 X33.8449 Y9.1177
G01 X33.9143 Y9.0929
G01 X33.9306 Y9.0875
G01 X33.9471 Y9.0829
G01 X34.0186 Y9.0650
G01 X34.0353 Y9.0613
G01 X34.0523 Y9.0583
G01 X34.1336 Y9.0464
G01 X34.1593 Y9.0442
G01 X34.2328 Y9.0405
G01 X34.2500 Y9.0401
G01 X38.5235 Y9.0401
G01 X38.5016 Y9.0158
G01 X38.4907 Y9.0025
G01 X38.4439 Y8.9394
G01 X38.4299 Y8.9178
G01 X38.3983 Y8.8652
G01 X38.3859 Y8.8426
G01 X38.3559 Y8.7794
G01 X38.3489 Y8.7637
G01 X38.3427 Y8.7477
G01 X38.3221 Y8.6899
G01 X38.3167 Y8.6736
G01 X38.3121 Y8.6571
G01 X38.2972 Y8.5975
G01 X38.2919 Y8.5723
G01 X38.2815 Y8.5031
G01 X38.2794 Y8.4861
G01 X38.2781 Y8.4690
G01 X38.2751 Y8.4077
G01 X38.2747 Y8.3905
G01 X38.2747 Y6.9632
G01 X38.2571 Y6.9393
G01 X38.2476 Y6.9250
G01 X38.1958 Y6.8387
G01 X38.1840 Y6.8158
G01 X38.1483 Y6.7404
G01 X38.1413 Y6.7247
G01 X38.1352 Y6.7087
G01 X38.1071 Y6.6302
G01 X38.0993 Y6.6056
G01 X38.0748 Y6.5080
G01 X38.0715 Y6.4912
G01 X38.0646 Y6.4454
G01 X38.0469 Y6.5160
G01 X38.0423 Y6.5325
G01 X38.0370 Y6.5488
G01 X38.0009 Y6.6493
G01 X37.9907 Y6.6730
G01 X37.9488 Y6.7618
G01 X37.9369 Y6.7846
G01 X37.8821 Y6.8763
G01 X37.8729 Y6.8908
G01 X37.8630 Y6.9048
G01 X37.8045 Y6.9837
G01 X37.7940 Y6.9972
G01 X37.7827 Y7.0103
G01 X37.7168 Y7.0830
G01 X37.6988 Y7.1014
G01 X37.6198 Y7.1732
G01 X37.6067 Y7.1845
G01 X37.5932 Y7.1950
G01 X37.5143 Y7.2535
G01 X37.5003 Y7.2634
G01 X37.4858 Y7.2726
G01 X37.4016 Y7.3231
G01 X37.3866 Y7.3315
G01 X37.3713 Y7.3393
G01 X37.2825 Y7.3812
G01 X37.2668 Y7.3882
G01 X37.2508 Y7.3944
G01 X37.1583 Y7.4275
G01 X37.1420 Y7.4328
G01 X37.1255 Y7.4374
G01 X37.0302 Y7.4613
G01 X37.0050 Y7.4666
G01 X36.8994 Y7.4824
G01 X36.8824 Y7.4845
G01 X36.8652 Y7.4858
G01 X36.7672 Y7.4906
G01 X36.7500 Y7.4910
G01 X32.0594 Y7.4910
G01 X29.7049 Y9.8454
G01 X29.6925 Y9.8573
G01 X29.6198 Y9.9232
G01 X29.6067 Y9.9345
G01 X29.5932 Y9.9450
G01 X29.5143 Y10.0035
G01 X29.5003 Y10.0134
G01 X29.4858 Y10.0226
G01 X29.4016 Y10.0731
G01 X29.3866 Y10.0815
G01 X29.3713 Y10.0893
G01 X29.2825 Y10.1312
G01 X29.2668 Y10.1382
G01 X29.2508 Y10.1444
G01 X29.1583 Y10.1775
G01 X29.1420 Y10.1828
G01 X29.1255 Y10.1874
G01 X29.0302 Y10.2113
G01 X29.0135 Y10.2151
G01 X28.9965 Y10.2180
G01 X28.8994 Y10.2324
G01 X28.8824 Y10.2345
G01 X28.8652 Y10.2358
G01 X28.7672 Y10.2406
G01 X28.7500 Y10.2410
G01 X12.1753 Y10.2410
G01 X12.2028 Y10.2510
G01 X12.2186 Y10.2575
G01 X12.2602 Y10.2771
G01 X12.2831 Y10.2890
G01 X12.3226 Y10.3125
G01 X12.3371 Y10.3217
G01 X12.3512 Y10.3316
G01 X12.3880 Y10.3591
G01 X12.4013 Y10.3700
G01 X12.4355 Y10.4008
G01 X12.4479 Y10.4126
G01 X12.4597 Y10.4250
G01 X12.4848 Y10.4528
G01 X12.4961 Y10.4658
G01 X12.5066 Y10.4793
G01 X12.5339 Y10.5163
G01 X12.5435 Y10.5306
G01 X12.5672 Y10.5700
G01 X12.5757 Y10.5849
G01 X12.5834 Y10.6003
G01 X12.5994 Y10.6341
G01 X12.6064 Y10.6498
G01 X12.6125 Y10.6658
G01 X12.6251 Y10.7010
G01 X12.6305 Y10.7173
G01 X12.6351 Y10.7339
G01 X12.6462 Y10.7785
G01 X12.6509 Y10.8038
G01 X12.6564 Y10.8408
G01 X12.6585 Y10.8578
G01 X12.6597 Y10.8750
G01 X12.6619 Y10.9209
G01 X12.6619 Y11.7001
G01 X12.6597 Y11.7460
G01 X12.6585 Y11.7632
G01 X12.6564 Y11.7802
G01 X12.6509 Y11.8172
G01 X12.6480 Y11.8341
G01 X12.6442 Y11.8509
G01 X12.6329 Y11.8954
G01 X12.6279 Y11.9119
G01 X12.6125 Y11.9552
G01 X12.6030 Y11.9791
G01 X12.5796 Y12.0285
G01 X12.5672 Y12.0510
G01 X12.5435 Y12.0904
G01 X12.5289 Y12.1117
G01 X12.5066 Y12.1417
G01 X12.4961 Y12.1552
G01 X12.4848 Y12.1682
G01 X12.4597 Y12.1960
G01 X12.4417 Y12.2144
G01 X12.4013 Y12.2510
G01 X12.3812 Y12.2671
G01 X12.3512 Y12.2894
G01 X12.3371 Y12.2993
G01 X12.3226 Y12.3085
G01 X12.2905 Y12.3277
G01 X12.2756 Y12.3362
G01 X12.2602 Y12.3439
G01 X12.2264 Y12.3599
G01 X12.2028 Y12.3700
G01 X12.1514 Y12.3884
G01 X12.1266 Y12.3956
G01 X12.0904 Y12.4047
G01 X12.0736 Y12.4085
G01 X12.0567 Y12.4114
G01 X12.0112 Y12.4180
G01 X11.9855 Y12.4202
G01 X11.9482 Y12.4221
G01 X11.9310 Y12.4225
G01 X11.6293 Y12.4225
G01 X11.5776 Y12.4409
G01 X11.5612 Y12.4459
G01 X11.4814 Y12.4660
G01 X11.4562 Y12.4713
G01 X11.3749 Y12.4835
G01 X11.3579 Y12.4856
G01 X11.3407 Y12.4868
G01 X11.2586 Y12.4908
G01 X6.7117 Y12.4909
G01 X6.6932 Y12.4992
G01 X6.6772 Y12.5053
G01 X6.5987 Y12.5334
G01 X6.5823 Y12.5388
G01 X6.5658 Y12.5434
G01 X6.4849 Y12.5637
G01 X6.4597 Y12.5690
G01 X6.3602 Y12.5838
G01 X6.3345 Y12.5860
G01 X6.2426 Y12.5904
G01 X6.0962 Y12.5905
G01 X6.0756 Y12.6111
G01 X6.0711 Y12.6405
G01 X6.0678 Y12.6574
G01 X6.0419 Y12.7610
G01 X6.0348 Y12.7857
G01 X5.9989 Y12.8863
G01 X5.9927 Y12.9023
G01 X5.9857 Y12.9180
G01 X5.9438 Y13.0068
G01 X5.9360 Y13.0221
G01 X5.9276 Y13.0371
G01 X5.8771 Y13.1213
G01 X5.8679 Y13.1358
G01 X5.8580 Y13.1498
G01 X5.7995 Y13.2287
G01 X5.7890 Y13.2422
G01 X5.7777 Y13.2553
G01 X5.7118 Y13.3280
G01 X5.6999 Y13.3404
G01 X5.6875 Y13.3523
G01 X5.6148 Y13.4182
G01 X5.6017 Y13.4295
G01 X5.5882 Y13.4400
G01 X5.5093 Y13.4985
G01 X5.4953 Y13.5084
G01 X5.4808 Y13.5176
G01 X5.3966 Y13.5681
G01 X5.3740 Y13.5805
G01 X5.2775 Y13.6262
G01 X5.2618 Y13.6332
G01 X5.2458 Y13.6394
G01 X5.1452 Y13.6753
G01 X5.1205 Y13.6824
G01 X5.0169 Y13.7083
G01 X5.0000 Y13.7116
G01 X4.9706 Y13.7161
G01 X3.3504 Y15.3363
G01 X3.3504 Y17.2661
G01 X14.2260 Y17.2661
G01 X14.2432 Y17.2665
G01 X14.3167 Y17.2702
G01 X14.3339 Y17.2714
G01 X14.3509 Y17.2735
G01 X14.4237 Y17.2843
G01 X14.4407 Y17.2873
G01 X14.4574 Y17.2910
G01 X14.5289 Y17.3089
G01 X14.5454 Y17.3135
G01 X14.5617 Y17.3189
G01 X14.6311 Y17.3437
G01 X14.6550 Y17.3533
G01 X14.7294 Y17.3883
G01 X14.7447 Y17.3961
G01 X14.7597 Y17.4045
G01 X14.8228 Y17.4424
G01 X14.8373 Y17.4516
G01 X14.8514 Y17.4615
G01 X14.9105 Y17.5053
G01 X14.9241 Y17.5159
G01 X14.9371 Y17.5271
G01 X14.9979 Y17.5824
G01 X17.2781 Y19.8624
G01 X17.2899 Y19.8749
G01 X17.3394 Y19.9294
G01 X17.3506 Y19.9424
G01 X17.3612 Y19.9560
G01 X17.4050 Y20.0151
G01 X17.4149 Y20.0292
G01 X17.4241 Y20.0437
G01 X17.4620 Y20.1068
G01 X17.4704 Y20.1218
G01 X17.4782 Y20.1371
G01 X17.5097 Y20.2037
G01 X17.5166 Y20.2194
G01 X17.5228 Y20.2354
G01 X17.5476 Y20.3048
G01 X17.5530 Y20.3211
G01 X17.5576 Y20.3376
G01 X17.5755 Y20.4091
G01 X17.5792 Y20.4258
G01 X17.5822 Y20.4428
G01 X17.5930 Y20.5156
G01 X17.5951 Y20.5326
G01 X17.5963 Y20.5498
G01 X17.6003 Y20.6319
G01 X17.6004 Y23.9536
G01 X17.6153 Y23.9646
G01 X17.6286 Y23.9755
G01 X17.6475 Y23.9930
G01 X17.6593 Y24.0055
G01 X17.6759 Y24.0252
G01 X17.6862 Y24.0390
G01 X17.6957 Y24.0533
G01 X17.7045 Y24.0680
G01 X17.7126 Y24.0831
G01 X17.7234 Y24.1066
G01 X17.7295 Y24.1226
G01 X17.7349 Y24.1389
G01 X17.7395 Y24.1555
G01 X17.7433 Y24.1722
G01 X17.7474 Y24.1977
G01 X17.7491 Y24.2148
G01 X17.7500 Y24.2405
G01 X17.7500 Y25.9343
G01 X17.8996 Y25.7847
G01 X17.8996 Y25.6504
G01 X17.8885 Y25.6267
G01 X17.8820 Y25.6109
G01 X17.8464 Y25.5115
G01 X17.8392 Y25.4868
G01 X17.8158 Y25.3928
G01 X17.8111 Y25.3674
G01 X17.7981 Y25.2801
G01 X17.7960 Y25.2630
G01 X17.7948 Y25.2459
G01 X17.7901 Y25.1491
G01 X17.7904 Y25.1233
G01 X17.7948 Y25.0351
G01 X17.7960 Y25.0180
G01 X17.7981 Y25.0009
G01 X17.8111 Y24.9136
G01 X17.8140 Y24.8966
G01 X17.8178 Y24.8799
G01 X17.8392 Y24.7942
G01 X17.8438 Y24.7776
G01 X17.8492 Y24.7613
G01 X17.8790 Y24.6782
G01 X17.8852 Y24.6621
G01 X17.8921 Y24.6464
G01 X17.9299 Y24.5666
G01 X17.9376 Y24.5513
G01 X17.9461 Y24.5363
G01 X17.9915 Y24.4606
G01 X18.0007 Y24.4460
G01 X18.0106 Y24.4320
G01 X18.0632 Y24.3611
G01 X18.0737 Y24.3475
G01 X18.0850 Y24.3345
G01 X18.1443 Y24.2691
G01 X18.1561 Y24.2566
G01 X18.1686 Y24.2448
G01 X18.2340 Y24.1855
G01 X18.2470 Y24.1742
G01 X18.2606 Y24.1637
G01 X18.3315 Y24.1111
G01 X18.3455 Y24.1012
G01 X18.3601 Y24.0920
G01 X18.4358 Y24.0466
G01 X18.4508 Y24.0381
G01 X18.4661 Y24.0304
G01 X18.5459 Y23.9926
G01 X18.5616 Y23.9857
G01 X18.5777 Y23.9795
G01 X18.6608 Y23.9497
G01 X18.6771 Y23.9443
G01 X18.6937 Y23.9397
G01 X18.7794 Y23.9183
G01 X18.8046 Y23.9129
G01 X18.9004 Y23.8986
G01 X18.9175 Y23.8965
G01 X18.9346 Y23.8953
G01 X19.0228 Y23.8909
G01 X19.0400 Y23.8905
G01 X19.0572 Y23.8909
G01 X19.1454 Y23.8953
G01 X19.1625 Y23.8965
G01 X19.1796 Y23.8986
G01 X19.2669 Y23.9116
G01 X19.2839 Y23.9145
G01 X19.3006 Y23.9183
G01 X19.3863 Y23.9397
G01 X19.4029 Y23.9443
G01 X19.4192 Y23.9497
G01 X19.5104 Y23.9825
G01 X19.5341 Y23.9926
G01 X19.6139 Y24.0304
G01 X19.6292 Y24.0381
G01 X19.6442 Y24.0466
G01 X19.7199 Y24.0920
G01 X19.7345 Y24.1012
G01 X19.7485 Y24.1111
G01 X19.8194 Y24.1637
G01 X19.8330 Y24.1742
G01 X19.8460 Y24.1855
G01 X19.9114 Y24.2448
G01 X19.9239 Y24.2566
G01 X19.9357 Y24.2691
G01 X19.9950 Y24.3345
G01 X20.0063 Y24.3475
G01 X20.0168 Y24.3611
G01 X20.0694 Y24.4320
G01 X20.0793 Y24.4460
G01 X20.0885 Y24.4606
G01 X20.1339 Y24.5363
G01 X20.1424 Y24.5513
G01 X20.1501 Y24.5666
G01 X20.1879 Y24.6464
G01 X20.1980 Y24.6701
G01 X20.2308 Y24.7613
G01 X20.2362 Y24.7776
G01 X20.2408 Y24.7942
G01 X20.2622 Y24.8799
G01 X20.2660 Y24.8966
G01 X20.2689 Y24.9136
G01 X20.2819 Y25.0009
G01 X20.2840 Y25.0180
G01 X20.2852 Y25.0351
G01 X20.2896 Y25.1233
G01 X20.2900 Y25.1405
G01 X20.2896 Y25.1577
G01 X20.2852 Y25.2459
G01 X20.2840 Y25.2630
G01 X20.2819 Y25.2801
G01 X20.2689 Y25.3674
G01 X20.2642 Y25.3928
G01 X20.2408 Y25.4868
G01 X20.2362 Y25.5034
G01 X20.2308 Y25.5197
G01 X20.2010 Y25.6028
G01 X20.1948 Y25.6189
G01 X20.1879 Y25.6346
G01 X20.1501 Y25.7144
G01 X20.1424 Y25.7297
G01 X20.1339 Y25.7447
G01 X20.1004 Y25.8007
G01 X20.1003 Y26.2491
G01 X20.0963 Y26.3312
G01 X20.0951 Y26.3484
G01 X20.0930 Y26.3654
G01 X20.0808 Y26.4467
G01 X20.0755 Y26.4719
G01 X20.0576 Y26.5434
G01 X20.0530 Y26.5599
G01 X20.0476 Y26.5762
G01 X20.0228 Y26.6456
G01 X20.0166 Y26.6616
G01 X20.0097 Y26.6773
G01 X19.9782 Y26.7439
G01 X19.9704 Y26.7592
G01 X19.9620 Y26.7742
G01 X19.9241 Y26.8373
G01 X19.9149 Y26.8518
G01 X19.9050 Y26.8659
G01 X19.8612 Y26.9250
G01 X19.8506 Y26.9386
G01 X19.8394 Y26.9516
G01 X19.7841 Y27.0124
G01 X18.6281 Y28.1686
G01 X18.6156 Y28.1804
G01 X18.5546 Y28.2356
G01 X18.5414 Y28.2465
G01 X18.5088 Y28.2708
G01 X18.5673 Y28.2854
G01 X18.5838 Y28.2900
G01 X18.6001 Y28.2954
G01 X18.6741 Y28.3219
G01 X18.6980 Y28.3314
G01 X18.7768 Y28.3686
G01 X18.7996 Y28.3804
G01 X18.8817 Y28.4296
G01 X18.9030 Y28.4442
G01 X18.9660 Y28.4910
G01 X18.9796 Y28.5015
G01 X18.9926 Y28.5128
G01 X19.0507 Y28.5655
G01 X19.0632 Y28.5773
G01 X19.0750 Y28.5898
G01 X19.1277 Y28.6479
G01 X19.1390 Y28.6609
G01 X19.1495 Y28.6745
G01 X19.1963 Y28.7375
G01 X19.2062 Y28.7516
G01 X19.2154 Y28.7661
G01 X19.2601 Y28.8409
G01 X19.2719 Y28.8637
G01 X19.3055 Y28.9347
G01 X19.3125 Y28.9504
G01 X19.3186 Y28.9664
G01 X19.3451 Y29.0404
G01 X19.3505 Y29.0567
G01 X19.3551 Y29.0732
G01 X19.3741 Y29.1494
G01 X19.3779 Y29.1661
G01 X19.3808 Y29.1831
G01 X19.3924 Y29.2607
G01 X19.3945 Y29.2778
G01 X19.3957 Y29.2949
G01 X19.3996 Y29.3733
G01 X19.4000 Y29.3905
G01 X19.3996 Y29.4077
G01 X19.3957 Y29.4861
G01 X19.3945 Y29.5032
G01 X19.3924 Y29.5203
G01 X19.3808 Y29.5979
G01 X19.3779 Y29.6149
G01 X19.3741 Y29.6316
G01 X19.3551 Y29.7078
G01 X19.3505 Y29.7243
G01 X19.3451 Y29.7406
G01 X19.3186 Y29.8146
G01 X19.3125 Y29.8306
G01 X19.3055 Y29.8463
G01 X19.2719 Y29.9173
G01 X19.2642 Y29.9326
G01 X19.2557 Y29.9476
G01 X19.2154 Y30.0149
G01 X19.2062 Y30.0294
G01 X19.1963 Y30.0435
G01 X19.1495 Y30.1065
G01 X19.1390 Y30.1201
G01 X19.1277 Y30.1331
G01 X19.0750 Y30.1912
G01 X19.0632 Y30.2037
G01 X19.0507 Y30.2155
G01 X18.9926 Y30.2682
G01 X18.9796 Y30.2795
G01 X18.9660 Y30.2900
G01 X18.9030 Y30.3368
G01 X18.8889 Y30.3467
G01 X18.8744 Y30.3559
G01 X18.8071 Y30.3962
G01 X18.7921 Y30.4047
G01 X18.7768 Y30.4124
G01 X18.7058 Y30.4460
G01 X18.6901 Y30.4530
G01 X18.6741 Y30.4591
G01 X18.6001 Y30.4856
G01 X18.5838 Y30.4910
G01 X18.5673 Y30.4956
G01 X18.4911 Y30.5146
G01 X18.4744 Y30.5184
G01 X18.4574 Y30.5213
G01 X18.3798 Y30.5329
G01 X18.3627 Y30.5350
G01 X18.3456 Y30.5362
G01 X18.2672 Y30.5401
G01 X18.2500 Y30.5405
G01 X18.2328 Y30.5401
G01 X18.1544 Y30.5362
G01 X18.1373 Y30.5350
G01 X18.1202 Y30.5329
G01 X18.0426 Y30.5213
G01 X18.0172 Y30.5166
G01 X17.9327 Y30.4956
G01 X17.9162 Y30.4910
G01 X17.8999 Y30.4856
G01 X17.8259 Y30.4591
G01 X17.8099 Y30.4530
G01 X17.7942 Y30.4460
G01 X17.7232 Y30.4124
G01 X17.7079 Y30.4047
G01 X17.6929 Y30.3962
G01 X17.6422 Y30.3658
G01 X9.7500 Y30.3658
G01 X9.7328 Y30.3654
G01 X9.6715 Y30.3624
G01 X9.6544 Y30.3611
G01 X9.6374 Y30.3590
G01 X9.5767 Y30.3500
G01 X9.5597 Y30.3471
G01 X9.5430 Y30.3433
G01 X9.4834 Y30.3284
G01 X9.4669 Y30.3238
G01 X9.4506 Y30.3184
G01 X9.3928 Y30.2978
G01 X9.3768 Y30.2916
G01 X9.3611 Y30.2846
G01 X9.3056 Y30.2584
G01 X9.2902 Y30.2506
G01 X9.2753 Y30.2422
G01 X9.2227 Y30.2106
G01 X9.2081 Y30.2014
G01 X9.1941 Y30.1916
G01 X9.1448 Y30.1550
G01 X9.1313 Y30.1444
G01 X9.1183 Y30.1332
G01 X9.0665 Y30.0861
G01 X7.7654 Y28.7852
G01 X7.6818 Y28.7553
G01 X7.6658 Y28.7492
G01 X7.6501 Y28.7422
G01 X7.5747 Y28.7065
G01 X7.5518 Y28.6947
G01 X7.4728 Y28.6475
G01 X7.4583 Y28.6383
G01 X7.4443 Y28.6284
G01 X7.3773 Y28.5787
G01 X7.3637 Y28.5681
G01 X7.3507 Y28.5569
G01 X7.2889 Y28.5009
G01 X7.2765 Y28.4890
G01 X7.2646 Y28.4766
G01 X7.2086 Y28.4148
G01 X7.1974 Y28.4018
G01 X7.1868 Y28.3882
G01 X7.1371 Y28.3212
G01 X7.1272 Y28.3072
G01 X7.1180 Y28.2927
G01 X7.0752 Y28.2211
G01 X7.0667 Y28.2062
G01 X7.0590 Y28.1908
G01 X7.0197 Y28.1076
G01 X7.0102 Y28.0837
G01 X6.9821 Y28.0052
G01 X6.9767 Y27.9888
G01 X6.9721 Y27.9723
G01 X6.9518 Y27.8914
G01 X6.9481 Y27.8746
G01 X6.9451 Y27.8577
G01 X6.9329 Y27.7752
G01 X6.9308 Y27.7581
G01 X6.9295 Y27.7410
G01 X6.9254 Y27.6577
G01 X6.9251 Y27.6319
G01 X6.9295 Y27.5400
G01 X6.9308 Y27.5229
G01 X6.9329 Y27.5058
G01 X6.9451 Y27.4233
G01 X6.9481 Y27.4064
G01 X6.9518 Y27.3896
G01 X6.9721 Y27.3087
G01 X6.9767 Y27.2922
G01 X6.9821 Y27.2758
G01 X7.0102 Y27.1973
G01 X7.0163 Y27.1813
G01 X7.0233 Y27.1656
G01 X7.0590 Y27.0902
G01 X7.0708 Y27.0673
G01 X7.1180 Y26.9883
G01 X7.1272 Y26.9738
G01 X7.1371 Y26.9598
G01 X7.1868 Y26.8928
G01 X7.1974 Y26.8792
G01 X7.2086 Y26.8662
G01 X7.2646 Y26.8044
G01 X7.2826 Y26.7860
G01 X7.3507 Y26.7241
G01 X7.3637 Y26.7129
G01 X7.3773 Y26.7023
G01 X7.4443 Y26.6526
G01 X7.4583 Y26.6427
G01 X7.4728 Y26.6335
G01 X7.5444 Y26.5907
G01 X7.5593 Y26.5822
G01 X7.5747 Y26.5745
G01 X7.6501 Y26.5388
G01 X7.6658 Y26.5318
G01 X7.6818 Y26.5257
G01 X7.7603 Y26.4976
G01 X7.7767 Y26.4922
G01 X7.7932 Y26.4876
G01 X7.8741 Y26.4673
G01 X7.8993 Y26.4620
G01 X7.9903 Y26.4484
G01 X8.0074 Y26.4463
G01 X8.0245 Y26.4450
G01 X8.1164 Y26.4406
G01 X8.3836 Y26.4406
G01 X8.4841 Y26.4455
G01 X8.5097 Y26.4484
G01 X8.5922 Y26.4606
G01 X8.6091 Y26.4636
G01 X8.6259 Y26.4673
G01 X8.7068 Y26.4876
G01 X8.7233 Y26.4922
G01 X8.7397 Y26.4976
G01 X8.8182 Y26.5257
G01 X8.8342 Y26.5318
G01 X8.8499 Y26.5388
G01 X8.9253 Y26.5745
G01 X8.9407 Y26.5822
G01 X8.9556 Y26.5907
G01 X9.0272 Y26.6335
G01 X9.0417 Y26.6427
G01 X9.0557 Y26.6526
G01 X9.1227 Y26.7023
G01 X9.1363 Y26.7129
G01 X9.1493 Y26.7241
G01 X9.2111 Y26.7801
G01 X9.2235 Y26.7920
G01 X9.2354 Y26.8044
G01 X9.2914 Y26.8662
G01 X9.3026 Y26.8792
G01 X9.3132 Y26.8928
G01 X9.3679 Y26.9667
G01 X9.3820 Y26.9883
G01 X9.4248 Y27.0599
G01 X9.4333 Y27.0748
G01 X9.4410 Y27.0902
G01 X9.4767 Y27.1656
G01 X9.4837 Y27.1813
G01 X9.4898 Y27.1973
G01 X9.5179 Y27.2758
G01 X9.5233 Y27.2922
G01 X9.5279 Y27.3087
G01 X9.5502 Y27.3980
G01 X9.5549 Y27.4233
G01 X9.5671 Y27.5058
G01 X9.5692 Y27.5229
G01 X9.5705 Y27.5400
G01 X9.5749 Y27.6319
G01 X9.5746 Y27.6577
G01 X9.5700 Y27.7496
G01 X9.5683 Y27.7667
G01 X9.5603 Y27.8215
G01 X10.1540 Y28.4152
G01 X11.3502 Y28.4152
G01 X11.3369 Y28.4103
G01 X11.3210 Y28.4037
G01 X11.2389 Y28.3649
G01 X11.2163 Y28.3525
G01 X11.1459 Y28.3101
G01 X11.1246 Y28.2955
G01 X11.0655 Y28.2517
G01 X11.0519 Y28.2411
G01 X11.0389 Y28.2299
G01 X10.9781 Y28.1746
G01 X9.0442 Y26.2409
G01 X8.8527 Y26.2409
G01 X8.8342 Y26.2492
G01 X8.8182 Y26.2553
G01 X8.7315 Y26.2862
G01 X8.7068 Y26.2934
G01 X8.6259 Y26.3137
G01 X8.6091 Y26.3174
G01 X8.5922 Y26.3204
G01 X8.5097 Y26.3326
G01 X8.4926 Y26.3347
G01 X8.4755 Y26.3360
G01 X8.3836 Y26.3404
G01 X8.1250 Y26.3405
G00 Z1.7000
G00 X11.3200 Y28.4000
F60.00
G01 Z-0.2800
F100.00
G01 X17.5800 Y28.4600
G01 X18.2400 Y28.3500
G01 X18.5300 Y28.2700
G00 Z1.7000
G00 X15.3300 Y26.2700
F60.00
G01 Z-0.2800
F100.00
G01 X15.3000 Y26.2700
G01 X15.5800 Y26.3600
G01 X17.3400 Y26.3300
G01 X17.7700 Y25.9100
G00 Z1.7000
G00 X21.3996 Y26.3763
F60.00
G01 Z-0.2800
F100.00
G01 X21.3446 Y26.3681
G01 X21.3277 Y26.3647
G01 X21.2337 Y26.3413
G01 X21.2090 Y26.3341
G01 X21.1177 Y26.3015
G01 X21.1016 Y26.2953
G01 X21.0859 Y26.2884
G01 X21.0061 Y26.2506
G01 X20.9832 Y26.2388
G01 X20.9001 Y26.1890
G01 X20.8855 Y26.1798
G01 X20.8715 Y26.1699
G01 X20.8006 Y26.1173
G01 X20.7870 Y26.1068
G01 X20.7740 Y26.0955
G01 X20.7086 Y26.0362
G01 X20.6961 Y26.0244
G01 X20.6843 Y26.0119
G01 X20.6250 Y25.9465
G01 X20.6084 Y25.9268
G01 X20.5506 Y25.8490
G01 X20.5407 Y25.8350
G01 X20.5315 Y25.8204
G01 X20.4861 Y25.7447
G01 X20.4776 Y25.7297
G01 X20.4699 Y25.7144
G01 X20.4321 Y25.6346
G01 X20.4252 Y25.6189
G01 X20.4190 Y25.6028
G01 X20.3892 Y25.5197
G01 X20.3838 Y25.5034
G01 X20.3792 Y25.4868
G01 X20.3578 Y25.4011
G01 X20.3540 Y25.3844
G01 X20.3511 Y25.3674
G01 X20.3381 Y25.2801
G01 X20.3360 Y25.2630
G01 X20.3348 Y25.2459
G01 X20.3304 Y25.1577
G01 X20.3300 Y25.1405
G01 X20.3304 Y25.1233
G01 X20.3348 Y25.0351
G01 X20.3370 Y25.0094
G01 X20.3511 Y24.9136
G01 X20.3540 Y24.8966
G01 X20.3578 Y24.8799
G01 X20.3792 Y24.7942
G01 X20.3838 Y24.7776
G01 X20.3892 Y24.7613
G01 X20.4190 Y24.6782
G01 X20.4252 Y24.6621
G01 X20.4321 Y24.6464
G01 X20.4699 Y24.5666
G01 X20.4776 Y24.5513
G01 X20.4861 Y24.5363
G01 X20.5315 Y24.4606
G01 X20.5407 Y24.4460
G01 X20.5506 Y24.4320
G01 X20.6032 Y24.3611
G01 X20.6137 Y24.3475
G01 X20.6250 Y24.3345
G01 X20.6843 Y24.2691
G01 X20.6961 Y24.2566
G01 X20.7086 Y24.2448
G01 X20.7740 Y24.1855
G01 X20.7870 Y24.1742
G01 X20.8006 Y24.1637
G01 X20.8715 Y24.1111
G01 X20.8855 Y24.1012
G01 X20.9001 Y24.0920
G01 X20.9758 Y24.0466
G01 X20.9908 Y24.0381
G01 X21.0061 Y24.0304
G01 X21.0859 Y23.9926
G01 X21.1016 Y23.9857
G01 X21.1177 Y23.9795
G01 X21.2008 Y23.9497
G01 X21.2171 Y23.9443
G01 X21.2337 Y23.9397
G01 X21.3194 Y23.9183
G01 X21.3361 Y23.9145
G01 X21.3531 Y23.9116
G01 X21.4404 Y23.8986
G01 X21.4575 Y23.8965
G01 X21.4746 Y23.8953
G01 X21.5628 Y23.8909
G01 X21.5800 Y23.8905
G01 X21.5972 Y23.8909
G01 X21.6854 Y23.8953
G01 X21.7111 Y23.8975
G01 X21.8069 Y23.9116
G01 X21.8239 Y23.9145
G01 X21.8406 Y23.9183
G01 X21.9263 Y23.9397
G01 X21.9510 Y23.9469
G01 X22.0423 Y23.9795
G01 X22.0584 Y23.9857
G01 X22.0741 Y23.9926
G01 X22.1539 Y24.0304
G01 X22.1692 Y24.0381
G01 X22.1842 Y24.0466
G01 X22.2599 Y24.0920
G01 X22.2745 Y24.1012
G01 X22.2885 Y24.1111
G01 X22.3594 Y24.1637
G01 X22.3730 Y24.1742
G01 X22.3860 Y24.1855
G01 X22.4577 Y24.2506
G01 X22.4757 Y24.2691
G01 X22.5350 Y24.3345
G01 X22.5463 Y24.3475
G01 X22.5568 Y24.3611
G01 X22.6145 Y24.4390
G01 X22.6240 Y24.4532
G01 X22.6320 Y24.4663
G01 X23.2781 Y25.1124
G01 X23.2899 Y25.1249
G01 X23.3394 Y25.1794
G01 X23.3560 Y25.1991
G01 X23.4101 Y25.2721
G01 X23.4241 Y25.2937
G01 X23.4620 Y25.3568
G01 X23.4704 Y25.3718
G01 X23.4782 Y25.3871
G01 X23.5097 Y25.4537
G01 X23.5166 Y25.4694
G01 X23.5228 Y25.4854
G01 X23.5476 Y25.5548
G01 X23.5530 Y25.5711
G01 X23.5576 Y25.5876
G01 X23.5755 Y25.6591
G01 X23.5808 Y25.6843
G01 X23.5930 Y25.7656
G01 X23.5951 Y25.7826
G01 X23.5963 Y25.7998
G01 X23.6000 Y25.8733
G01 X23.6004 Y25.8905
G01 X23.6004 Y29.1463
G01 X23.6051 Y29.1632
G01 X23.6241 Y29.2394
G01 X23.6279 Y29.2561
G01 X23.6308 Y29.2731
G01 X23.6424 Y29.3507
G01 X23.6445 Y29.3678
G01 X23.6457 Y29.3849
G01 X23.6499 Y29.4719
G01 X23.6496 Y29.4977
G01 X23.6457 Y29.5761
G01 X23.6445 Y29.5932
G01 X23.6424 Y29.6103
G01 X23.6308 Y29.6879
G01 X23.6279 Y29.7049
G01 X23.6241 Y29.7216
G01 X23.6051 Y29.7978
G01 X23.6005 Y29.8143
G01 X23.5951 Y29.8306
G01 X23.5686 Y29.9046
G01 X23.5625 Y29.9206
G01 X23.5555 Y29.9363
G01 X23.5219 Y30.0073
G01 X23.5142 Y30.0226
G01 X23.5057 Y30.0376
G01 X23.4654 Y30.1049
G01 X23.4562 Y30.1194
G01 X23.4463 Y30.1335
G01 X23.3995 Y30.1965
G01 X23.3834 Y30.2166
G01 X23.3250 Y30.2812
G01 X23.3132 Y30.2937
G01 X23.3007 Y30.3055
G01 X23.2426 Y30.3582
G01 X23.2296 Y30.3695
G01 X23.2160 Y30.3800
G01 X23.1530 Y30.4268
G01 X23.1389 Y30.4367
G01 X23.1244 Y30.4459
G01 X23.0571 Y30.4862
G01 X23.0421 Y30.4947
G01 X23.0268 Y30.5024
G01 X22.9558 Y30.5360
G01 X22.9401 Y30.5430
G01 X22.9241 Y30.5491
G01 X22.8501 Y30.5756
G01 X22.8338 Y30.5810
G01 X22.8173 Y30.5856
G01 X22.7411 Y30.6046
G01 X22.7244 Y30.6084
G01 X22.7074 Y30.6113
G01 X22.6298 Y30.6229
G01 X22.6127 Y30.6250
G01 X22.5956 Y30.6262
G01 X22.5172 Y30.6301
G01 X22.5000 Y30.6305
G01 X22.4828 Y30.6301
G01 X22.4044 Y30.6262
G01 X22.3873 Y30.6250
G01 X22.3702 Y30.6229
G01 X22.2926 Y30.6113
G01 X22.2756 Y30.6084
G01 X22.2589 Y30.6046
G01 X22.1827 Y30.5856
G01 X22.1662 Y30.5810
G01 X22.1499 Y30.5756
G01 X22.0759 Y30.5491
G01 X22.0599 Y30.5430
G01 X22.0442 Y30.5360
G01 X21.9655 Y30.4987
G01 X21.9429 Y30.4862
G01 X21.8756 Y30.4459
G01 X21.8611 Y30.4367
G01 X21.8470 Y30.4268
G01 X21.7840 Y30.3800
G01 X21.7704 Y30.3695
G01 X21.7574 Y30.3582
G01 X21.6993 Y30.3055
G01 X21.6868 Y30.2937
G01 X21.6750 Y30.2812
G01 X21.6223 Y30.2231
G01 X21.6110 Y30.2101
G01 X21.6005 Y30.1965
G01 X21.5537 Y30.1335
G01 X21.5438 Y30.1194
G01 X21.5346 Y30.1049
G01 X21.4943 Y30.0376
G01 X21.4858 Y30.0226
G01 X21.4781 Y30.0073
G01 X21.4445 Y29.9363
G01 X21.4375 Y29.9206
G01 X21.4314 Y29.9046
G01 X21.4049 Y29.8306
G01 X21.3995 Y29.8143
G01 X21.3949 Y29.7978
G01 X21.3739 Y29.7133
G01 X21.3692 Y29.6879
G01 X21.3576 Y29.6103
G01 X21.3555 Y29.5932
G01 X21.3543 Y29.5761
G01 X21.3504 Y29.4977
G01 X21.3500 Y29.4805
G01 X21.3504 Y29.4633
G01 X21.3543 Y29.3849
G01 X21.3555 Y29.3678
G01 X21.3576 Y29.3507
G01 X21.3692 Y29.2731
G01 X21.3721 Y29.2561
G01 X21.3759 Y29.2394
G01 X21.3949 Y29.1632
G01 X21.3996 Y29.1463
G01 X21.3996 Y26.3763
G00 Z1.7000
G00 X26.9700 Y30.5900
F60.00
G01 Z-0.2800
F100.00
G01 X26.9400 Y31.4200
G01 X26.8300 Y31.8000
G00 Z1.7000
G00 X26.8996 Y31.6655
F60.00
G01 Z-0.2800
F100.00
G01 X26.8948 Y31.6786
G01 X26.8882 Y31.6945
G01 X26.8494 Y31.7766
G01 X26.8370 Y31.7992
G01 X26.7946 Y31.8696
G01 X26.7800 Y31.8909
G01 X26.7362 Y31.9500
G01 X26.7256 Y31.9636
G01 X26.7144 Y31.9766
G01 X26.6591 Y32.0374
G01 X25.2781 Y33.4186
G01 X25.2656 Y33.4304
G01 X25.2111 Y33.4799
G01 X25.1981 Y33.4911
G01 X25.1845 Y33.5017
G01 X25.1184 Y33.5506
G01 X25.0968 Y33.5646
G01 X25.0337 Y33.6025
G01 X25.0187 Y33.6109
G01 X25.0034 Y33.6187
G01 X24.9368 Y33.6502
G01 X24.9211 Y33.6571
G01 X24.9051 Y33.6633
G01 X24.8357 Y33.6881
G01 X24.8194 Y33.6935
G01 X24.8029 Y33.6981
G01 X24.7314 Y33.7160
G01 X24.7147 Y33.7197
G01 X24.6977 Y33.7227
G01 X24.6164 Y33.7346
G01 X24.5907 Y33.7368
G01 X24.5172 Y33.7405
G01 X24.5000 Y33.7409
G01 X11.6004 Y33.7409
G01 X11.6004 Y57.1405
G01 X11.6000 Y57.1577
G01 X11.5963 Y57.2312
G01 X11.5951 Y57.2484
G01 X11.5930 Y57.2654
G01 X11.5822 Y57.3382
G01 X11.5792 Y57.3552
G01 X11.5755 Y57.3719
G01 X11.5576 Y57.4434
G01 X11.5504 Y57.4681
G01 X11.5228 Y57.5456
G01 X11.5166 Y57.5616
G01 X11.5097 Y57.5773
G01 X11.4782 Y57.6439
G01 X11.4704 Y57.6592
G01 X11.4620 Y57.6742
G01 X11.4241 Y57.7373
G01 X11.4149 Y57.7518
G01 X11.4050 Y57.7659
G01 X11.3612 Y57.8250
G01 X11.3451 Y57.8451
G01 X11.2841 Y57.9124
G01 X11.0281 Y58.1686
G01 X11.0156 Y58.1804
G01 X10.9611 Y58.2299
G01 X10.9481 Y58.2411
G01 X10.9345 Y58.2517
G01 X10.8754 Y58.2955
G01 X10.8613 Y58.3054
G01 X10.8468 Y58.3146
G01 X10.7837 Y58.3525
G01 X10.7611 Y58.3649
G01 X10.6868 Y58.4002
G01 X10.6711 Y58.4071
G01 X10.6551 Y58.4133
G01 X10.5776 Y58.4409
G01 X10.5529 Y58.4481
G01 X10.4814 Y58.4660
G01 X10.4647 Y58.4697
G01 X10.4477 Y58.4727
G01 X10.3749 Y58.4835
G01 X10.3579 Y58.4856
G01 X10.3407 Y58.4868
G01 X10.2672 Y58.4905
G01 X10.2500 Y58.4909
G01 X7.5450 Y58.4909
G01 X7.5292 Y58.5233
G01 X7.5207 Y58.5383
G01 X7.5036 Y58.5666
G01 X7.4890 Y58.5879
G01 X7.4692 Y58.6144
G01 X7.4583 Y58.6277
G01 X7.4361 Y58.6523
G01 X7.4243 Y58.6648
G01 X7.4118 Y58.6766
G01 X7.3872 Y58.6988
G01 X7.3739 Y58.7097
G01 X7.3474 Y58.7295
G01 X7.3261 Y58.7441
G01 X7.2978 Y58.7612
G01 X7.2828 Y58.7697
G01 X7.2453 Y58.7879
G01 X7.2216 Y58.7980
G01 X7.1905 Y58.8093
G01 X7.1742 Y58.8147
G01 X7.1576 Y58.8192
G01 X7.1255 Y58.8272
G01 X7.1086 Y58.8305
G01 X7.0759 Y58.8355
G01 X7.0503 Y58.8383
G01 X7.0172 Y58.8401
G01 X7.0000 Y58.8405
G01 X5.5000 Y58.8405
G01 X5.4583 Y58.8389
G01 X5.4412 Y58.8376
G01 X5.4241 Y58.8355
G01 X5.3914 Y58.8305
G01 X5.3662 Y58.8252
G01 X5.3258 Y58.8147
G01 X5.2864 Y58.8010
G01 X5.2625 Y58.7914
G01 X5.2325 Y58.7774
G01 X5.2172 Y58.7697
G01 X5.1812 Y58.7486
G01 X5.1596 Y58.7345
G01 X5.1261 Y58.7097
G01 X5.1064 Y58.6931
G01 X5.0757 Y58.6648
G01 X5.0474 Y58.6341
G01 X5.0308 Y58.6144
G01 X5.0060 Y58.5809
G01 X4.9919 Y58.5593
G01 X4.9708 Y58.5233
G01 X4.9631 Y58.5080
G01 X4.9491 Y58.4780
G01 X4.9425 Y58.4621
G01 X4.9284 Y58.4229
G01 X4.9234 Y58.4064
G01 X4.9133 Y58.3660
G01 X4.9100 Y58.3491
G01 X4.9038 Y58.3078
G01 X4.9022 Y58.2908
G01 X4.9001 Y58.2491
G01 X4.9000 Y57.0405
G01 X4.9004 Y57.0233
G01 X4.9022 Y56.9902
G01 X4.9050 Y56.9646
G01 X4.9115 Y56.9234
G01 X4.9213 Y56.8829
G01 X4.9284 Y56.8581
G01 X4.9425 Y56.8189
G01 X4.9526 Y56.7952
G01 X4.9708 Y56.7577
G01 X4.9919 Y56.7217
G01 X5.0060 Y56.7001
G01 X5.0256 Y56.6734
G01 X5.0362 Y56.6599
G01 X5.0639 Y56.6287
G01 X5.0819 Y56.6102
G01 X5.1128 Y56.5822
G01 X5.1329 Y56.5661
G01 X5.1667 Y56.5416
G01 X5.2022 Y56.5198
G01 X5.2248 Y56.5074
G01 X5.2547 Y56.4931
G01 X5.2704 Y56.4862
G01 X5.3095 Y56.4717
G01 X5.3258 Y56.4663
G01 X5.3424 Y56.4618
G01 X5.3745 Y56.4538
G01 X5.3914 Y56.4505
G01 X5.4241 Y56.4455
G01 X5.4497 Y56.4427
G01 X5.4914 Y56.4406
G01 X5.6964 Y56.4405
G01 X5.7238 Y56.4242
G01 X5.7389 Y56.4161
G01 X5.8210 Y56.3773
G01 X5.8449 Y56.3677
G01 X5.9143 Y56.3429
G01 X5.9306 Y56.3375
G01 X5.9471 Y56.3329
G01 X6.0186 Y56.3150
G01 X6.0353 Y56.3113
G01 X6.0523 Y56.3083
G01 X6.1251 Y56.2975
G01 X6.1421 Y56.2954
G01 X6.1593 Y56.2942
G01 X6.2328 Y56.2905
G01 X6.2500 Y56.2901
G01 X9.3996 Y56.2901
G01 X9.3996 Y47.9909
G01 X7.3310 Y47.9909
G01 X7.3188 Y47.9986
G01 X7.2904 Y48.0155
G01 X7.2675 Y48.0274
G01 X7.2296 Y48.0448
G01 X7.1905 Y48.0593
G01 X7.1659 Y48.0671
G01 X7.1255 Y48.0772
G01 X7.1001 Y48.0819
G01 X7.0759 Y48.0855
G01 X7.0584 Y48.0876
G01 X7.0262 Y48.1068
G01 X7.0111 Y48.1149
G01 X6.9290 Y48.1537
G01 X6.9051 Y48.1633
G01 X6.8357 Y48.1881
G01 X6.8112 Y48.1959
G01 X6.7231 Y48.2180
G01 X6.7062 Y48.2213
G01 X6.6817 Y48.2250
G01 X6.7318 Y48.2376
G01 X6.7483 Y48.2422
G01 X6.7647 Y48.2476
G01 X6.8512 Y48.2787
G01 X6.8749 Y48.2888
G01 X6.9503 Y48.3245
G01 X6.9732 Y48.3363
G01 X7.0522 Y48.3835
G01 X7.0667 Y48.3927
G01 X7.0807 Y48.4026
G01 X7.1477 Y48.4523
G01 X7.1613 Y48.4629
G01 X7.1743 Y48.4741
G01 X7.2361 Y48.5301
G01 X7.2545 Y48.5481
G01 X7.3164 Y48.6162
G01 X7.3276 Y48.6292
G01 X7.3382 Y48.6428
G01 X7.3879 Y48.7098
G01 X7.3978 Y48.7238
G01 X7.4070 Y48.7383
G01 X7.4498 Y48.8099
G01 X7.4583 Y48.8248
G01 X7.4660 Y48.8402
G01 X7.5017 Y48.9156
G01 X7.5087 Y48.9313
G01 X7.5148 Y48.9473
G01 X7.5429 Y49.0258
G01 X7.5483 Y49.0422
G01 X7.5529 Y49.0587
G01 X7.5732 Y49.1396
G01 X7.5785 Y49.1648
G01 X7.5921 Y49.2558
G01 X7.5942 Y49.2729
G01 X7.5955 Y49.2900
G01 X7.5996 Y49.3733
G01 X7.6000 Y49.3905
G01 X7.5996 Y49.4077
G01 X7.5955 Y49.4910
G01 X7.5942 Y49.5081
G01 X7.5921 Y49.5252
G01 X7.5799 Y49.6077
G01 X7.5769 Y49.6246
G01 X7.5732 Y49.6414
G01 X7.5529 Y49.7223
G01 X7.5483 Y49.7388
G01 X7.5429 Y49.7552
G01 X7.5148 Y49.8337
G01 X7.5087 Y49.8497
G01 X7.5017 Y49.8654
G01 X7.4660 Y49.9408
G01 X7.4583 Y49.9562
G01 X7.4498 Y49.9711
G01 X7.4070 Y50.0427
G01 X7.3978 Y50.0572
G01 X7.3879 Y50.0712
G01 X7.3382 Y50.1382
G01 X7.3276 Y50.1518
G01 X7.3164 Y50.1648
G01 X7.2604 Y50.2266
G01 X7.2485 Y50.2390
G01 X7.2361 Y50.2509
G01 X7.1743 Y50.3069
G01 X7.1613 Y50.3181
G01 X7.1477 Y50.3287
G01 X7.0807 Y50.3784
G01 X7.0595 Y50.3929
G01 X6.9806 Y50.4403
G01 X6.9657 Y50.4488
G01 X6.9503 Y50.4565
G01 X6.8749 Y50.4922
G01 X6.8592 Y50.4992
G01 X6.8432 Y50.5053
G01 X6.7647 Y50.5334
G01 X6.7483 Y50.5388
G01 X6.7318 Y50.5434
G01 X6.6509 Y50.5637
G01 X6.6341 Y50.5674
G01 X6.6172 Y50.5704
G01 X6.5347 Y50.5826
G01 X6.5176 Y50.5847
G01 X6.5005 Y50.5860
G01 X6.4086 Y50.5904
G01 X6.0914 Y50.5904
G01 X5.9995 Y50.5860
G01 X5.9738 Y50.5838
G01 X5.8828 Y50.5704
G01 X5.8659 Y50.5674
G01 X5.8491 Y50.5637
G01 X5.7599 Y50.5412
G01 X5.7353 Y50.5334
G01 X5.6568 Y50.5053
G01 X5.6408 Y50.4992
G01 X5.6223 Y50.4909
G01 X3.3504 Y50.4909
G01 X3.3504 Y59.0401
G01 X5.6223 Y59.0401
G01 X5.6408 Y59.0318
G01 X5.6568 Y59.0257
G01 X5.7353 Y58.9976
G01 X5.7599 Y58.9898
G01 X5.8491 Y58.9673
G01 X5.8659 Y58.9636
G01 X5.8828 Y58.9606
G01 X5.9738 Y58.9472
G01 X5.9995 Y58.9450
G01 X6.0914 Y58.9406
G01 X6.4000 Y58.9405
G01 X6.4172 Y58.9409
G01 X6.5005 Y58.9450
G01 X6.5176 Y58.9463
G01 X6.5347 Y58.9484
G01 X6.6172 Y58.9606
G01 X6.6341 Y58.9636
G01 X6.6509 Y58.9673
G01 X6.7318 Y58.9876
G01 X6.7483 Y58.9922
G01 X6.7647 Y58.9976
G01 X6.8432 Y59.0257
G01 X6.8592 Y59.0318
G01 X6.8777 Y59.0401
G01 X11.6496 Y59.0401
G01 X11.6496 Y35.1405
G01 X11.6500 Y35.1233
G01 X11.6537 Y35.0498
G01 X11.6549 Y35.0326
G01 X11.6570 Y35.0156
G01 X11.6678 Y34.9428
G01 X11.6708 Y34.9258
G01 X11.6745 Y34.9091
G01 X11.6924 Y34.8376
G01 X11.6970 Y34.8211
G01 X11.7024 Y34.8048
G01 X11.7272 Y34.7354
G01 X11.7368 Y34.7115
G01 X11.7718 Y34.6371
G01 X11.7796 Y34.6218
G01 X11.7880 Y34.6068
G01 X11.8259 Y34.5437
G01 X11.8351 Y34.5292
G01 X11.8450 Y34.5151
G01 X11.8888 Y34.4560
G01 X11.9049 Y34.4359
G01 X11.9601 Y34.3749
G01 X11.9781 Y34.3564
G01 X12.0454 Y34.2954
G01 X12.0655 Y34.2793
G01 X12.1246 Y34.2355
G01 X12.1387 Y34.2256
G01 X12.1532 Y34.2164
G01 X12.2163 Y34.1785
G01 X12.2389 Y34.1661
G01 X12.3132 Y34.1308
G01 X12.3289 Y34.1239
G01 X12.3449 Y34.1177
G01 X12.4143 Y34.0929
G01 X12.4306 Y34.0875
G01 X12.4471 Y34.0829
G01 X12.5186 Y34.0650
G01 X12.5353 Y34.0613
G01 X12.5523 Y34.0583
G01 X12.6251 Y34.0475
G01 X12.6421 Y34.0454
G01 X12.6593 Y34.0442
G01 X12.7414 Y34.0402
G01 X25.0442 Y34.0401
G01 X26.8996 Y32.1847
G01 X26.8996 Y31.6655
G00 Z1.7000
G00 X27.2985 Y35.2133
F60.00
G01 Z-0.2800
F100.00
G01 X27.3103 Y35.2009
G01 X29.5665 Y32.9449
G01 X29.6183 Y32.8978
G01 X29.6313 Y32.8866
G01 X29.6448 Y32.8760
G01 X29.6941 Y32.8394
G01 X29.7081 Y32.8296
G01 X29.7227 Y32.8204
G01 X29.7753 Y32.7888
G01 X29.7902 Y32.7804
G01 X29.8056 Y32.7726
G01 X29.8611 Y32.7464
G01 X29.8847 Y32.7362
G01 X29.9506 Y32.7126
G01 X29.9669 Y32.7072
G01 X29.9834 Y32.7026
G01 X30.0430 Y32.6877
G01 X30.0597 Y32.6839
G01 X30.0767 Y32.6810
G01 X30.1374 Y32.6720
G01 X30.1544 Y32.6699
G01 X30.1715 Y32.6686
G01 X30.2328 Y32.6656
G01 X30.2500 Y32.6652
G01 X30.5685 Y32.6652
G01 X30.5833 Y32.6547
G01 X30.5978 Y32.6455
G01 X30.6694 Y32.6027
G01 X30.6843 Y32.5942
G01 X30.6997 Y32.5865
G01 X30.7751 Y32.5508
G01 X30.7908 Y32.5438
G01 X30.8068 Y32.5377
G01 X30.8853 Y32.5096
G01 X30.9017 Y32.5042
G01 X30.9182 Y32.4996
G01 X30.9991 Y32.4793
G01 X31.0243 Y32.4740
G01 X31.1153 Y32.4604
G01 X31.1324 Y32.4583
G01 X31.1495 Y32.4570
G01 X31.2328 Y32.4529
G01 X31.2500 Y32.4525
G01 X31.2672 Y32.4529
G01 X31.3505 Y32.4570
G01 X31.3676 Y32.4583
G01 X31.3847 Y32.4604
G01 X31.4672 Y32.4726
G01 X31.4841 Y32.4756
G01 X31.5009 Y32.4793
G01 X31.5818 Y32.4996
G01 X31.5983 Y32.5042
G01 X31.6147 Y32.5096
G01 X31.6932 Y32.5377
G01 X31.7092 Y32.5438
G01 X31.7249 Y32.5508
G01 X31.8003 Y32.5865
G01 X31.8157 Y32.5942
G01 X31.8306 Y32.6027
G01 X31.9022 Y32.6455
G01 X31.9167 Y32.6547
G01 X31.9307 Y32.6646
G01 X31.9977 Y32.7143
G01 X32.0113 Y32.7249
G01 X32.0243 Y32.7361
G01 X32.0861 Y32.7921
G01 X32.0985 Y32.8040
G01 X32.1104 Y32.8164
G01 X32.1664 Y32.8782
G01 X32.1776 Y32.8912
G01 X32.1882 Y32.9048
G01 X32.2379 Y32.9718
G01 X32.2478 Y32.9858
G01 X32.2570 Y33.0003
G01 X32.2998 Y33.0719
G01 X32.3083 Y33.0868
G01 X32.3160 Y33.1022
G01 X32.3517 Y33.1776
G01 X32.3618 Y33.2013
G01 X32.3929 Y33.2878
G01 X32.3983 Y33.3042
G01 X32.4029 Y33.3207
G01 X32.4232 Y33.4016
G01 X32.4269 Y33.4184
G01 X32.4299 Y33.4353
G01 X32.4421 Y33.5178
G01 X32.4442 Y33.5349
G01 X32.4455 Y33.5520
G01 X32.4496 Y33.6353
G01 X32.4500 Y33.6525
G01 X32.4496 Y33.6697
G01 X32.4455 Y33.7530
G01 X32.4442 Y33.7701
G01 X32.4421 Y33.7872
G01 X32.4285 Y33.8782
G01 X32.4232 Y33.9034
G01 X32.4029 Y33.9843
G01 X32.3983 Y34.0008
G01 X32.3929 Y34.0172
G01 X32.3648 Y34.0957
G01 X32.3587 Y34.1117
G01 X32.3517 Y34.1274
G01 X32.3160 Y34.2028
G01 X32.3083 Y34.2182
G01 X32.2998 Y34.2331
G01 X32.2570 Y34.3047
G01 X32.2478 Y34.3192
G01 X32.2379 Y34.3332
G01 X32.1882 Y34.4002
G01 X32.1721 Y34.4203
G01 X32.1104 Y34.4886
G01 X32.0985 Y34.5010
G01 X32.0861 Y34.5129
G01 X32.0243 Y34.5689
G01 X32.0046 Y34.5855
G01 X31.9307 Y34.6404
G01 X31.9167 Y34.6503
G01 X31.9022 Y34.6595
G01 X31.8306 Y34.7023
G01 X31.8157 Y34.7108
G01 X31.8003 Y34.7185
G01 X31.7249 Y34.7542
G01 X31.7092 Y34.7612
G01 X31.6932 Y34.7673
G01 X31.6147 Y34.7954
G01 X31.5983 Y34.8008
G01 X31.5818 Y34.8054
G01 X31.5009 Y34.8257
G01 X31.4841 Y34.8294
G01 X31.4672 Y34.8324
G01 X31.3847 Y34.8446
G01 X31.3591 Y34.8475
G01 X31.2672 Y34.8521
G01 X31.2500 Y34.8525
G01 X31.2328 Y34.8521
G01 X31.1495 Y34.8480
G01 X31.1324 Y34.8467
G01 X31.1153 Y34.8446
G01 X31.0243 Y34.8310
G01 X30.9991 Y34.8257
G01 X30.9182 Y34.8054
G01 X30.9017 Y34.8008
G01 X30.8853 Y34.7954
G01 X30.8068 Y34.7673
G01 X30.7908 Y34.7612
G01 X30.7751 Y34.7542
G01 X30.6997 Y34.7185
G01 X30.6843 Y34.7108
G01 X30.6694 Y34.7023
G01 X30.6057 Y34.6641
G01 X28.6835 Y36.5861
G01 X28.6317 Y36.6332
G01 X28.6187 Y36.6444
G01 X28.6052 Y36.6550
G01 X28.5559 Y36.6916
G01 X28.5419 Y36.7014
G01 X28.5273 Y36.7106
G01 X28.4747 Y36.7422
G01 X28.4598 Y36.7506
G01 X28.4444 Y36.7584
G01 X28.3889 Y36.7846
G01 X28.3653 Y36.7948
G01 X28.2994 Y36.8184
G01 X28.2831 Y36.8238
G01 X28.2666 Y36.8284
G01 X28.2070 Y36.8433
G01 X28.1903 Y36.8471
G01 X28.1733 Y36.8500
G01 X28.1126 Y36.8590
G01 X28.0956 Y36.8611
G01 X28.0785 Y36.8624
G01 X28.0172 Y36.8654
G01 X27.9914 Y36.8657
G01 X27.9215 Y36.8624
G01 X27.9044 Y36.8611
G01 X27.8874 Y36.8590
G01 X27.8267 Y36.8500
G01 X27.8097 Y36.8471
G01 X27.7930 Y36.8433
G01 X27.7334 Y36.8284
G01 X27.7169 Y36.8238
G01 X27.7006 Y36.8184
G01 X27.6428 Y36.7978
G01 X27.6268 Y36.7916
G01 X27.6111 Y36.7846
G01 X27.5556 Y36.7584
G01 X27.5402 Y36.7506
G01 X27.5253 Y36.7422
G01 X27.4727 Y36.7106
G01 X27.4581 Y36.7014
G01 X27.4441 Y36.6916
G01 X27.3948 Y36.6550
G01 X27.3813 Y36.6444
G01 X27.3683 Y36.6332
G01 X27.3165 Y36.5861
G01 X27.2985 Y36.5677
G01 X27.2573 Y36.5222
G01 X27.2461 Y36.5092
G01 X27.2355 Y36.4957
G01 X27.1989 Y36.4464
G01 X27.1891 Y36.4324
G01 X27.1799 Y36.4178
G01 X27.1483 Y36.3652
G01 X27.1399 Y36.3503
G01 X27.1321 Y36.3349
G01 X27.1059 Y36.2794
G01 X27.0989 Y36.2637
G01 X27.0927 Y36.2477
G01 X27.0721 Y36.1899
G01 X27.0667 Y36.1736
G01 X27.0621 Y36.1571
G01 X27.0472 Y36.0975
G01 X27.0419 Y36.0723
G01 X27.0315 Y36.0031
G01 X27.0294 Y35.9861
G01 X27.0281 Y35.9690
G01 X27.0251 Y35.9077
G01 X27.0247 Y35.8905
G01 X27.0251 Y35.8733
G01 X27.0281 Y35.8120
G01 X27.0294 Y35.7949
G01 X27.0315 Y35.7779
G01 X27.0405 Y35.7172
G01 X27.0434 Y35.7002
G01 X27.0472 Y35.6835
G01 X27.0621 Y35.6239
G01 X27.0667 Y35.6074
G01 X27.0721 Y35.5911
G01 X27.0957 Y35.5252
G01 X27.1059 Y35.5016
G01 X27.1321 Y35.4461
G01 X27.1399 Y35.4307
G01 X27.1483 Y35.4158
G01 X27.1799 Y35.3632
G01 X27.1891 Y35.3486
G01 X27.1989 Y35.3346
G01 X27.2355 Y35.2853
G01 X27.2461 Y35.2718
G01 X27.2573 Y35.2588
G01 X27.2985 Y35.2133
G00 Z1.7000
G00 X27.2985 Y38.2133
F60.00
G01 Z-0.2800
F100.00
G01 X27.3103 Y38.2009
G01 X29.8103 Y35.7009
G01 X29.8228 Y35.6890
G01 X29.8683 Y35.6478
G01 X29.8813 Y35.6366
G01 X29.8948 Y35.6260
G01 X29.9511 Y35.5844
G01 X29.9727 Y35.5704
G01 X30.0253 Y35.5388
G01 X30.0479 Y35.5264
G01 X30.1111 Y35.4964
G01 X30.1268 Y35.4894
G01 X30.1428 Y35.4832
G01 X30.2006 Y35.4626
G01 X30.2169 Y35.4572
G01 X30.2334 Y35.4526
G01 X30.3013 Y35.4357
G01 X30.3220 Y35.4317
G01 X30.3336 Y35.4182
G01 X30.3896 Y35.3564
G01 X30.4015 Y35.3440
G01 X30.4139 Y35.3321
G01 X30.4757 Y35.2761
G01 X30.4887 Y35.2649
G01 X30.5023 Y35.2543
G01 X30.5693 Y35.2046
G01 X30.5833 Y35.1947
G01 X30.5978 Y35.1855
G01 X30.6694 Y35.1427
G01 X30.6919 Y35.1302
G01 X30.7751 Y35.0908
G01 X30.7908 Y35.0838
G01 X30.8068 Y35.0777
G01 X30.8853 Y35.0496
G01 X30.9017 Y35.0442
G01 X30.9182 Y35.0396
G01 X30.9991 Y35.0193
G01 X31.0159 Y35.0156
G01 X31.0328 Y35.0126
G01 X31.1153 Y35.0004
G01 X31.1324 Y34.9983
G01 X31.1495 Y34.9970
G01 X31.2328 Y34.9929
G01 X31.2500 Y34.9925
G01 X31.2672 Y34.9929
G01 X31.3505 Y34.9970
G01 X31.3676 Y34.9983
G01 X31.3847 Y35.0004
G01 X31.4672 Y35.0126
G01 X31.4841 Y35.0156
G01 X31.5009 Y35.0193
G01 X31.5818 Y35.0396
G01 X31.5983 Y35.0442
G01 X31.6147 Y35.0496
G01 X31.6932 Y35.0777
G01 X31.7092 Y35.0838
G01 X31.7249 Y35.0908
G01 X31.8003 Y35.1265
G01 X31.8157 Y35.1342
G01 X31.8306 Y35.1427
G01 X31.9022 Y35.1855
G01 X31.9167 Y35.1947
G01 X31.9307 Y35.2046
G01 X31.9977 Y35.2543
G01 X32.0113 Y35.2649
G01 X32.0243 Y35.2761
G01 X32.0861 Y35.3321
G01 X32.0985 Y35.3440
G01 X32.1104 Y35.3564
G01 X32.1664 Y35.4182
G01 X32.1776 Y35.4312
G01 X32.1882 Y35.4448
G01 X32.2379 Y35.5118
G01 X32.2478 Y35.5258
G01 X32.2570 Y35.5403
G01 X32.2998 Y35.6119
G01 X32.3123 Y35.6344
G01 X32.3517 Y35.7176
G01 X32.3587 Y35.7333
G01 X32.3648 Y35.7493
G01 X32.3929 Y35.8278
G01 X32.3983 Y35.8442
G01 X32.4029 Y35.8607
G01 X32.4232 Y35.9416
G01 X32.4269 Y35.9584
G01 X32.4299 Y35.9753
G01 X32.4421 Y36.0578
G01 X32.4442 Y36.0749
G01 X32.4455 Y36.0920
G01 X32.4496 Y36.1753
G01 X32.4499 Y36.2011
G01 X32.4455 Y36.2930
G01 X32.4442 Y36.3101
G01 X32.4421 Y36.3272
G01 X32.4299 Y36.4097
G01 X32.4269 Y36.4266
G01 X32.4232 Y36.4434
G01 X32.4029 Y36.5243
G01 X32.3983 Y36.5408
G01 X32.3929 Y36.5572
G01 X32.3648 Y36.6357
G01 X32.3587 Y36.6517
G01 X32.3517 Y36.6674
G01 X32.3160 Y36.7428
G01 X32.3042 Y36.7657
G01 X32.2570 Y36.8447
G01 X32.2478 Y36.8592
G01 X32.2379 Y36.8732
G01 X32.1882 Y36.9402
G01 X32.1776 Y36.9538
G01 X32.1664 Y36.9668
G01 X32.1045 Y37.0349
G01 X32.0861 Y37.0529
G01 X32.0243 Y37.1089
G01 X32.0113 Y37.1201
G01 X31.9977 Y37.1307
G01 X31.9307 Y37.1804
G01 X31.9167 Y37.1903
G01 X31.9022 Y37.1995
G01 X31.8306 Y37.2423
G01 X31.8157 Y37.2508
G01 X31.8003 Y37.2585
G01 X31.7249 Y37.2942
G01 X31.7092 Y37.3012
G01 X31.6932 Y37.3073
G01 X31.6147 Y37.3354
G01 X31.5901 Y37.3432
G01 X31.5009 Y37.3657
G01 X31.4841 Y37.3694
G01 X31.4672 Y37.3724
G01 X31.3847 Y37.3846
G01 X31.3591 Y37.3875
G01 X31.2586 Y37.3924
G01 X31.2328 Y37.3921
G01 X31.1495 Y37.3880
G01 X31.1324 Y37.3867
G01 X31.1153 Y37.3846
G01 X31.0328 Y37.3724
G01 X31.0159 Y37.3694
G01 X30.9997 Y37.3658
G01 X30.9040 Y37.3658
G01 X28.6835 Y39.5861
G01 X28.6317 Y39.6332
G01 X28.6187 Y39.6444
G01 X28.6052 Y39.6550
G01 X28.5559 Y39.6916
G01 X28.5419 Y39.7014
G01 X28.5273 Y39.7106
G01 X28.4747 Y39.7422
G01 X28.4521 Y39.7546
G01 X28.3889 Y39.7846
G01 X28.3732 Y39.7916
G01 X28.3572 Y39.7978
G01 X28.2994 Y39.8184
G01 X28.2831 Y39.8238
G01 X28.2666 Y39.8284
G01 X28.2070 Y39.8433
G01 X28.1903 Y39.8471
G01 X28.1733 Y39.8500
G01 X28.1126 Y39.8590
G01 X28.0956 Y39.8611
G01 X28.0785 Y39.8624
G01 X28.0086 Y39.8657
G01 X27.9828 Y39.8654
G01 X27.9215 Y39.8624
G01 X27.9044 Y39.8611
G01 X27.8874 Y39.8590
G01 X27.8267 Y39.8500
G01 X27.8013 Y39.8453
G01 X27.7334 Y39.8284
G01 X27.7169 Y39.8238
G01 X27.7006 Y39.8184
G01 X27.6428 Y39.7978
G01 X27.6268 Y39.7916
G01 X27.6111 Y39.7846
G01 X27.5556 Y39.7584
G01 X27.5402 Y39.7506
G01 X27.5253 Y39.7422
G01 X27.4653 Y39.7061
G01 X27.4441 Y39.6916
G01 X27.3948 Y39.6550
G01 X27.3813 Y39.6444
G01 X27.3683 Y39.6332
G01 X27.3228 Y39.5920
G01 X27.3103 Y39.5802
G01 X27.2985 Y39.5677
G01 X27.2516 Y39.5158
G01 X27.2355 Y39.4957
G01 X27.1989 Y39.4464
G01 X27.1891 Y39.4324
G01 X27.1799 Y39.4178
G01 X27.1483 Y39.3652
G01 X27.1399 Y39.3503
G01 X27.1321 Y39.3349
G01 X27.1059 Y39.2794
G01 X27.0989 Y39.2637
G01 X27.0927 Y39.2477
G01 X27.0721 Y39.1899
G01 X27.0667 Y39.1736
G01 X27.0621 Y39.1571
G01 X27.0472 Y39.0975
G01 X27.0434 Y39.0808
G01 X27.0405 Y39.0638
G01 X27.0315 Y39.0031
G01 X27.0294 Y38.9861
G01 X27.0281 Y38.9690
G01 X27.0251 Y38.9077
G01 X27.0247 Y38.8905
G01 X27.0251 Y38.8733
G01 X27.0281 Y38.8120
G01 X27.0294 Y38.7949
G01 X27.0315 Y38.7779
G01 X27.0419 Y38.7087
G01 X27.0472 Y38.6835
G01 X27.0621 Y38.6239
G01 X27.0667 Y38.6074
G01 X27.0721 Y38.5911
G01 X27.0927 Y38.5333
G01 X27.1023 Y38.5094
G01 X27.1321 Y38.4461
G01 X27.1399 Y38.4307
G01 X27.1483 Y38.4158
G01 X27.1799 Y38.3632
G01 X27.1891 Y38.3486
G01 X27.1989 Y38.3346
G01 X27.2355 Y38.2853
G01 X27.2461 Y38.2718
G01 X27.2573 Y38.2588
G01 X27.2985 Y38.2133
G00 Z1.7000
G00 X31.7976 Y37.6652
F60.00
G01 Z-0.2800
F100.00
G01 X33.2424 Y37.6652
G01 X33.3151 Y37.6308
G01 X33.3308 Y37.6238
G01 X33.3468 Y37.6177
G01 X33.4253 Y37.5896
G01 X33.4499 Y37.5818
G01 X33.5391 Y37.5593
G01 X33.5559 Y37.5556
G01 X33.5728 Y37.5526
G01 X33.6553 Y37.5404
G01 X33.6724 Y37.5383
G01 X33.6895 Y37.5370
G01 X33.7728 Y37.5329
G01 X33.7900 Y37.5325
G01 X33.8072 Y37.5329
G01 X33.8905 Y37.5370
G01 X33.9076 Y37.5383
G01 X33.9247 Y37.5404
G01 X34.0072 Y37.5526
G01 X34.0241 Y37.5556
G01 X34.0409 Y37.5593
G01 X34.1301 Y37.5818
G01 X34.1547 Y37.5896
G01 X34.2332 Y37.6177
G01 X34.2492 Y37.6238
G01 X34.2649 Y37.6308
G01 X34.3376 Y37.6652
G01 X34.8460 Y37.6652
G01 X38.0665 Y34.4449
G01 X38.1247 Y34.3921
G01 X38.1448 Y34.3760
G01 X38.1941 Y34.3394
G01 X38.2081 Y34.3296
G01 X38.2227 Y34.3204
G01 X38.2753 Y34.2888
G01 X38.2902 Y34.2804
G01 X38.3056 Y34.2726
G01 X38.3611 Y34.2464
G01 X38.3768 Y34.2394
G01 X38.3928 Y34.2332
G01 X38.4506 Y34.2126
G01 X38.4751 Y34.2048
G01 X38.5430 Y34.1877
G01 X38.5597 Y34.1839
G01 X38.5767 Y34.1810
G01 X38.6374 Y34.1720
G01 X38.6630 Y34.1691
G01 X38.7414 Y34.1653
G01 X40.2404 Y34.1652
G01 X40.2829 Y34.1452
G01 X40.2988 Y34.1387
G01 X40.3853 Y34.1076
G01 X40.4099 Y34.0998
G01 X40.4991 Y34.0773
G01 X40.5159 Y34.0736
G01 X40.5328 Y34.0706
G01 X40.6238 Y34.0572
G01 X40.6495 Y34.0550
G01 X40.7328 Y34.0509
G01 X40.7500 Y34.0505
G01 X40.7672 Y34.0509
G01 X40.8505 Y34.0550
G01 X40.8676 Y34.0563
G01 X40.8847 Y34.0584
G01 X40.9672 Y34.0706
G01 X40.9841 Y34.0736
G01 X41.0009 Y34.0773
G01 X41.0818 Y34.0976
G01 X41.0983 Y34.1022
G01 X41.1147 Y34.1076
G01 X41.1932 Y34.1357
G01 X41.2092 Y34.1418
G01 X41.2249 Y34.1488
G01 X41.3003 Y34.1845
G01 X41.3157 Y34.1922
G01 X41.3306 Y34.2007
G01 X41.4022 Y34.2435
G01 X41.4167 Y34.2527
G01 X41.4307 Y34.2626
G01 X41.4977 Y34.3123
G01 X41.5113 Y34.3229
G01 X41.5243 Y34.3341
G01 X41.5861 Y34.3901
G01 X41.5985 Y34.4020
G01 X41.6104 Y34.4144
G01 X41.6664 Y34.4762
G01 X41.6776 Y34.4892
G01 X41.6882 Y34.5028
G01 X41.7379 Y34.5698
G01 X41.7478 Y34.5838
G01 X41.7570 Y34.5983
G01 X41.7998 Y34.6699
G01 X41.8083 Y34.6848
G01 X41.8160 Y34.7002
G01 X41.8517 Y34.7756
G01 X41.8587 Y34.7913
G01 X41.8648 Y34.8073
G01 X41.8929 Y34.8858
G01 X41.9007 Y34.9104
G01 X41.9232 Y34.9996
G01 X41.9269 Y35.0164
G01 X41.9299 Y35.0333
G01 X41.9421 Y35.1158
G01 X41.9442 Y35.1329
G01 X41.9455 Y35.1500
G01 X41.9496 Y35.2333
G01 X41.9500 Y35.2505
G01 X41.9496 Y35.2677
G01 X41.9455 Y35.3510
G01 X41.9442 Y35.3681
G01 X41.9421 Y35.3852
G01 X41.9299 Y35.4677
G01 X41.9252 Y35.4930
G01 X41.9029 Y35.5823
G01 X41.8983 Y35.5988
G01 X41.8929 Y35.6152
G01 X41.8648 Y35.6937
G01 X41.8587 Y35.7097
G01 X41.8517 Y35.7254
G01 X41.8123 Y35.8086
G01 X41.7998 Y35.8311
G01 X41.7570 Y35.9027
G01 X41.7478 Y35.9172
G01 X41.7379 Y35.9312
G01 X41.6882 Y35.9982
G01 X41.6776 Y36.0118
G01 X41.6664 Y36.0248
G01 X41.6104 Y36.0866
G01 X41.5985 Y36.0990
G01 X41.5861 Y36.1109
G01 X41.5243 Y36.1669
G01 X41.5113 Y36.1781
G01 X41.4977 Y36.1887
G01 X41.4307 Y36.2384
G01 X41.4167 Y36.2483
G01 X41.4022 Y36.2575
G01 X41.3232 Y36.3047
G01 X41.3003 Y36.3165
G01 X41.2249 Y36.3522
G01 X41.2092 Y36.3592
G01 X41.1932 Y36.3653
G01 X41.1147 Y36.3934
G01 X41.0901 Y36.4012
G01 X41.0009 Y36.4237
G01 X40.9841 Y36.4274
G01 X40.9672 Y36.4304
G01 X40.8847 Y36.4426
G01 X40.8676 Y36.4447
G01 X40.8505 Y36.4460
G01 X40.7672 Y36.4501
G01 X40.7500 Y36.4505
G01 X40.7328 Y36.4501
G01 X40.6495 Y36.4460
G01 X40.6324 Y36.4447
G01 X40.6153 Y36.4426
G01 X40.5243 Y36.4290
G01 X40.4991 Y36.4237
G01 X40.4182 Y36.4034
G01 X40.4017 Y36.3988
G01 X40.3853 Y36.3934
G01 X40.3068 Y36.3653
G01 X40.2829 Y36.3558
G01 X40.1997 Y36.3165
G01 X40.1843 Y36.3088
G01 X40.1694 Y36.3003
G01 X40.0978 Y36.2575
G01 X40.0833 Y36.2483
G01 X40.0693 Y36.2384
G01 X40.0023 Y36.1887
G01 X39.9887 Y36.1781
G01 X39.9757 Y36.1669
G01 X39.9194 Y36.1158
G01 X39.1540 Y36.1158
G01 X35.9335 Y39.3361
G01 X35.8753 Y39.3889
G01 X35.8552 Y39.4050
G01 X35.8059 Y39.4416
G01 X35.7919 Y39.4514
G01 X35.7773 Y39.4606
G01 X35.7247 Y39.4922
G01 X35.7098 Y39.5006
G01 X35.6944 Y39.5084
G01 X35.6389 Y39.5346
G01 X35.6232 Y39.5416
G01 X35.6072 Y39.5478
G01 X35.5494 Y39.5684
G01 X35.5249 Y39.5762
G01 X35.4487 Y39.5953
G01 X35.4233 Y39.6000
G01 X35.3626 Y39.6090
G01 X35.3456 Y39.6111
G01 X35.3285 Y39.6124
G01 X35.2672 Y39.6154
G01 X35.2500 Y39.6158
G01 X34.6008 Y39.6158
G01 X34.5578 Y39.6546
G01 X34.5446 Y39.6655
G01 X34.4707 Y39.7204
G01 X34.4495 Y39.7349
G01 X34.3706 Y39.7823
G01 X34.3557 Y39.7908
G01 X34.3403 Y39.7985
G01 X34.2649 Y39.8342
G01 X34.2412 Y39.8443
G01 X34.1547 Y39.8754
G01 X34.1383 Y39.8808
G01 X34.1218 Y39.8854
G01 X34.0409 Y39.9057
G01 X34.0241 Y39.9094
G01 X34.0072 Y39.9124
G01 X33.9247 Y39.9246
G01 X33.9076 Y39.9267
G01 X33.8905 Y39.9280
G01 X33.8072 Y39.9321
G01 X33.7900 Y39.9325
G01 X33.7728 Y39.9321
G01 X33.6895 Y39.9280
G01 X33.6724 Y39.9267
G01 X33.6553 Y39.9246
G01 X33.5728 Y39.9124
G01 X33.5559 Y39.9094
G01 X33.5391 Y39.9057
G01 X33.4582 Y39.8854
G01 X33.4417 Y39.8808
G01 X33.4253 Y39.8754
G01 X33.3388 Y39.8443
G01 X33.3151 Y39.8342
G01 X33.2397 Y39.7985
G01 X33.2243 Y39.7908
G01 X33.2094 Y39.7823
G01 X33.1305 Y39.7349
G01 X33.1093 Y39.7204
G01 X33.0354 Y39.6655
G01 X33.0222 Y39.6546
G01 X32.9792 Y39.6158
G01 X32.0608 Y39.6158
G01 X32.0178 Y39.6546
G01 X32.0046 Y39.6655
G01 X31.9307 Y39.7204
G01 X31.9095 Y39.7349
G01 X31.8306 Y39.7823
G01 X31.8157 Y39.7908
G01 X31.8003 Y39.7985
G01 X31.7171 Y39.8378
G01 X31.6932 Y39.8473
G01 X31.6147 Y39.8754
G01 X31.5983 Y39.8808
G01 X31.5818 Y39.8854
G01 X31.5009 Y39.9057
G01 X31.4841 Y39.9094
G01 X31.4672 Y39.9124
G01 X31.3847 Y39.9246
G01 X31.3591 Y39.9275
G01 X31.2672 Y39.9321
G01 X31.2500 Y39.9325
G01 X31.2328 Y39.9321
G01 X31.1495 Y39.9280
G01 X31.1324 Y39.9267
G01 X31.1153 Y39.9246
G01 X31.0328 Y39.9124
G01 X31.0159 Y39.9094
G01 X30.9991 Y39.9057
G01 X30.9182 Y39.8854
G01 X30.9017 Y39.8808
G01 X30.8853 Y39.8754
G01 X30.8068 Y39.8473
G01 X30.7908 Y39.8412
G01 X30.7751 Y39.8342
G01 X30.6997 Y39.7985
G01 X30.6843 Y39.7908
G01 X30.6694 Y39.7823
G01 X30.5978 Y39.7395
G01 X30.5833 Y39.7303
G01 X30.5693 Y39.7204
G01 X30.5023 Y39.6707
G01 X30.4887 Y39.6601
G01 X30.4757 Y39.6489
G01 X30.4139 Y39.5929
G01 X30.4015 Y39.5810
G01 X30.3896 Y39.5686
G01 X30.3336 Y39.5068
G01 X30.3224 Y39.4938
G01 X30.3118 Y39.4802
G01 X30.2621 Y39.4132
G01 X30.2522 Y39.3992
G01 X30.2430 Y39.3847
G01 X30.2002 Y39.3131
G01 X30.1917 Y39.2982
G01 X30.1840 Y39.2828
G01 X30.1483 Y39.2074
G01 X30.1413 Y39.1917
G01 X30.1352 Y39.1757
G01 X30.1071 Y39.0972
G01 X30.1017 Y39.0808
G01 X30.0971 Y39.0643
G01 X30.0768 Y38.9834
G01 X30.0731 Y38.9666
G01 X30.0701 Y38.9497
G01 X30.0579 Y38.8672
G01 X30.0558 Y38.8501
G01 X30.0545 Y38.8330
G01 X30.0504 Y38.7497
G01 X30.0500 Y38.7325
G01 X30.0504 Y38.7153
G01 X30.0545 Y38.6320
G01 X30.0558 Y38.6149
G01 X30.0579 Y38.5978
G01 X30.0701 Y38.5153
G01 X30.0731 Y38.4984
G01 X30.0768 Y38.4816
G01 X30.0971 Y38.4007
G01 X30.1017 Y38.3842
G01 X30.1071 Y38.3678
G01 X30.1352 Y38.2893
G01 X30.1413 Y38.2733
G01 X30.1483 Y38.2576
G01 X30.1840 Y38.1822
G01 X30.1917 Y38.1668
G01 X30.2002 Y38.1519
G01 X30.2430 Y38.0803
G01 X30.2522 Y38.0658
G01 X30.2621 Y38.0518
G01 X30.3118 Y37.9848
G01 X30.3224 Y37.9712
G01 X30.3336 Y37.9582
G01 X30.3896 Y37.8964
G01 X30.4015 Y37.8840
G01 X30.4139 Y37.8721
G01 X30.4757 Y37.8161
G01 X30.4887 Y37.8049
G01 X30.5023 Y37.7943
G01 X30.5693 Y37.7446
G01 X30.5833 Y37.7347
G01 X30.5978 Y37.7255
G01 X30.6694 Y37.6827
G01 X30.6843 Y37.6742
G01 X30.6997 Y37.6665
G01 X30.7751 Y37.6308
G01 X30.7908 Y37.6238
G01 X30.8068 Y37.6177
G01 X30.8853 Y37.5896
G01 X30.9017 Y37.5842
G01 X30.9182 Y37.5796
G01 X30.9991 Y37.5593
G01 X31.0159 Y37.5556
G01 X31.0328 Y37.5526
G01 X31.1153 Y37.5404
G01 X31.1324 Y37.5383
G01 X31.1495 Y37.5370
G01 X31.2328 Y37.5329
G01 X31.2500 Y37.5325
G01 X31.2672 Y37.5329
G01 X31.3505 Y37.5370
G01 X31.3676 Y37.5383
G01 X31.3847 Y37.5404
G01 X31.4672 Y37.5526
G01 X31.4841 Y37.5556
G01 X31.5009 Y37.5593
G01 X31.5818 Y37.5796
G01 X31.5983 Y37.5842
G01 X31.6147 Y37.5896
G01 X31.6932 Y37.6177
G01 X31.7092 Y37.6238
G01 X31.7249 Y37.6308
G01 X31.7976 Y37.6652
G00 Z1.7000
G00 X31.7426 Y42.3658
F60.00
G01 Z-0.2800
F100.00
G01 X31.7171 Y42.3778
G01 X31.6932 Y42.3873
G01 X31.6065 Y42.4182
G01 X31.5818 Y42.4254
G01 X31.5009 Y42.4457
G01 X31.4757 Y42.4510
G01 X31.3762 Y42.4658
G01 X31.3505 Y42.4680
G01 X31.2672 Y42.4721
G01 X31.2500 Y42.4725
G01 X31.2328 Y42.4721
G01 X31.1495 Y42.4680
G01 X31.1238 Y42.4658
G01 X31.0328 Y42.4524
G01 X31.0159 Y42.4494
G01 X30.9991 Y42.4457
G01 X30.9182 Y42.4254
G01 X30.9017 Y42.4208
G01 X30.8853 Y42.4154
G01 X30.8068 Y42.3873
G01 X30.7908 Y42.3812
G01 X30.7751 Y42.3742
G01 X30.6997 Y42.3385
G01 X30.6843 Y42.3308
G01 X30.6694 Y42.3223
G01 X30.5978 Y42.2795
G01 X30.5833 Y42.2703
G01 X30.5693 Y42.2604
G01 X30.5023 Y42.2107
G01 X30.4822 Y42.1946
G01 X30.4139 Y42.1329
G01 X30.4015 Y42.1210
G01 X30.3896 Y42.1086
G01 X30.3336 Y42.0468
G01 X30.3224 Y42.0338
G01 X30.3118 Y42.0202
G01 X30.2621 Y41.9532
G01 X30.2522 Y41.9392
G01 X30.2430 Y41.9247
G01 X30.2002 Y41.8531
G01 X30.1917 Y41.8382
G01 X30.1840 Y41.8228
G01 X30.1483 Y41.7474
G01 X30.1413 Y41.7317
G01 X30.1352 Y41.7157
G01 X30.1071 Y41.6372
G01 X30.1017 Y41.6208
G01 X30.0971 Y41.6043
G01 X30.0768 Y41.5234
G01 X30.0731 Y41.5066
G01 X30.0701 Y41.4897
G01 X30.0579 Y41.4072
G01 X30.0558 Y41.3901
G01 X30.0545 Y41.3730
G01 X30.0504 Y41.2897
G01 X30.0500 Y41.2725
G01 X30.0504 Y41.2553
G01 X30.0545 Y41.1720
G01 X30.0558 Y41.1549
G01 X30.0579 Y41.1378
G01 X30.0701 Y41.0553
G01 X30.0731 Y41.0384
G01 X30.0768 Y41.0216
G01 X30.0971 Y40.9407
G01 X30.1017 Y40.9242
G01 X30.1071 Y40.9078
G01 X30.1352 Y40.8293
G01 X30.1413 Y40.8133
G01 X30.1483 Y40.7976
G01 X30.1840 Y40.7222
G01 X30.1917 Y40.7068
G01 X30.2002 Y40.6919
G01 X30.2430 Y40.6203
G01 X30.2522 Y40.6058
G01 X30.2621 Y40.5918
G01 X30.3118 Y40.5248
G01 X30.3224 Y40.5112
G01 X30.3336 Y40.4982
G01 X30.3896 Y40.4364
G01 X30.4015 Y40.4240
G01 X30.4139 Y40.4121
G01 X30.4757 Y40.3561
G01 X30.4887 Y40.3449
G01 X30.5023 Y40.3343
G01 X30.5693 Y40.2846
G01 X30.5833 Y40.2747
G01 X30.5978 Y40.2655
G01 X30.6694 Y40.2227
G01 X30.6919 Y40.2102
G01 X30.7751 Y40.1708
G01 X30.7908 Y40.1638
G01 X30.8068 Y40.1577
G01 X30.8853 Y40.1296
G01 X30.9017 Y40.1242
G01 X30.9182 Y40.1196
G01 X30.9991 Y40.0993
G01 X31.0159 Y40.0956
G01 X31.0328 Y40.0926
G01 X31.1153 Y40.0804
G01 X31.1324 Y40.0783
G01 X31.1495 Y40.0770
G01 X31.2328 Y40.0729
G01 X31.2500 Y40.0725
G01 X31.2672 Y40.0729
G01 X31.3505 Y40.0770
G01 X31.3676 Y40.0783
G01 X31.3847 Y40.0804
G01 X31.4672 Y40.0926
G01 X31.4841 Y40.0956
G01 X31.5009 Y40.0993
G01 X31.5818 Y40.1196
G01 X31.5983 Y40.1242
G01 X31.6147 Y40.1296
G01 X31.7012 Y40.1607
G01 X31.7249 Y40.1708
G01 X31.8003 Y40.2065
G01 X31.8157 Y40.2142
G01 X31.8306 Y40.2227
G01 X31.9022 Y40.2655
G01 X31.9167 Y40.2747
G01 X31.9307 Y40.2846
G01 X31.9977 Y40.3343
G01 X32.0113 Y40.3449
G01 X32.0243 Y40.3561
G01 X32.0894 Y40.4152
G01 X32.9506 Y40.4152
G01 X33.0157 Y40.3561
G01 X33.0287 Y40.3449
G01 X33.0423 Y40.3343
G01 X33.1093 Y40.2846
G01 X33.1233 Y40.2747
G01 X33.1378 Y40.2655
G01 X33.2094 Y40.2227
G01 X33.2243 Y40.2142
G01 X33.2397 Y40.2065
G01 X33.3151 Y40.1708
G01 X33.3388 Y40.1607
G01 X33.4253 Y40.1296
G01 X33.4417 Y40.1242
G01 X33.4582 Y40.1196
G01 X33.5391 Y40.0993
G01 X33.5559 Y40.0956
G01 X33.5728 Y40.0926
G01 X33.6553 Y40.0804
G01 X33.6724 Y40.0783
G01 X33.6895 Y40.0770
G01 X33.7728 Y40.0729
G01 X33.7900 Y40.0725
G01 X33.8072 Y40.0729
G01 X33.8905 Y40.0770
G01 X33.9076 Y40.0783
G01 X33.9247 Y40.0804
G01 X34.0072 Y40.0926
G01 X34.0241 Y40.0956
G01 X34.0409 Y40.0993
G01 X34.1218 Y40.1196
G01 X34.1383 Y40.1242
G01 X34.1547 Y40.1296
G01 X34.2332 Y40.1577
G01 X34.2524 Y40.1652
G01 X35.3460 Y40.1652
G01 X38.3165 Y37.1949
G01 X38.3683 Y37.1478
G01 X38.3813 Y37.1366
G01 X38.3948 Y37.1260
G01 X38.4441 Y37.0894
G01 X38.4581 Y37.0796
G01 X38.4727 Y37.0704
G01 X38.5253 Y37.0388
G01 X38.5402 Y37.0304
G01 X38.5556 Y37.0226
G01 X38.6189 Y36.9928
G01 X38.6428 Y36.9832
G01 X38.7006 Y36.9626
G01 X38.7169 Y36.9572
G01 X38.7334 Y36.9526
G01 X38.7930 Y36.9377
G01 X38.8182 Y36.9324
G01 X38.8874 Y36.9220
G01 X38.9044 Y36.9199
G01 X38.9215 Y36.9186
G01 X38.9828 Y36.9156
G01 X39.0000 Y36.9152
G01 X39.9304 Y36.9152
G01 X39.9757 Y36.8741
G01 X39.9887 Y36.8629
G01 X40.0023 Y36.8523
G01 X40.0693 Y36.8026
G01 X40.0905 Y36.7881
G01 X40.1694 Y36.7407
G01 X40.1919 Y36.7282
G01 X40.2829 Y36.6852
G01 X40.3068 Y36.6757
G01 X40.3853 Y36.6476
G01 X40.4017 Y36.6422
G01 X40.4182 Y36.6376
G01 X40.4991 Y36.6173
G01 X40.5159 Y36.6136
G01 X40.5328 Y36.6106
G01 X40.6153 Y36.5984
G01 X40.6324 Y36.5963
G01 X40.6495 Y36.5950
G01 X40.7328 Y36.5909
G01 X40.7500 Y36.5905
G01 X40.7672 Y36.5909
G01 X40.8591 Y36.5955
G01 X40.8847 Y36.5984
G01 X40.9672 Y36.6106
G01 X40.9841 Y36.6136
G01 X41.0009 Y36.6173
G01 X41.0818 Y36.6376
G01 X41.0983 Y36.6422
G01 X41.1147 Y36.6476
G01 X41.1932 Y36.6757
G01 X41.2092 Y36.6818
G01 X41.2249 Y36.6888
G01 X41.3003 Y36.7245
G01 X41.3157 Y36.7322
G01 X41.3306 Y36.7407
G01 X41.4022 Y36.7835
G01 X41.4167 Y36.7927
G01 X41.4307 Y36.8026
G01 X41.4977 Y36.8523
G01 X41.5113 Y36.8629
G01 X41.5243 Y36.8741
G01 X41.5861 Y36.9301
G01 X41.5985 Y36.9420
G01 X41.6104 Y36.9544
G01 X41.6664 Y37.0162
G01 X41.6776 Y37.0292
G01 X41.6882 Y37.0428
G01 X41.7379 Y37.1098
G01 X41.7478 Y37.1238
G01 X41.7570 Y37.1383
G01 X41.7998 Y37.2099
G01 X41.8123 Y37.2324
G01 X41.8517 Y37.3156
G01 X41.8587 Y37.3313
G01 X41.8648 Y37.3473
G01 X41.8929 Y37.4258
G01 X41.8983 Y37.4422
G01 X41.9029 Y37.4587
G01 X41.9232 Y37.5396
G01 X41.9269 Y37.5564
G01 X41.9299 Y37.5733
G01 X41.9367 Y37.6195
G01 X41.9528 Y37.6835
G01 X41.9581 Y37.7087
G01 X41.9685 Y37.7779
G01 X41.9706 Y37.7949
G01 X41.9719 Y37.8120
G01 X41.9749 Y37.8733
G01 X41.9753 Y37.8905
G01 X41.9749 Y37.9077
G01 X41.9719 Y37.9690
G01 X41.9697 Y37.9946
G01 X41.9595 Y38.0638
G01 X41.9566 Y38.0808
G01 X41.9528 Y38.0975
G01 X41.9379 Y38.1571
G01 X41.9333 Y38.1736
G01 X41.9279 Y38.1899
G01 X41.9073 Y38.2477
G01 X41.9011 Y38.2637
G01 X41.8941 Y38.2794
G01 X41.8679 Y38.3349
G01 X41.8601 Y38.3503
G01 X41.8517 Y38.3652
G01 X41.8201 Y38.4178
G01 X41.8109 Y38.4324
G01 X41.8011 Y38.4464
G01 X41.7645 Y38.4957
G01 X41.7539 Y38.5092
G01 X41.7427 Y38.5222
G01 X41.7015 Y38.5677
G01 X41.6897 Y38.5802
G01 X41.6772 Y38.5920
G01 X41.6253 Y38.6389
G01 X41.6052 Y38.6550
G01 X41.5489 Y38.6966
G01 X41.5347 Y38.7061
G01 X41.4996 Y38.7273
G01 X41.4307 Y38.7784
G01 X41.4095 Y38.7929
G01 X41.3306 Y38.8403
G01 X41.3157 Y38.8488
G01 X41.3003 Y38.8565
G01 X41.2171 Y38.8958
G01 X41.1932 Y38.9053
G01 X41.1147 Y38.9334
G01 X41.0983 Y38.9388
G01 X41.0818 Y38.9434
G01 X41.0009 Y38.9637
G01 X40.9841 Y38.9674
G01 X40.9672 Y38.9704
G01 X40.8847 Y38.9826
G01 X40.8676 Y38.9847
G01 X40.8505 Y38.9860
G01 X40.7672 Y38.9901
G01 X40.7500 Y38.9905
G01 X40.7328 Y38.9901
G01 X40.6495 Y38.9860
G01 X40.6324 Y38.9847
G01 X40.6153 Y38.9826
G01 X40.5243 Y38.9690
G01 X40.4991 Y38.9637
G01 X40.4182 Y38.9434
G01 X40.3935 Y38.9362
G01 X40.3068 Y38.9053
G01 X40.2908 Y38.8992
G01 X40.2751 Y38.8922
G01 X40.2193 Y38.8658
G01 X39.4040 Y38.8658
G01 X36.4397 Y41.8302
G01 X36.4272 Y41.8420
G01 X36.3817 Y41.8832
G01 X36.3687 Y41.8944
G01 X36.3552 Y41.9050
G01 X36.3059 Y41.9416
G01 X36.2919 Y41.9514
G01 X36.2773 Y41.9606
G01 X36.2247 Y41.9922
G01 X36.2021 Y42.0046
G01 X36.1389 Y42.0346
G01 X36.1232 Y42.0416
G01 X36.1072 Y42.0478
G01 X36.0494 Y42.0684
G01 X36.0331 Y42.0738
G01 X36.0166 Y42.0784
G01 X35.9570 Y42.0933
G01 X35.9403 Y42.0971
G01 X35.9233 Y42.1000
G01 X35.8626 Y42.1090
G01 X35.8370 Y42.1119
G01 X35.7672 Y42.1154
G01 X35.7500 Y42.1158
G01 X34.6436 Y42.1158
G01 X34.6261 Y42.1329
G01 X34.5643 Y42.1889
G01 X34.5513 Y42.2001
G01 X34.5377 Y42.2107
G01 X34.4707 Y42.2604
G01 X34.4567 Y42.2703
G01 X34.4422 Y42.2795
G01 X34.3706 Y42.3223
G01 X34.3557 Y42.3308
G01 X34.3403 Y42.3385
G01 X34.2649 Y42.3742
G01 X34.2412 Y42.3843
G01 X34.1547 Y42.4154
G01 X34.1383 Y42.4208
G01 X34.1218 Y42.4254
G01 X34.0409 Y42.4457
G01 X34.0241 Y42.4494
G01 X34.0072 Y42.4524
G01 X33.9247 Y42.4646
G01 X33.8991 Y42.4675
G01 X33.8072 Y42.4721
G01 X33.7900 Y42.4725
G01 X33.7728 Y42.4721
G01 X33.6895 Y42.4680
G01 X33.6638 Y42.4658
G01 X33.5643 Y42.4510
G01 X33.5391 Y42.4457
G01 X33.4582 Y42.4254
G01 X33.4335 Y42.4182
G01 X33.3388 Y42.3843
G01 X33.3229 Y42.3778
G01 X33.2974 Y42.3658
G01 X31.7426 Y42.3658
G00 Z1.7000
G00 X31.8247 Y44.8658
F60.00
G01 Z-0.2800
F100.00
G01 X31.8157 Y44.8708
G01 X31.8003 Y44.8785
G01 X31.7249 Y44.9142
G01 X31.7092 Y44.9212
G01 X31.6932 Y44.9273
G01 X31.6147 Y44.9554
G01 X31.5983 Y44.9608
G01 X31.5818 Y44.9654
G01 X31.5009 Y44.9857
G01 X31.4841 Y44.9894
G01 X31.4672 Y44.9924
G01 X31.3847 Y45.0046
G01 X31.3676 Y45.0067
G01 X31.3505 Y45.0080
G01 X31.2672 Y45.0121
G01 X31.2500 Y45.0125
G01 X31.2328 Y45.0121
G01 X31.1495 Y45.0080
G01 X31.1324 Y45.0067
G01 X31.1153 Y45.0046
G01 X31.0328 Y44.9924
G01 X31.0159 Y44.9894
G01 X30.9991 Y44.9857
G01 X30.9182 Y44.9654
G01 X30.9017 Y44.9608
G01 X30.8853 Y44.9554
G01 X30.8068 Y44.9273
G01 X30.7908 Y44.9212
G01 X30.7751 Y44.9142
G01 X30.6997 Y44.8785
G01 X30.6843 Y44.8708
G01 X30.6694 Y44.8623
G01 X30.5978 Y44.8195
G01 X30.5833 Y44.8103
G01 X30.5693 Y44.8004
G01 X30.5023 Y44.7507
G01 X30.4887 Y44.7401
G01 X30.4757 Y44.7289
G01 X30.4139 Y44.6729
G01 X30.4015 Y44.6610
G01 X30.3896 Y44.6486
G01 X30.3336 Y44.5868
G01 X30.3224 Y44.5738
G01 X30.3118 Y44.5602
G01 X30.2621 Y44.4932
G01 X30.2522 Y44.4792
G01 X30.2430 Y44.4647
G01 X30.2002 Y44.3931
G01 X30.1917 Y44.3782
G01 X30.1840 Y44.3628
G01 X30.1483 Y44.2874
G01 X30.1413 Y44.2717
G01 X30.1352 Y44.2557
G01 X30.1071 Y44.1772
G01 X30.1017 Y44.1608
G01 X30.0971 Y44.1443
G01 X30.0768 Y44.0634
G01 X30.0731 Y44.0466
G01 X30.0701 Y44.0297
G01 X30.0579 Y43.9472
G01 X30.0558 Y43.9301
G01 X30.0545 Y43.9130
G01 X30.0504 Y43.8297
G01 X30.0500 Y43.8125
G01 X30.0504 Y43.7953
G01 X30.0545 Y43.7120
G01 X30.0558 Y43.6949
G01 X30.0579 Y43.6778
G01 X30.0701 Y43.5953
G01 X30.0731 Y43.5784
G01 X30.0768 Y43.5616
G01 X30.0971 Y43.4807
G01 X30.1017 Y43.4642
G01 X30.1071 Y43.4478
G01 X30.1352 Y43.3693
G01 X30.1413 Y43.3533
G01 X30.1483 Y43.3376
G01 X30.1840 Y43.2622
G01 X30.1917 Y43.2468
G01 X30.2002 Y43.2319
G01 X30.2430 Y43.1603
G01 X30.2522 Y43.1458
G01 X30.2621 Y43.1318
G01 X30.3118 Y43.0648
G01 X30.3224 Y43.0512
G01 X30.3336 Y43.0382
G01 X30.3896 Y42.9764
G01 X30.4015 Y42.9640
G01 X30.4139 Y42.9521
G01 X30.4757 Y42.8961
G01 X30.4887 Y42.8849
G01 X30.5023 Y42.8743
G01 X30.5693 Y42.8246
G01 X30.5833 Y42.8147
G01 X30.5978 Y42.8055
G01 X30.6694 Y42.7627
G01 X30.6843 Y42.7542
G01 X30.6997 Y42.7465
G01 X30.7751 Y42.7108
G01 X30.7908 Y42.7038
G01 X30.8068 Y42.6977
G01 X30.8853 Y42.6696
G01 X30.9017 Y42.6642
G01 X30.9182 Y42.6596
G01 X30.9991 Y42.6393
G01 X31.0159 Y42.6356
G01 X31.0328 Y42.6326
G01 X31.1153 Y42.6204
G01 X31.1324 Y42.6183
G01 X31.1495 Y42.6170
G01 X31.2328 Y42.6129
G01 X31.2500 Y42.6125
G01 X31.2672 Y42.6129
G01 X31.3591 Y42.6175
G01 X31.3847 Y42.6204
G01 X31.4672 Y42.6326
G01 X31.4841 Y42.6356
G01 X31.5009 Y42.6393
G01 X31.5818 Y42.6596
G01 X31.5983 Y42.6642
G01 X31.6147 Y42.6696
G01 X31.6932 Y42.6977
G01 X31.7171 Y42.7072
G01 X31.8003 Y42.7465
G01 X31.8157 Y42.7542
G01 X31.8306 Y42.7627
G01 X31.9095 Y42.8101
G01 X31.9307 Y42.8246
G01 X32.0046 Y42.8795
G01 X32.0178 Y42.8904
G01 X32.0453 Y42.9152
G01 X32.7816 Y42.9152
G01 X32.8163 Y42.8837
G01 X32.8293 Y42.8725
G01 X32.8429 Y42.8619
G01 X32.8922 Y42.8254
G01 X32.9134 Y42.8108
G01 X32.9808 Y42.7704
G01 X33.0037 Y42.7585
G01 X33.0591 Y42.7323
G01 X33.0748 Y42.7253
G01 X33.0909 Y42.7192
G01 X33.1487 Y42.6985
G01 X33.1650 Y42.6931
G01 X33.1815 Y42.6885
G01 X33.2410 Y42.6736
G01 X33.2578 Y42.6698
G01 X33.2747 Y42.6669
G01 X33.3439 Y42.6567
G01 X33.3696 Y42.6545
G01 X33.4395 Y42.6512
G01 X33.4567 Y42.6512
G01 X33.4863 Y42.6526
G01 X33.5391 Y42.6393
G01 X33.5559 Y42.6356
G01 X33.5728 Y42.6326
G01 X33.6638 Y42.6192
G01 X33.6895 Y42.6170
G01 X33.7728 Y42.6129
G01 X33.7986 Y42.6126
G01 X33.8905 Y42.6170
G01 X33.9076 Y42.6183
G01 X33.9247 Y42.6204
G01 X34.0072 Y42.6326
G01 X34.0241 Y42.6356
G01 X34.0409 Y42.6393
G01 X34.1218 Y42.6596
G01 X34.1383 Y42.6642
G01 X34.1547 Y42.6696
G01 X34.2412 Y42.7007
G01 X34.2649 Y42.7108
G01 X34.3403 Y42.7465
G01 X34.3557 Y42.7542
G01 X34.3706 Y42.7627
G01 X34.4495 Y42.8101
G01 X34.4707 Y42.8246
G01 X34.5446 Y42.8795
G01 X34.5578 Y42.8904
G01 X34.5853 Y42.9152
G01 X35.8987 Y42.9152
G01 X35.9299 Y42.8632
G01 X35.9391 Y42.8486
G01 X35.9489 Y42.8346
G01 X35.9855 Y42.7853
G01 X35.9961 Y42.7718
G01 X36.0073 Y42.7588
G01 X36.0485 Y42.7133
G01 X36.0603 Y42.7009
G01 X39.0603 Y39.7009
G01 X39.0728 Y39.6890
G01 X39.1183 Y39.6478
G01 X39.1313 Y39.6366
G01 X39.1448 Y39.6260
G01 X39.1941 Y39.5894
G01 X39.2081 Y39.5796
G01 X39.2227 Y39.5704
G01 X39.2753 Y39.5388
G01 X39.2902 Y39.5304
G01 X39.3056 Y39.5226
G01 X39.3611 Y39.4964
G01 X39.3768 Y39.4894
G01 X39.3928 Y39.4832
G01 X39.4506 Y39.4626
G01 X39.4669 Y39.4572
G01 X39.4834 Y39.4526
G01 X39.5430 Y39.4377
G01 X39.5682 Y39.4324
G01 X39.6374 Y39.4220
G01 X39.6544 Y39.4199
G01 X39.6715 Y39.4186
G01 X39.7328 Y39.4156
G01 X39.7500 Y39.4152
G01 X39.9745 Y39.4152
G01 X39.9887 Y39.4029
G01 X40.0023 Y39.3923
G01 X40.0693 Y39.3426
G01 X40.0833 Y39.3327
G01 X40.0978 Y39.3235
G01 X40.1694 Y39.2807
G01 X40.1919 Y39.2682
G01 X40.2829 Y39.2252
G01 X40.3068 Y39.2157
G01 X40.3853 Y39.1876
G01 X40.4017 Y39.1822
G01 X40.4182 Y39.1776
G01 X40.4991 Y39.1573
G01 X40.5243 Y39.1520
G01 X40.6153 Y39.1384
G01 X40.6324 Y39.1363
G01 X40.6495 Y39.1350
G01 X40.7328 Y39.1309
G01 X40.7500 Y39.1305
G01 X40.7672 Y39.1309
G01 X40.8505 Y39.1350
G01 X40.8676 Y39.1363
G01 X40.8847 Y39.1384
G01 X40.9672 Y39.1506
G01 X40.9841 Y39.1536
G01 X41.0009 Y39.1573
G01 X41.0818 Y39.1776
G01 X41.0983 Y39.1822
G01 X41.1147 Y39.1876
G01 X41.1932 Y39.2157
G01 X41.2092 Y39.2218
G01 X41.2249 Y39.2288
G01 X41.3003 Y39.2645
G01 X41.3157 Y39.2722
G01 X41.3306 Y39.2807
G01 X41.4022 Y39.3235
G01 X41.4167 Y39.3327
G01 X41.4307 Y39.3426
G01 X41.4977 Y39.3923
G01 X41.5113 Y39.4029
G01 X41.5243 Y39.4141
G01 X41.5861 Y39.4701
G01 X41.5985 Y39.4820
G01 X41.6104 Y39.4944
G01 X41.6664 Y39.5562
G01 X41.6776 Y39.5692
G01 X41.6882 Y39.5828
G01 X41.7379 Y39.6498
G01 X41.7478 Y39.6638
G01 X41.7570 Y39.6783
G01 X41.7998 Y39.7499
G01 X41.8123 Y39.7724
G01 X41.8517 Y39.8556
G01 X41.8587 Y39.8713
G01 X41.8648 Y39.8873
G01 X41.8929 Y39.9658
G01 X41.8983 Y39.9822
G01 X41.9029 Y39.9987
G01 X41.9232 Y40.0796
G01 X41.9269 Y40.0964
G01 X41.9299 Y40.1133
G01 X41.9421 Y40.1958
G01 X41.9442 Y40.2129
G01 X41.9455 Y40.2300
G01 X41.9496 Y40.3133
G01 X41.9499 Y40.3391
G01 X41.9455 Y40.4310
G01 X41.9442 Y40.4481
G01 X41.9421 Y40.4652
G01 X41.9299 Y40.5477
G01 X41.9269 Y40.5646
G01 X41.9232 Y40.5814
G01 X41.9029 Y40.6623
G01 X41.8983 Y40.6788
G01 X41.8929 Y40.6952
G01 X41.8648 Y40.7737
G01 X41.8587 Y40.7897
G01 X41.8517 Y40.8054
G01 X41.8160 Y40.8808
G01 X41.8083 Y40.8962
G01 X41.7998 Y40.9111
G01 X41.7570 Y40.9827
G01 X41.7429 Y41.0043
G01 X41.6882 Y41.0782
G01 X41.6776 Y41.0918
G01 X41.6664 Y41.1048
G01 X41.6104 Y41.1666
G01 X41.5924 Y41.1850
G01 X41.5243 Y41.2469
G01 X41.5113 Y41.2581
G01 X41.4977 Y41.2687
G01 X41.4307 Y41.3184
G01 X41.4167 Y41.3283
G01 X41.4022 Y41.3375
G01 X41.3306 Y41.3803
G01 X41.3081 Y41.3928
G01 X41.2249 Y41.4322
G01 X41.2092 Y41.4392
G01 X41.1932 Y41.4453
G01 X41.1147 Y41.4734
G01 X41.0983 Y41.4788
G01 X41.0818 Y41.4834
G01 X41.0009 Y41.5037
G01 X40.9841 Y41.5074
G01 X40.9672 Y41.5104
G01 X40.8847 Y41.5226
G01 X40.8676 Y41.5247
G01 X40.8505 Y41.5260
G01 X40.7586 Y41.5304
G01 X40.7328 Y41.5301
G01 X40.6495 Y41.5260
G01 X40.6324 Y41.5247
G01 X40.6153 Y41.5226
G01 X40.5328 Y41.5104
G01 X40.5159 Y41.5074
G01 X40.4991 Y41.5037
G01 X40.4182 Y41.4834
G01 X40.4017 Y41.4788
G01 X40.3853 Y41.4734
G01 X40.2988 Y41.4423
G01 X40.2751 Y41.4322
G01 X40.1919 Y41.3928
G01 X40.1768 Y41.3847
G01 X40.1507 Y41.3691
G01 X37.7253 Y43.7945
G01 X37.7252 Y43.8991
G01 X37.7214 Y43.9775
G01 X37.7185 Y44.0031
G01 X37.7095 Y44.0638
G01 X37.7066 Y44.0808
G01 X37.7028 Y44.0975
G01 X37.6879 Y44.1571
G01 X37.6833 Y44.1736
G01 X37.6779 Y44.1899
G01 X37.6573 Y44.2477
G01 X37.6511 Y44.2637
G01 X37.6441 Y44.2794
G01 X37.6179 Y44.3349
G01 X37.6101 Y44.3503
G01 X37.6017 Y44.3652
G01 X37.5701 Y44.4178
G01 X37.5609 Y44.4324
G01 X37.5511 Y44.4464
G01 X37.5145 Y44.4957
G01 X37.5039 Y44.5092
G01 X37.4927 Y44.5222
G01 X37.4515 Y44.5677
G01 X37.4397 Y44.5802
G01 X37.4272 Y44.5920
G01 X37.3817 Y44.6332
G01 X37.3687 Y44.6444
G01 X37.3552 Y44.6550
G01 X37.3059 Y44.6916
G01 X37.2919 Y44.7014
G01 X37.2773 Y44.7106
G01 X37.2247 Y44.7422
G01 X37.2021 Y44.7546
G01 X37.1389 Y44.7846
G01 X37.1153 Y44.7948
G01 X37.0413 Y44.8212
G01 X37.0166 Y44.8284
G01 X36.9570 Y44.8433
G01 X36.9403 Y44.8471
G01 X36.9233 Y44.8500
G01 X36.8626 Y44.8590
G01 X36.8370 Y44.8619
G01 X36.7672 Y44.8654
G01 X36.7500 Y44.8658
G01 X34.3647 Y44.8658
G01 X34.3557 Y44.8708
G01 X34.3403 Y44.8785
G01 X34.2649 Y44.9142
G01 X34.2492 Y44.9212
G01 X34.2332 Y44.9273
G01 X34.1547 Y44.9554
G01 X34.1383 Y44.9608
G01 X34.1218 Y44.9654
G01 X34.0409 Y44.9857
G01 X34.0241 Y44.9894
G01 X34.0072 Y44.9924
G01 X33.9247 Y45.0046
G01 X33.8991 Y45.0075
G01 X33.7986 Y45.0124
G01 X33.7728 Y45.0121
G01 X33.6895 Y45.0080
G01 X33.6724 Y45.0067
G01 X33.6553 Y45.0046
G01 X33.5728 Y44.9924
G01 X33.5559 Y44.9894
G01 X33.5391 Y44.9857
G01 X33.4582 Y44.9654
G01 X33.4417 Y44.9608
G01 X33.4253 Y44.9554
G01 X33.3468 Y44.9273
G01 X33.3308 Y44.9212
G01 X33.3151 Y44.9142
G01 X33.2397 Y44.8785
G01 X33.2243 Y44.8708
G01 X33.2153 Y44.8658
G01 X31.8247 Y44.8658
G00 Z1.7000
G00 X32.7747 Y46.9907
F60.00
G01 Z-0.2800
F100.00
G01 X32.7402 Y46.9331
G01 X32.7317 Y46.9182
G01 X32.7240 Y46.9028
G01 X32.6847 Y46.8196
G01 X32.6752 Y46.7957
G01 X32.6471 Y46.7172
G01 X32.6393 Y46.6926
G01 X32.6168 Y46.6034
G01 X32.6131 Y46.5866
G01 X32.6101 Y46.5697
G01 X32.5979 Y46.4872
G01 X32.5958 Y46.4701
G01 X32.5945 Y46.4530
G01 X32.5904 Y46.3697
G01 X32.5900 Y46.3525
G01 X32.5904 Y46.3353
G01 X32.5945 Y46.2520
G01 X32.5958 Y46.2349
G01 X32.5979 Y46.2178
G01 X32.6101 Y46.1353
G01 X32.6131 Y46.1184
G01 X32.6168 Y46.1016
G01 X32.6371 Y46.0207
G01 X32.6417 Y46.0042
G01 X32.6471 Y45.9878
G01 X32.6752 Y45.9093
G01 X32.6813 Y45.8933
G01 X32.6883 Y45.8776
G01 X32.7240 Y45.8022
G01 X32.7317 Y45.7868
G01 X32.7402 Y45.7719
G01 X32.7876 Y45.6930
G01 X32.8021 Y45.6718
G01 X32.8518 Y45.6048
G01 X32.8624 Y45.5912
G01 X32.8736 Y45.5782
G01 X32.9296 Y45.5164
G01 X32.9415 Y45.5040
G01 X32.9539 Y45.4921
G01 X33.0157 Y45.4361
G01 X33.0287 Y45.4249
G01 X33.0423 Y45.4143
G01 X33.1093 Y45.3646
G01 X33.1233 Y45.3547
G01 X33.1378 Y45.3455
G01 X33.2094 Y45.3027
G01 X33.2243 Y45.2942
G01 X33.2397 Y45.2865
G01 X33.3151 Y45.2508
G01 X33.3308 Y45.2438
G01 X33.3468 Y45.2377
G01 X33.4253 Y45.2096
G01 X33.4417 Y45.2042
G01 X33.4582 Y45.1996
G01 X33.5391 Y45.1793
G01 X33.5559 Y45.1756
G01 X33.5728 Y45.1726
G01 X33.6553 Y45.1604
G01 X33.6724 Y45.1583
G01 X33.6895 Y45.1570
G01 X33.7728 Y45.1529
G01 X33.7900 Y45.1525
G01 X33.8072 Y45.1529
G01 X33.8905 Y45.1570
G01 X33.9162 Y45.1592
G01 X34.0157 Y45.1740
G01 X34.0409 Y45.1793
G01 X34.1218 Y45.1996
G01 X34.1383 Y45.2042
G01 X34.1547 Y45.2096
G01 X34.2332 Y45.2377
G01 X34.2492 Y45.2438
G01 X34.2649 Y45.2508
G01 X34.3403 Y45.2865
G01 X34.3557 Y45.2942
G01 X34.3706 Y45.3027
G01 X34.4422 Y45.3455
G01 X34.4567 Y45.3547
G01 X34.4707 Y45.3646
G01 X34.5377 Y45.4143
G01 X34.5513 Y45.4249
G01 X34.5643 Y45.4361
G01 X34.6261 Y45.4921
G01 X34.6385 Y45.5040
G01 X34.6504 Y45.5164
G01 X34.7064 Y45.5782
G01 X34.7176 Y45.5912
G01 X34.7282 Y45.6048
G01 X34.7779 Y45.6718
G01 X34.7878 Y45.6858
G01 X34.7970 Y45.7003
G01 X34.8398 Y45.7719
G01 X34.8483 Y45.7868
G01 X34.8560 Y45.8022
G01 X34.8917 Y45.8776
G01 X34.8987 Y45.8933
G01 X34.9048 Y45.9093
G01 X34.9329 Y45.9878
G01 X34.9383 Y46.0042
G01 X34.9429 Y46.0207
G01 X34.9632 Y46.1016
G01 X34.9669 Y46.1184
G01 X34.9699 Y46.1353
G01 X34.9821 Y46.2178
G01 X34.9842 Y46.2349
G01 X34.9855 Y46.2520
G01 X34.9896 Y46.3353
G01 X34.9900 Y46.3525
G01 X34.9896 Y46.3697
G01 X34.9855 Y46.4530
G01 X34.9842 Y46.4701
G01 X34.9821 Y46.4872
G01 X34.9699 Y46.5697
G01 X34.9669 Y46.5866
G01 X34.9632 Y46.6034
G01 X34.9429 Y46.6843
G01 X34.9383 Y46.7008
G01 X34.9329 Y46.7172
G01 X34.9048 Y46.7957
G01 X34.8987 Y46.8117
G01 X34.8917 Y46.8274
G01 X34.8560 Y46.9028
G01 X34.8499 Y46.9152
G01 X40.1451 Y46.9152
G01 X40.1768 Y46.8963
