(G-CODE GENERATED BY FLATCAM v8.994 - www.flatcam.org - Version Date: 2020/11/7)

(Name: PiHat.drl_cnc)
(Type: G-code from Geometry)
(Units: MM)

(Created on Tuesday, 18 May 2021 at 13:07)

(This preprocessor is the default preprocessor used by FlatCAM.)
(It is made to work with MACH3 compatible motion controllers.)


(TOOLS DIAMETER: )
(Tool: 1 -> Dia: 0.4)
(Tool: 2 -> Dia: 0.762)
(Tool: 3 -> Dia: 0.8)
(Tool: 4 -> Dia: 0.95)
(Tool: 5 -> Dia: 1.0)
(Tool: 6 -> Dia: 1.1)

(FEEDRATE Z: )
(Tool: 1 -> Feedrate: 45.0)
(Tool: 2 -> Feedrate: 45.0)
(Tool: 3 -> Feedrate: 45.0)
(Tool: 4 -> Feedrate: 45.0)
(Tool: 5 -> Feedrate: 45.0)
(Tool: 6 -> Feedrate: 45.0)

(FEEDRATE RAPIDS: )
(Tool: 1 -> Feedrate Rapids: 1500)
(Tool: 2 -> Feedrate Rapids: 1500)
(Tool: 3 -> Feedrate Rapids: 1500)
(Tool: 4 -> Feedrate Rapids: 1500)
(Tool: 5 -> Feedrate Rapids: 1500)
(Tool: 6 -> Feedrate Rapids: 1500)

(Z_CUT: )
(Tool: 1 -> Z_Cut: -2.1)
(Tool: 2 -> Z_Cut: -2.1)
(Tool: 3 -> Z_Cut: -2.1)
(Tool: 4 -> Z_Cut: -2.1)
(Tool: 5 -> Z_Cut: -2.1)
(Tool: 6 -> Z_Cut: -2.1)

(Tools Offset: )
(Tool: 1 -> Offset Z: 0.0)
(Tool: 2 -> Offset Z: 0.0)
(Tool: 3 -> Offset Z: 0.0)
(Tool: 4 -> Offset Z: 0.0)
(Tool: 5 -> Offset Z: 0.0)
(Tool: 6 -> Offset Z: 0.0)

(Z_MOVE: )
(Tool: 1 -> Z_Move: 1.0)
(Tool: 2 -> Z_Move: 1.0)
(Tool: 3 -> Z_Move: 1.0)
(Tool: 4 -> Z_Move: 1.0)
(Tool: 5 -> Z_Move: 1.0)
(Tool: 6 -> Z_Move: 1.0)

(Z Toolchange: 15 mm)
(X,Y Toolchange: 0.0000, 0.0000 mm)
(Z Start: None mm)
(Z End: 0.5 mm)
(X,Y End: None mm)
(Steps per circle: 64)
(Preprocessor Excellon: default)

(X range:    5.5840 ...   44.7250  mm)
(Y range:    4.7903 ...   60.2753  mm)

(Spindle Speed: 20000 RPM)
G21
G90
G94

F45.00

G00 Z5.0000

F45.00
M03 S20000
G00 X28.0000 Y35.0153
G01 Z-2.1000
G01 Z0
G00 Z1.0000
G00 X31.2500 Y35.3173
G01 Z-2.1000
G01 Z0
G00 Z1.0000
G00 X33.7900 Y32.7773
G01 Z-2.1000
G01 Z0
G00 Z1.0000
G00 X33.7900 Y35.3173
G01 Z-2.1000
G01 Z0
G00 Z1.0000
G00 X33.7900 Y37.8573
G01 Z-2.1000
G01 Z0
G00 Z1.0000
G00 X33.7900 Y40.3973
G01 Z-2.1000
G01 Z0
G00 Z1.0000
G00 X33.7900 Y42.9373
G01 Z-2.1000
G01 Z0
G00 Z1.0000
G00 X33.7900 Y45.4773
G01 Z-2.1000
G01 Z0
G00 Z1.0000
G00 X31.2500 Y45.4773
G01 Z-2.1000
G01 Z0
G00 Z1.0000
G00 X31.2500 Y42.9373
G01 Z-2.1000
G01 Z0
G00 Z1.0000
G00 X31.2500 Y40.3973
G01 Z-2.1000
G01 Z0
G00 Z1.0000
G00 X31.2500 Y37.8573
G01 Z-2.1000
G01 Z0
G00 Z1.0000
G00 X28.0000 Y38.0153
G01 Z-2.1000
G01 Z0
G00 Z1.0000
G00 X22.5000 Y38.7653
G01 Z-2.1000
G01 Z0
G00 Z1.0000
G00 X18.2500 Y38.6753
G01 Z-2.1000
G01 Z0
G00 Z1.0000
G00 X18.2500 Y44.7653
G01 Z-2.1000
G01 Z0
G00 Z1.0000
G00 X18.2500 Y54.9253
G01 Z-2.1000
G01 Z0
G00 Z1.0000
G00 X6.2500 Y59.2653
G01 Z-2.1000
G01 Z0
G00 Z1.0000
G00 X6.2500 Y56.7653
G01 Z-2.1000
G01 Z0
G00 Z1.0000
G00 X6.2500 Y48.5153
G01 Z-2.1000
G01 Z0
G00 Z1.0000
G00 X6.2500 Y46.0153
G01 Z-2.1000
G01 Z0
G00 Z1.0000
G00 X6.5000 Y38.0153
G01 Z-2.1000
G01 Z0
G00 Z1.0000
G00 X6.5000 Y35.5153
G01 Z-2.1000
G01 Z0
G00 Z1.0000
G00 X8.2500 Y26.7653
G01 Z-2.1000
G01 Z0
G00 Z1.0000
G00 X8.2500 Y24.2653
G01 Z-2.1000
G01 Z0
G00 Z1.0000
G00 X8.2500 Y21.7653
G01 Z-2.1000
G01 Z0
G00 Z1.0000
G00 X6.0840 Y10.5153
G01 Z-2.1000
G01 Z0
G00 Z1.0000
G00 X6.0840 Y8.0153
G01 Z-2.1000
G01 Z0
G00 Z1.0000
G00 X11.5500 Y5.3553
G01 Z-2.1000
G01 Z0
G00 Z1.0000
G00 X11.5500 Y7.8953
G01 Z-2.1000
G01 Z0
G00 Z1.0000
G00 X11.5500 Y10.4353
G01 Z-2.1000
G01 Z0
G00 Z1.0000
G00 X11.5500 Y12.9753
G01 Z-2.1000
G01 Z0
G00 Z1.0000
G00 X18.8400 Y17.7653
G01 Z-2.1000
G01 Z0
G00 Z1.0000
G00 X19.0400 Y24.2653
G01 Z-2.1000
G01 Z0
G00 Z1.0000
G00 X16.5000 Y24.2653
G01 Z-2.1000
G01 Z0
G00 Z1.0000
G00 X18.2500 Y28.5153
G01 Z-2.1000
G01 Z0
G00 Z1.0000
G00 X22.5000 Y28.6053
G01 Z-2.1000
G01 Z0
G00 Z1.0000
G00 X21.5800 Y24.2653
G01 Z-2.1000
G01 Z0
G00 Z1.0000
G00 X29.0000 Y17.7653
G01 Z-2.1000
G01 Z0
G00 Z1.0000
G00 X34.2500 Y5.2653
G01 Z-2.1000
G01 Z0
G00 Z1.0000
G00 X36.7500 Y5.2653
G01 Z-2.1000
G01 Z0
G00 Z1.0000
G00 X39.2500 Y5.2653
G01 Z-2.1000
G01 Z0
G00 Z1.0000
G00 X41.7500 Y5.2653
G01 Z-2.1000
G01 Z0
G00 Z1.0000
G00 X44.2500 Y5.2653
G01 Z-2.1000
G01 Z0
G00 Z1.0000
G00 X43.2900 Y11.5153
G01 Z-2.1000
G01 Z0
G00 Z1.0000
G00 X40.7500 Y11.5153
G01 Z-2.1000
G01 Z0
G00 Z1.0000
G00 X40.7500 Y14.0553
G01 Z-2.1000
G01 Z0
G00 Z1.0000
G00 X43.2900 Y14.0553
G01 Z-2.1000
G01 Z0
G00 Z1.0000
G00 X43.2900 Y16.5953
G01 Z-2.1000
G01 Z0
G00 Z1.0000
G00 X40.7500 Y16.5953
G01 Z-2.1000
G01 Z0
G00 Z1.0000
G00 X40.7500 Y19.1353
G01 Z-2.1000
G01 Z0
G00 Z1.0000
G00 X40.7500 Y21.6753
G01 Z-2.1000
G01 Z0
G00 Z1.0000
G00 X43.2900 Y19.1353
G01 Z-2.1000
G01 Z0
G00 Z1.0000
G00 X43.2900 Y21.6753
G01 Z-2.1000
G01 Z0
G00 Z1.0000
G00 X43.2900 Y24.2153
G01 Z-2.1000
G01 Z0
G00 Z1.0000
G00 X43.2900 Y26.7553
G01 Z-2.1000
G01 Z0
G00 Z1.0000
G00 X43.2900 Y29.2953
G01 Z-2.1000
G01 Z0
G00 Z1.0000
G00 X43.2900 Y31.8353
G01 Z-2.1000
G01 Z0
G00 Z1.0000
G00 X43.2900 Y34.3753
G01 Z-2.1000
G01 Z0
G00 Z1.0000
G00 X43.2900 Y36.9153
G01 Z-2.1000
G01 Z0
G00 Z1.0000
G00 X43.2900 Y39.4553
G01 Z-2.1000
G01 Z0
G00 Z1.0000
G00 X43.2900 Y41.9953
G01 Z-2.1000
G01 Z0
G00 Z1.0000
G00 X43.2900 Y44.5353
G01 Z-2.1000
G01 Z0
G00 Z1.0000
G00 X43.2900 Y47.0753
G01 Z-2.1000
G01 Z0
G00 Z1.0000
G00 X43.2900 Y49.6153
G01 Z-2.1000
G01 Z0
G00 Z1.0000
G00 X43.2900 Y52.1553
G01 Z-2.1000
G01 Z0
G00 Z1.0000
G00 X43.2900 Y54.6953
G01 Z-2.1000
G01 Z0
G00 Z1.0000
G00 X43.2900 Y57.2353
G01 Z-2.1000
G01 Z0
G00 Z1.0000
G00 X43.2900 Y59.7753
G01 Z-2.1000
G01 Z0
G00 Z1.0000
G00 X40.7500 Y59.7753
G01 Z-2.1000
G01 Z0
G00 Z1.0000
G00 X40.7500 Y57.2353
G01 Z-2.1000
G01 Z0
G00 Z1.0000
G00 X40.7500 Y54.6953
G01 Z-2.1000
G01 Z0
G00 Z1.0000
G00 X40.7500 Y52.1553
G01 Z-2.1000
G01 Z0
G00 Z1.0000
G00 X40.7500 Y49.6153
G01 Z-2.1000
G01 Z0
G00 Z1.0000
G00 X40.7500 Y47.0753
G01 Z-2.1000
G01 Z0
G00 Z1.0000
G00 X40.7500 Y44.5353
G01 Z-2.1000
G01 Z0
G00 Z1.0000
G00 X40.7500 Y41.9953
G01 Z-2.1000
G01 Z0
G00 Z1.0000
G00 X40.7500 Y39.4553
G01 Z-2.1000
G01 Z0
G00 Z1.0000
G00 X40.7500 Y36.9153
G01 Z-2.1000
G01 Z0
G00 Z1.0000
G00 X40.7500 Y34.3753
G01 Z-2.1000
G01 Z0
G00 Z1.0000
G00 X40.7500 Y31.8353
G01 Z-2.1000
G01 Z0
G00 Z1.0000
G00 X40.7500 Y29.2953
G01 Z-2.1000
G01 Z0
G00 Z1.0000
G00 X40.7500 Y26.7553
G01 Z-2.1000
G01 Z0
G00 Z1.0000
G00 X40.7500 Y24.2153
G01 Z-2.1000
G01 Z0
G00 Z1.0000
G00 X33.7900 Y27.6973
G01 Z-2.1000
G01 Z0
G00 Z1.0000
G00 X33.7900 Y30.2373
G01 Z-2.1000
G01 Z0
G00 Z1.0000
G00 X31.2500 Y27.6973
G01 Z-2.1000
G01 Z0
G00 Z1.0000
G00 X31.2500 Y30.2373
G01 Z-2.1000
G01 Z0
G00 Z1.0000
G00 X31.2500 Y32.7773
G01 Z-2.1000
G01 Z0
G00 Z1.0000
M05
G00 Z0.50


G00 Z5
M05


