(G-CODE GENERATED BY FLATCAM v8.994 - www.flatcam.org - Version Date: 2020/11/7)

(Name: TFT-B_Cu.gbr_0.7000_iso_cnc)
(Type: G-code from Geometry)
(Units: MM)

(Created on Tuesday, 30 March 2021 at 17:45)

(This preprocessor is the default preprocessor used by FlatCAM.)
(It is made to work with MACH3 compatible motion controllers.)

(TOOL DIAMETER: 0.7 mm)
(Feedrate_XY: 100.0 mm/min)
(Feedrate_Z: 60.0 mm/min)
(Feedrate rapids 900.0 mm/min)

(Z_Cut: -0.28 mm)
(Z_Move: 1.7 mm)
(Z Start: None mm)
(Z End: 15.0 mm)
(X,Y End: None mm)
(Steps per circle: 64)
(Preprocessor Geometry: default)

(X range:    0.9247 ...   22.7753  mm)
(Y range:    0.6247 ...   41.6753  mm)

(Spindle Speed: 20000.0 RPM)
G21
G90
G94

F100.00

M03 S20000.0
G4 P2.0
F100.00
G00 X7.4707 Y13.1647
F60.00
G01 Z-0.2800
F100.00
G01 X8.4247 Y13.1647
G01 X8.4247 Y9.8000
G01 X8.4251 Y9.7828
G01 X8.4281 Y9.7215
G01 X8.4294 Y9.7044
G01 X8.4315 Y9.6874
G01 X8.4405 Y9.6267
G01 X8.4434 Y9.6097
G01 X8.4472 Y9.5930
G01 X8.4621 Y9.5334
G01 X8.4667 Y9.5169
G01 X8.4721 Y9.5006
G01 X8.4927 Y9.4428
G01 X8.4989 Y9.4268
G01 X8.5059 Y9.4111
G01 X8.5321 Y9.3556
G01 X8.5399 Y9.3402
G01 X8.5483 Y9.3253
G01 X8.5844 Y9.2653
G01 X8.5989 Y9.2441
G01 X8.6355 Y9.1948
G01 X8.6516 Y9.1747
G01 X8.6985 Y9.1228
G01 X8.7103 Y9.1103
G01 X8.7228 Y9.0985
G01 X8.7683 Y9.0573
G01 X8.7813 Y9.0461
G01 X8.7948 Y9.0355
G01 X8.8441 Y8.9989
G01 X8.8581 Y8.9891
G01 X8.8727 Y8.9799
G01 X8.9253 Y8.9483
G01 X8.9402 Y8.9399
G01 X8.9556 Y8.9321
G01 X9.0111 Y8.9059
G01 X9.0268 Y8.8989
G01 X9.0428 Y8.8927
G01 X9.1087 Y8.8693
G01 X9.1334 Y8.8621
G01 X9.1930 Y8.8472
G01 X9.2097 Y8.8434
G01 X9.2267 Y8.8405
G01 X9.2874 Y8.8315
G01 X9.3044 Y8.8294
G01 X9.3215 Y8.8281
G01 X9.3828 Y8.8251
G01 X9.4000 Y8.8247
G01 X17.1389 Y8.8247
G01 X17.1515 Y8.8115
G01 X17.1639 Y8.7996
G01 X17.2257 Y8.7436
G01 X17.2387 Y8.7324
G01 X17.2523 Y8.7218
G01 X17.3193 Y8.6721
G01 X17.3333 Y8.6622
G01 X17.3478 Y8.6530
G01 X17.4194 Y8.6102
G01 X17.4343 Y8.6017
G01 X17.4497 Y8.5940
G01 X17.5251 Y8.5583
G01 X17.5408 Y8.5513
G01 X17.5568 Y8.5452
G01 X17.6353 Y8.5171
G01 X17.6517 Y8.5117
G01 X17.6682 Y8.5071
G01 X17.7491 Y8.4868
G01 X17.7659 Y8.4831
G01 X17.7828 Y8.4801
G01 X17.8653 Y8.4679
G01 X17.8824 Y8.4658
G01 X17.8995 Y8.4645
G01 X17.9828 Y8.4604
G01 X18.0000 Y8.4600
G01 X18.0172 Y8.4604
G01 X18.1005 Y8.4645
G01 X18.1176 Y8.4658
G01 X18.1347 Y8.4679
G01 X18.2257 Y8.4815
G01 X18.2509 Y8.4868
G01 X18.3318 Y8.5071
G01 X18.3483 Y8.5117
G01 X18.3647 Y8.5171
G01 X18.4432 Y8.5452
G01 X18.4592 Y8.5513
G01 X18.4749 Y8.5583
G01 X18.5503 Y8.5940
G01 X18.5657 Y8.6017
G01 X18.5806 Y8.6102
G01 X18.6522 Y8.6530
G01 X18.6667 Y8.6622
G01 X18.6807 Y8.6721
G01 X18.7477 Y8.7218
G01 X18.7613 Y8.7324
G01 X18.7743 Y8.7436
G01 X18.8424 Y8.8055
G01 X18.8604 Y8.8239
G01 X18.9164 Y8.8857
G01 X18.9276 Y8.8987
G01 X18.9382 Y8.9123
G01 X18.9879 Y8.9793
G01 X18.9978 Y8.9933
G01 X19.0070 Y9.0078
G01 X19.0498 Y9.0794
G01 X19.0583 Y9.0943
G01 X19.0660 Y9.1097
G01 X19.1017 Y9.1851
G01 X19.1087 Y9.2008
G01 X19.1148 Y9.2168
G01 X19.1457 Y9.3035
G01 X19.1529 Y9.3282
G01 X19.1732 Y9.4091
G01 X19.1769 Y9.4259
G01 X19.1799 Y9.4428
G01 X19.1921 Y9.5253
G01 X19.1942 Y9.5424
G01 X19.1955 Y9.5595
G01 X19.1996 Y9.6428
G01 X19.2000 Y9.6600
G01 X19.1996 Y9.6772
G01 X19.1955 Y9.7605
G01 X19.1942 Y9.7776
G01 X19.1921 Y9.7947
G01 X19.1799 Y9.8772
G01 X19.1752 Y9.9025
G01 X19.1507 Y10.0001
G01 X19.1429 Y10.0247
G01 X19.1148 Y10.1032
G01 X19.1087 Y10.1192
G01 X19.1017 Y10.1349
G01 X19.0660 Y10.2103
G01 X19.0542 Y10.2332
G01 X19.0070 Y10.3122
G01 X18.9978 Y10.3267
G01 X18.9879 Y10.3407
G01 X18.9382 Y10.4077
G01 X18.9276 Y10.4213
G01 X18.9164 Y10.4343
G01 X18.8604 Y10.4961
G01 X18.8485 Y10.5085
G01 X18.8361 Y10.5204
G01 X18.7743 Y10.5764
G01 X18.7613 Y10.5876
G01 X18.7477 Y10.5982
G01 X18.6807 Y10.6479
G01 X18.6667 Y10.6578
G01 X18.6522 Y10.6670
G01 X18.5806 Y10.7098
G01 X18.5657 Y10.7183
G01 X18.5503 Y10.7260
G01 X18.4749 Y10.7617
G01 X18.4592 Y10.7687
G01 X18.4432 Y10.7748
G01 X18.3647 Y10.8029
G01 X18.3483 Y10.8083
G01 X18.3318 Y10.8129
G01 X18.2509 Y10.8332
G01 X18.2257 Y10.8385
G01 X18.1347 Y10.8521
G01 X18.1176 Y10.8542
G01 X18.1005 Y10.8555
G01 X18.0172 Y10.8596
G01 X18.0000 Y10.8600
G01 X17.9828 Y10.8596
G01 X17.8995 Y10.8555
G01 X17.8824 Y10.8542
G01 X17.8653 Y10.8521
G01 X17.7828 Y10.8399
G01 X17.7659 Y10.8369
G01 X17.7491 Y10.8332
G01 X17.6682 Y10.8129
G01 X17.6517 Y10.8083
G01 X17.6353 Y10.8029
G01 X17.5581 Y10.7753
G01 X10.3753 Y10.7753
G01 X10.3753 Y13.7000
G01 X10.3749 Y13.7172
G01 X10.3714 Y13.7870
G01 X10.3685 Y13.8126
G01 X10.3595 Y13.8733
G01 X10.3566 Y13.8903
G01 X10.3528 Y13.9070
G01 X10.3379 Y13.9666
G01 X10.3333 Y13.9831
G01 X10.3279 Y13.9994
G01 X10.3073 Y14.0572
G01 X10.3011 Y14.0732
G01 X10.2941 Y14.0889
G01 X10.2679 Y14.1444
G01 X10.2601 Y14.1598
G01 X10.2517 Y14.1747
G01 X10.2201 Y14.2273
G01 X10.2109 Y14.2419
G01 X10.2011 Y14.2559
G01 X10.1645 Y14.3052
G01 X10.1484 Y14.3253
G01 X10.1015 Y14.3772
G01 X10.0897 Y14.3897
G01 X9.6497 Y14.8297
G01 X9.6372 Y14.8415
G01 X9.5917 Y14.8827
G01 X9.5787 Y14.8939
G01 X9.5652 Y14.9045
G01 X9.5159 Y14.9411
G01 X9.5019 Y14.9509
G01 X9.4873 Y14.9601
G01 X9.4347 Y14.9917
G01 X9.4198 Y15.0001
G01 X9.4044 Y15.0079
G01 X9.3489 Y15.0341
G01 X9.3332 Y15.0411
G01 X9.3172 Y15.0473
G01 X9.2594 Y15.0679
G01 X9.2431 Y15.0733
G01 X9.2266 Y15.0779
G01 X9.1670 Y15.0928
G01 X9.1503 Y15.0966
G01 X9.1333 Y15.0995
G01 X9.0726 Y15.1085
G01 X9.0470 Y15.1114
G01 X8.9686 Y15.1152
G01 X7.7596 Y15.1153
G01 X7.7143 Y15.1564
G01 X7.7013 Y15.1676
G01 X7.6877 Y15.1782
G01 X7.6207 Y15.2279
G01 X7.6067 Y15.2378
G01 X7.5922 Y15.2470
G01 X7.5206 Y15.2898
G01 X7.5057 Y15.2983
G01 X7.4903 Y15.3060
G01 X7.4071 Y15.3453
G01 X7.3832 Y15.3548
G01 X7.3047 Y15.3829
G01 X7.2883 Y15.3883
G01 X7.2718 Y15.3929
G01 X7.1909 Y15.4132
G01 X7.1741 Y15.4169
G01 X7.1572 Y15.4199
G01 X7.0747 Y15.4321
G01 X7.0491 Y15.4350
G01 X6.9572 Y15.4396
G01 X6.9400 Y15.4400
G01 X6.9228 Y15.4396
G01 X6.8395 Y15.4355
G01 X6.8224 Y15.4342
G01 X6.8053 Y15.4321
G01 X6.7228 Y15.4199
G01 X6.7059 Y15.4169
G01 X6.6891 Y15.4132
G01 X6.6082 Y15.3929
G01 X6.5917 Y15.3883
G01 X6.5753 Y15.3829
G01 X6.4968 Y15.3548
G01 X6.4808 Y15.3487
G01 X6.4651 Y15.3417
G01 X6.3819 Y15.3023
G01 X6.3594 Y15.2898
G01 X6.2878 Y15.2470
G01 X6.2733 Y15.2378
G01 X6.2593 Y15.2279
G01 X6.1923 Y15.1782
G01 X6.1787 Y15.1676
G01 X6.1657 Y15.1564
G01 X6.1039 Y15.1004
G01 X6.0915 Y15.0885
G01 X6.0796 Y15.0761
G01 X6.0236 Y15.0143
G01 X6.0124 Y15.0013
G01 X6.0018 Y14.9877
G01 X5.9521 Y14.9207
G01 X5.9422 Y14.9067
G01 X5.9330 Y14.8922
G01 X5.8902 Y14.8206
G01 X5.8817 Y14.8057
G01 X5.8740 Y14.7903
G01 X5.8383 Y14.7149
G01 X5.8313 Y14.6992
G01 X5.8252 Y14.6832
G01 X5.7971 Y14.6047
G01 X5.7917 Y14.5883
G01 X5.7871 Y14.5718
G01 X5.7668 Y14.4909
G01 X5.7631 Y14.4741
G01 X5.7601 Y14.4572
G01 X5.7479 Y14.3747
G01 X5.7458 Y14.3576
G01 X5.7445 Y14.3405
G01 X5.7404 Y14.2572
G01 X5.7400 Y14.2400
G01 X5.7404 Y14.2228
G01 X5.7445 Y14.1395
G01 X5.7458 Y14.1224
G01 X5.7479 Y14.1053
G01 X5.7601 Y14.0228
G01 X5.7631 Y14.0059
G01 X5.7668 Y13.9891
G01 X5.7871 Y13.9082
G01 X5.7917 Y13.8917
G01 X5.7971 Y13.8753
G01 X5.8252 Y13.7968
G01 X5.8313 Y13.7808
G01 X5.8383 Y13.7651
G01 X5.8777 Y13.6819
G01 X5.8902 Y13.6594
G01 X5.9330 Y13.5878
G01 X5.9422 Y13.5733
G01 X5.9521 Y13.5593
G01 X6.0018 Y13.4923
G01 X6.0124 Y13.4787
G01 X6.0236 Y13.4657
G01 X6.0796 Y13.4039
G01 X6.0915 Y13.3915
G01 X6.1039 Y13.3796
G01 X6.1657 Y13.3236
G01 X6.1787 Y13.3124
G01 X6.1923 Y13.3018
G01 X6.2593 Y13.2521
G01 X6.2733 Y13.2422
G01 X6.2878 Y13.2330
G01 X6.3594 Y13.1902
G01 X6.3743 Y13.1817
G01 X6.3897 Y13.1740
G01 X6.4651 Y13.1383
G01 X6.4808 Y13.1313
G01 X6.4968 Y13.1252
G01 X6.5835 Y13.0943
G01 X6.6082 Y13.0871
G01 X6.6891 Y13.0668
G01 X6.7059 Y13.0631
G01 X6.7228 Y13.0601
G01 X6.8053 Y13.0479
G01 X6.8224 Y13.0458
G01 X6.8395 Y13.0445
G01 X6.9228 Y13.0404
G01 X6.9400 Y13.0400
G01 X6.9572 Y13.0404
G01 X7.0491 Y13.0450
G01 X7.0747 Y13.0479
G01 X7.1572 Y13.0601
G01 X7.1741 Y13.0631
G01 X7.1909 Y13.0668
G01 X7.2801 Y13.0893
G01 X7.3047 Y13.0971
G01 X7.3912 Y13.1282
G01 X7.4149 Y13.1383
G01 X7.4707 Y13.1647
G00 Z1.7000
G00 X7.4707 Y15.7047
F60.00
G01 Z-0.2800
F100.00
G01 X9.0160 Y15.7047
G01 X10.4247 Y14.2960
G01 X10.4247 Y12.2000
G01 X10.4251 Y12.1828
G01 X10.4281 Y12.1215
G01 X10.4294 Y12.1044
G01 X10.4315 Y12.0874
G01 X10.4405 Y12.0267
G01 X10.4452 Y12.0013
G01 X10.4621 Y11.9334
G01 X10.4667 Y11.9169
G01 X10.4721 Y11.9006
G01 X10.4927 Y11.8428
G01 X10.4989 Y11.8268
G01 X10.5059 Y11.8111
G01 X10.5321 Y11.7556
G01 X10.5399 Y11.7402
G01 X10.5483 Y11.7253
G01 X10.5799 Y11.6727
G01 X10.5891 Y11.6581
G01 X10.5989 Y11.6441
G01 X10.6355 Y11.5948
G01 X10.6461 Y11.5813
G01 X10.6573 Y11.5683
G01 X10.6985 Y11.5228
G01 X10.7103 Y11.5103
G01 X10.7228 Y11.4985
G01 X10.7683 Y11.4573
G01 X10.7813 Y11.4461
G01 X10.7948 Y11.4355
G01 X10.8441 Y11.3989
G01 X10.8653 Y11.3844
G01 X10.9327 Y11.3440
G01 X10.9556 Y11.3321
G01 X11.0111 Y11.3059
G01 X11.0268 Y11.2989
G01 X11.0428 Y11.2927
G01 X11.1087 Y11.2693
G01 X11.1334 Y11.2621
G01 X11.1930 Y11.2472
G01 X11.2097 Y11.2434
G01 X11.2267 Y11.2405
G01 X11.2874 Y11.2315
G01 X11.3044 Y11.2294
G01 X11.3215 Y11.2281
G01 X11.3828 Y11.2251
G01 X11.4000 Y11.2247
G01 X17.3023 Y11.2247
G01 X17.3262 Y11.2071
G01 X17.3405 Y11.1976
G01 X17.4194 Y11.1502
G01 X17.4419 Y11.1377
G01 X17.5251 Y11.0983
G01 X17.5408 Y11.0913
G01 X17.5568 Y11.0852
G01 X17.6353 Y11.0571
G01 X17.6599 Y11.0493
G01 X17.7491 Y11.0268
G01 X17.7659 Y11.0231
G01 X17.7828 Y11.0201
G01 X17.8653 Y11.0079
G01 X17.8824 Y11.0058
G01 X17.8995 Y11.0045
G01 X17.9828 Y11.0004
G01 X18.0000 Y11.0000
G01 X18.0172 Y11.0004
G01 X18.1091 Y11.0050
G01 X18.1347 Y11.0079
G01 X18.2172 Y11.0201
G01 X18.2341 Y11.0231
G01 X18.2509 Y11.0268
G01 X18.3318 Y11.0471
G01 X18.3483 Y11.0517
G01 X18.3647 Y11.0571
G01 X18.4432 Y11.0852
G01 X18.4592 Y11.0913
G01 X18.4749 Y11.0983
G01 X18.5503 Y11.1340
G01 X18.5657 Y11.1417
G01 X18.5806 Y11.1502
G01 X18.6522 Y11.1930
G01 X18.6667 Y11.2022
G01 X18.6807 Y11.2121
G01 X18.7477 Y11.2618
G01 X18.7613 Y11.2724
G01 X18.7743 Y11.2836
G01 X18.8361 Y11.3396
G01 X18.8485 Y11.3515
G01 X18.8604 Y11.3639
G01 X18.9164 Y11.4257
G01 X18.9276 Y11.4387
G01 X18.9382 Y11.4523
G01 X18.9879 Y11.5193
G01 X18.9978 Y11.5333
G01 X19.0070 Y11.5478
G01 X19.0498 Y11.6194
G01 X19.0583 Y11.6343
G01 X19.0660 Y11.6497
G01 X19.1017 Y11.7251
G01 X19.1087 Y11.7408
G01 X19.1148 Y11.7568
G01 X19.1457 Y11.8435
G01 X19.1529 Y11.8682
G01 X19.1732 Y11.9491
G01 X19.1769 Y11.9659
G01 X19.1799 Y11.9828
G01 X19.1921 Y12.0653
G01 X19.1942 Y12.0824
G01 X19.1955 Y12.0995
G01 X19.1996 Y12.1828
G01 X19.2000 Y12.2000
G01 X19.1996 Y12.2172
G01 X19.1955 Y12.3005
G01 X19.1942 Y12.3176
G01 X19.1921 Y12.3347
G01 X19.1799 Y12.4172
G01 X19.1769 Y12.4341
G01 X19.1732 Y12.4509
G01 X19.1529 Y12.5318
G01 X19.1483 Y12.5483
G01 X19.1429 Y12.5647
G01 X19.1148 Y12.6432
G01 X19.1087 Y12.6592
G01 X19.1017 Y12.6749
G01 X19.0660 Y12.7503
G01 X19.0583 Y12.7657
G01 X19.0498 Y12.7806
G01 X19.0070 Y12.8522
G01 X18.9929 Y12.8738
G01 X18.9330 Y12.9546
G01 X18.9164 Y12.9743
G01 X18.8545 Y13.0424
G01 X18.8361 Y13.0604
G01 X18.7743 Y13.1164
G01 X18.7613 Y13.1276
G01 X18.7477 Y13.1382
G01 X18.6807 Y13.1879
G01 X18.6667 Y13.1978
G01 X18.6522 Y13.2070
G01 X18.5806 Y13.2498
G01 X18.5657 Y13.2583
G01 X18.5503 Y13.2660
G01 X18.4749 Y13.3017
G01 X18.4592 Y13.3087
G01 X18.4432 Y13.3148
G01 X18.3647 Y13.3429
G01 X18.3483 Y13.3483
G01 X18.3318 Y13.3529
G01 X18.2509 Y13.3732
G01 X18.2341 Y13.3769
G01 X18.2172 Y13.3799
G01 X18.1347 Y13.3921
G01 X18.1176 Y13.3942
G01 X18.1005 Y13.3955
G01 X18.0172 Y13.3996
G01 X18.0000 Y13.4000
G01 X17.9828 Y13.3996
G01 X17.8995 Y13.3955
G01 X17.8824 Y13.3942
G01 X17.8653 Y13.3921
G01 X17.7828 Y13.3799
G01 X17.7575 Y13.3752
G01 X17.6682 Y13.3529
G01 X17.6517 Y13.3483
G01 X17.6353 Y13.3429
G01 X17.5568 Y13.3148
G01 X17.5329 Y13.3053
G01 X17.4497 Y13.2660
G01 X17.4268 Y13.2542
G01 X17.3405 Y13.2024
G01 X17.3262 Y13.1929
G01 X17.3023 Y13.1753
G01 X12.3753 Y13.1753
G01 X12.3753 Y14.3915
G01 X12.3927 Y14.3428
G01 X12.3989 Y14.3268
G01 X12.4059 Y14.3111
G01 X12.4359 Y14.2479
G01 X12.4483 Y14.2253
G01 X12.4799 Y14.1727
G01 X12.4939 Y14.1511
G01 X12.5355 Y14.0948
G01 X12.5461 Y14.0813
G01 X12.5573 Y14.0683
G01 X12.5985 Y14.0228
G01 X12.6103 Y14.0103
G01 X12.6228 Y13.9985
G01 X12.6683 Y13.9573
G01 X12.6813 Y13.9461
G01 X12.6948 Y13.9355
G01 X12.7441 Y13.8989
G01 X12.7581 Y13.8891
G01 X12.7727 Y13.8799
G01 X12.8253 Y13.8483
G01 X12.8402 Y13.8399
G01 X12.8556 Y13.8321
G01 X12.9111 Y13.8059
G01 X12.9268 Y13.7989
G01 X12.9428 Y13.7927
G01 X13.0006 Y13.7721
G01 X13.0169 Y13.7667
G01 X13.0334 Y13.7621
G01 X13.0930 Y13.7472
G01 X13.1097 Y13.7434
G01 X13.1267 Y13.7405
G01 X13.1959 Y13.7303
G01 X13.2215 Y13.7281
G01 X13.2828 Y13.7251
G01 X13.3000 Y13.7247
G01 X17.3618 Y13.7247
G01 X17.4194 Y13.6902
G01 X17.4343 Y13.6817
G01 X17.4497 Y13.6740
G01 X17.5251 Y13.6383
G01 X17.5488 Y13.6282
G01 X17.6353 Y13.5971
G01 X17.6599 Y13.5893
G01 X17.7575 Y13.5648
G01 X17.7828 Y13.5601
G01 X17.8653 Y13.5479
G01 X17.8824 Y13.5458
G01 X17.8995 Y13.5445
G01 X17.9828 Y13.5404
G01 X18.0000 Y13.5400
G01 X18.0172 Y13.5404
G01 X18.1005 Y13.5445
G01 X18.1176 Y13.5458
G01 X18.1347 Y13.5479
G01 X18.2172 Y13.5601
G01 X18.2341 Y13.5631
G01 X18.2509 Y13.5668
G01 X18.3401 Y13.5893
G01 X18.3647 Y13.5971
G01 X18.4432 Y13.6252
G01 X18.4592 Y13.6313
G01 X18.4749 Y13.6383
G01 X18.5503 Y13.6740
G01 X18.5657 Y13.6817
G01 X18.5806 Y13.6902
G01 X18.6522 Y13.7330
G01 X18.6667 Y13.7422
G01 X18.6807 Y13.7521
G01 X18.7477 Y13.8018
G01 X18.7613 Y13.8124
G01 X18.7743 Y13.8236
G01 X18.8361 Y13.8796
G01 X18.8485 Y13.8915
G01 X18.8604 Y13.9039
G01 X18.9164 Y13.9657
G01 X18.9276 Y13.9787
G01 X18.9382 Y13.9923
G01 X18.9879 Y14.0593
G01 X18.9978 Y14.0733
G01 X19.0070 Y14.0878
G01 X19.0498 Y14.1594
G01 X19.0583 Y14.1743
G01 X19.0660 Y14.1897
G01 X19.1017 Y14.2651
G01 X19.1087 Y14.2808
G01 X19.1148 Y14.2968
G01 X19.1429 Y14.3753
G01 X19.1483 Y14.3917
G01 X19.1529 Y14.4082
G01 X19.1732 Y14.4891
G01 X19.1769 Y14.5059
G01 X19.1799 Y14.5228
G01 X19.1921 Y14.6053
G01 X19.1942 Y14.6224
G01 X19.1955 Y14.6395
G01 X19.1996 Y14.7228
G01 X19.2000 Y14.7400
G01 X19.1996 Y14.7572
G01 X19.1955 Y14.8405
G01 X19.1942 Y14.8576
G01 X19.1921 Y14.8747
G01 X19.1799 Y14.9572
G01 X19.1769 Y14.9741
G01 X19.1732 Y14.9909
G01 X19.1507 Y15.0801
G01 X19.1429 Y15.1047
G01 X19.1148 Y15.1832
G01 X19.1087 Y15.1992
G01 X19.1017 Y15.2149
G01 X19.0660 Y15.2903
G01 X19.0583 Y15.3057
G01 X19.0498 Y15.3206
G01 X19.0070 Y15.3922
G01 X18.9978 Y15.4067
G01 X18.9879 Y15.4207
G01 X18.9382 Y15.4877
G01 X18.9276 Y15.5013
G01 X18.9164 Y15.5143
G01 X18.8604 Y15.5761
G01 X18.8485 Y15.5885
G01 X18.8361 Y15.6004
G01 X18.7743 Y15.6564
G01 X18.7613 Y15.6676
G01 X18.7477 Y15.6782
G01 X18.6807 Y15.7279
G01 X18.6667 Y15.7378
G01 X18.6522 Y15.7470
G01 X18.5806 Y15.7898
G01 X18.5657 Y15.7983
G01 X18.5503 Y15.8060
G01 X18.4749 Y15.8417
G01 X18.4592 Y15.8487
G01 X18.4432 Y15.8548
G01 X18.3647 Y15.8829
G01 X18.3483 Y15.8883
G01 X18.3318 Y15.8929
G01 X18.2509 Y15.9132
G01 X18.2341 Y15.9169
G01 X18.2172 Y15.9199
G01 X18.1262 Y15.9333
G01 X18.1005 Y15.9355
G01 X18.0172 Y15.9396
G01 X18.0000 Y15.9400
G01 X17.9828 Y15.9396
G01 X17.8995 Y15.9355
G01 X17.8824 Y15.9342
G01 X17.8653 Y15.9321
G01 X17.7828 Y15.9199
G01 X17.7659 Y15.9169
G01 X17.7491 Y15.9132
G01 X17.6682 Y15.8929
G01 X17.6517 Y15.8883
G01 X17.6353 Y15.8829
G01 X17.5568 Y15.8548
G01 X17.5408 Y15.8487
G01 X17.5251 Y15.8417
G01 X17.4497 Y15.8060
G01 X17.4343 Y15.7983
G01 X17.4194 Y15.7898
G01 X17.3478 Y15.7470
G01 X17.3333 Y15.7378
G01 X17.3193 Y15.7279
G01 X17.2485 Y15.6753
G01 X14.2753 Y15.6753
G01 X14.2752 Y15.9086
G01 X14.2714 Y15.9870
G01 X14.2685 Y16.0126
G01 X14.2595 Y16.0733
G01 X14.2566 Y16.0903
G01 X14.2528 Y16.1070
G01 X14.2357 Y16.1749
G01 X14.2279 Y16.1994
G01 X14.2073 Y16.2572
G01 X14.2011 Y16.2732
G01 X14.1941 Y16.2889
G01 X14.1679 Y16.3444
G01 X14.1601 Y16.3598
G01 X14.1517 Y16.3747
G01 X14.1201 Y16.4273
G01 X14.1109 Y16.4419
G01 X14.1011 Y16.4559
G01 X14.0645 Y16.5052
G01 X14.0539 Y16.5187
G01 X14.0427 Y16.5317
G01 X14.0015 Y16.5772
G01 X13.9897 Y16.5897
G01 X10.6635 Y19.9156
G01 X10.6117 Y19.9627
G01 X10.5920 Y19.9793
G01 X10.5289 Y20.0261
G01 X10.5073 Y20.0401
G01 X10.4547 Y20.0717
G01 X10.4398 Y20.0801
G01 X10.4244 Y20.0879
G01 X10.3689 Y20.1141
G01 X10.3453 Y20.1243
G01 X10.2713 Y20.1507
G01 X10.2466 Y20.1579
G01 X10.1870 Y20.1728
G01 X10.1703 Y20.1766
G01 X10.1533 Y20.1795
G01 X10.0926 Y20.1885
G01 X10.0756 Y20.1906
G01 X10.0585 Y20.1919
G01 X9.9886 Y20.1952
G01 X7.7596 Y20.1953
G01 X7.7143 Y20.2364
G01 X7.7013 Y20.2476
G01 X7.6877 Y20.2582
G01 X7.6207 Y20.3079
G01 X7.5995 Y20.3224
G01 X7.5132 Y20.3742
G01 X7.4903 Y20.3860
G01 X7.4149 Y20.4217
G01 X7.3992 Y20.4287
G01 X7.3832 Y20.4348
G01 X7.3047 Y20.4629
G01 X7.2801 Y20.4707
G01 X7.1825 Y20.4952
G01 X7.1572 Y20.4999
G01 X7.0747 Y20.5121
G01 X7.0576 Y20.5142
G01 X7.0405 Y20.5155
G01 X6.9572 Y20.5196
G01 X6.9400 Y20.5200
G01 X6.9228 Y20.5196
G01 X6.8395 Y20.5155
G01 X6.8224 Y20.5142
G01 X6.8053 Y20.5121
G01 X6.7228 Y20.4999
G01 X6.7059 Y20.4969
G01 X6.6891 Y20.4932
G01 X6.6082 Y20.4729
G01 X6.5917 Y20.4683
G01 X6.5753 Y20.4629
G01 X6.4968 Y20.4348
G01 X6.4808 Y20.4287
G01 X6.4651 Y20.4217
G01 X6.3897 Y20.3860
G01 X6.3743 Y20.3783
G01 X6.3594 Y20.3698
G01 X6.2878 Y20.3270
G01 X6.2733 Y20.3178
G01 X6.2593 Y20.3079
G01 X6.1923 Y20.2582
G01 X6.1787 Y20.2476
G01 X6.1657 Y20.2364
G01 X6.1039 Y20.1804
G01 X6.0915 Y20.1685
G01 X6.0796 Y20.1561
G01 X6.0236 Y20.0943
G01 X6.0124 Y20.0813
G01 X6.0018 Y20.0677
G01 X5.9521 Y20.0007
G01 X5.9376 Y19.9795
G01 X5.8902 Y19.9006
G01 X5.8817 Y19.8857
G01 X5.8740 Y19.8703
G01 X5.8383 Y19.7949
G01 X5.8313 Y19.7792
G01 X5.8252 Y19.7632
G01 X5.7971 Y19.6847
G01 X5.7917 Y19.6683
G01 X5.7871 Y19.6518
G01 X5.7668 Y19.5709
G01 X5.7631 Y19.5541
G01 X5.7601 Y19.5372
G01 X5.7479 Y19.4547
G01 X5.7458 Y19.4376
G01 X5.7445 Y19.4205
G01 X5.7404 Y19.3372
G01 X5.7400 Y19.3200
G01 X5.7404 Y19.3028
G01 X5.7445 Y19.2195
G01 X5.7458 Y19.2024
G01 X5.7479 Y19.1853
G01 X5.7601 Y19.1028
G01 X5.7631 Y19.0859
G01 X5.7668 Y19.0691
G01 X5.7871 Y18.9882
G01 X5.7917 Y18.9717
G01 X5.7971 Y18.9553
G01 X5.8252 Y18.8768
G01 X5.8313 Y18.8608
G01 X5.8383 Y18.8451
G01 X5.8740 Y18.7697
G01 X5.8817 Y18.7543
G01 X5.8902 Y18.7394
G01 X5.9330 Y18.6678
G01 X5.9422 Y18.6533
G01 X5.9521 Y18.6393
G01 X6.0018 Y18.5723
G01 X6.0124 Y18.5587
G01 X6.0236 Y18.5457
G01 X6.0796 Y18.4839
G01 X6.0915 Y18.4715
G01 X6.1039 Y18.4596
G01 X6.1657 Y18.4036
G01 X6.1787 Y18.3924
G01 X6.1923 Y18.3818
G01 X6.2593 Y18.3321
G01 X6.2733 Y18.3222
G01 X6.2878 Y18.3130
G01 X6.3594 Y18.2702
G01 X6.3743 Y18.2617
G01 X6.3897 Y18.2540
G01 X6.4651 Y18.2183
G01 X6.4808 Y18.2113
G01 X6.4968 Y18.2052
G01 X6.5753 Y18.1771
G01 X6.5917 Y18.1717
G01 X6.6082 Y18.1671
G01 X6.6975 Y18.1448
G01 X6.7228 Y18.1401
G01 X6.8053 Y18.1279
G01 X6.8224 Y18.1258
G01 X6.8395 Y18.1245
G01 X6.9228 Y18.1204
G01 X6.9400 Y18.1200
G01 X6.9572 Y18.1204
G01 X7.0405 Y18.1245
G01 X7.0662 Y18.1267
G01 X7.1572 Y18.1401
G01 X7.1741 Y18.1431
G01 X7.1909 Y18.1468
G01 X7.2718 Y18.1671
G01 X7.2883 Y18.1717
G01 X7.3047 Y18.1771
G01 X7.3832 Y18.2052
G01 X7.3992 Y18.2113
G01 X7.4149 Y18.2183
G01 X7.4707 Y18.2447
G01 X9.5760 Y18.2447
G01 X12.3247 Y15.4960
G01 X12.3247 Y15.0085
G01 X12.3073 Y15.0572
G01 X12.3011 Y15.0732
G01 X12.2941 Y15.0889
G01 X12.2679 Y15.1444
G01 X12.2560 Y15.1673
G01 X12.2201 Y15.2273
G01 X12.2061 Y15.2489
G01 X12.1593 Y15.3120
G01 X12.1427 Y15.3317
G01 X12.0956 Y15.3835
G01 X10.1035 Y17.3756
G01 X10.0517 Y17.4227
G01 X10.0387 Y17.4339
G01 X10.0252 Y17.4445
G01 X9.9689 Y17.4861
G01 X9.9473 Y17.5001
G01 X9.8947 Y17.5317
G01 X9.8798 Y17.5401
G01 X9.8644 Y17.5479
G01 X9.8089 Y17.5741
G01 X9.7932 Y17.5811
G01 X9.7772 Y17.5873
G01 X9.7194 Y17.6079
G01 X9.6949 Y17.6157
G01 X9.6270 Y17.6328
G01 X9.6018 Y17.6381
G01 X9.5241 Y17.6497
G01 X9.4985 Y17.6519
G01 X9.4372 Y17.6549
G01 X9.4200 Y17.6553
G01 X7.7596 Y17.6553
G01 X7.7143 Y17.6964
G01 X7.7013 Y17.7076
G01 X7.6877 Y17.7182
G01 X7.6207 Y17.7679
G01 X7.6067 Y17.7778
G01 X7.5922 Y17.7870
G01 X7.5206 Y17.8298
G01 X7.5057 Y17.8383
G01 X7.4903 Y17.8460
G01 X7.4071 Y17.8853
G01 X7.3832 Y17.8948
G01 X7.3047 Y17.9229
G01 X7.2883 Y17.9283
G01 X7.2718 Y17.9329
G01 X7.1909 Y17.9532
G01 X7.1741 Y17.9569
G01 X7.1572 Y17.9599
G01 X7.0747 Y17.9721
G01 X7.0491 Y17.9750
G01 X6.9572 Y17.9796
G01 X6.9400 Y17.9800
G01 X6.9228 Y17.9796
G01 X6.8395 Y17.9755
G01 X6.8224 Y17.9742
G01 X6.8053 Y17.9721
G01 X6.7228 Y17.9599
G01 X6.7059 Y17.9569
G01 X6.6891 Y17.9532
G01 X6.6082 Y17.9329
G01 X6.5917 Y17.9283
G01 X6.5753 Y17.9229
G01 X6.4968 Y17.8948
G01 X6.4808 Y17.8887
G01 X6.4651 Y17.8817
G01 X6.3819 Y17.8423
G01 X6.3594 Y17.8298
G01 X6.2878 Y17.7870
G01 X6.2733 Y17.7778
G01 X6.2593 Y17.7679
G01 X6.1923 Y17.7182
G01 X6.1787 Y17.7076
G01 X6.1657 Y17.6964
G01 X6.1039 Y17.6404
G01 X6.0915 Y17.6285
G01 X6.0796 Y17.6161
G01 X6.0236 Y17.5543
G01 X6.0124 Y17.5413
G01 X6.0018 Y17.5277
G01 X5.9521 Y17.4607
G01 X5.9422 Y17.4467
G01 X5.9330 Y17.4322
G01 X5.8902 Y17.3606
G01 X5.8817 Y17.3457
G01 X5.8740 Y17.3303
G01 X5.8383 Y17.2549
G01 X5.8313 Y17.2392
G01 X5.8252 Y17.2232
G01 X5.7971 Y17.1447
G01 X5.7917 Y17.1283
G01 X5.7871 Y17.1118
G01 X5.7668 Y17.0309
G01 X5.7631 Y17.0141
G01 X5.7601 Y16.9972
G01 X5.7479 Y16.9147
G01 X5.7458 Y16.8976
G01 X5.7445 Y16.8805
G01 X5.7404 Y16.7972
G01 X5.7400 Y16.7800
G01 X5.7404 Y16.7628
G01 X5.7445 Y16.6795
G01 X5.7458 Y16.6624
G01 X5.7479 Y16.6453
G01 X5.7601 Y16.5628
G01 X5.7631 Y16.5459
G01 X5.7668 Y16.5291
G01 X5.7871 Y16.4482
G01 X5.7917 Y16.4317
G01 X5.7971 Y16.4153
G01 X5.8252 Y16.3368
G01 X5.8313 Y16.3208
G01 X5.8383 Y16.3051
G01 X5.8777 Y16.2219
G01 X5.8902 Y16.1994
G01 X5.9330 Y16.1278
G01 X5.9422 Y16.1133
G01 X5.9521 Y16.0993
G01 X6.0018 Y16.0323
G01 X6.0124 Y16.0187
G01 X6.0236 Y16.0057
G01 X6.0796 Y15.9439
G01 X6.0915 Y15.9315
G01 X6.1039 Y15.9196
G01 X6.1657 Y15.8636
G01 X6.1787 Y15.8524
G01 X6.1923 Y15.8418
G01 X6.2593 Y15.7921
G01 X6.2733 Y15.7822
G01 X6.2878 Y15.7730
G01 X6.3594 Y15.7302
G01 X6.3743 Y15.7217
G01 X6.3897 Y15.7140
G01 X6.4651 Y15.6783
G01 X6.4808 Y15.6713
G01 X6.4968 Y15.6652
G01 X6.5835 Y15.6343
G01 X6.6082 Y15.6271
G01 X6.6891 Y15.6068
G01 X6.7059 Y15.6031
G01 X6.7228 Y15.6001
G01 X6.8053 Y15.5879
G01 X6.8224 Y15.5858
G01 X6.8395 Y15.5845
G01 X6.9228 Y15.5804
G01 X6.9400 Y15.5800
G01 X6.9572 Y15.5804
G01 X7.0491 Y15.5850
G01 X7.0747 Y15.5879
G01 X7.1572 Y15.6001
G01 X7.1741 Y15.6031
G01 X7.1909 Y15.6068
G01 X7.2801 Y15.6293
G01 X7.3047 Y15.6371
G01 X7.3912 Y15.6682
G01 X7.4149 Y15.6783
G01 X7.4707 Y15.7047
G00 Z1.7000
G00 X10.3700 Y13.7900
F60.00
G01 Z-0.2800
F100.00
G01 X10.3700 Y12.0600
G01 X10.4300 Y12.0600
G01 X10.4300 Y13.7900
G01 X10.3700 Y13.7900
G00 Z1.7000
G00 X12.3800 Y14.2400
F60.00
G01 Z-0.2800
F100.00
G01 X12.3100 Y15.0600
G00 Z1.7000
G00 X3.5804 Y15.1153
F60.00
G01 Z-0.2800
F100.00
G01 X2.2400 Y15.1153
G01 X2.2228 Y15.1149
G01 X2.1615 Y15.1119
G01 X2.1444 Y15.1106
G01 X2.1274 Y15.1085
G01 X2.0667 Y15.0995
G01 X2.0497 Y15.0966
G01 X2.0330 Y15.0928
G01 X1.9734 Y15.0779
G01 X1.9569 Y15.0733
G01 X1.9406 Y15.0679
G01 X1.8747 Y15.0443
G01 X1.8511 Y15.0341
G01 X1.7956 Y15.0079
G01 X1.7802 Y15.0001
G01 X1.7653 Y14.9917
G01 X1.7127 Y14.9601
G01 X1.6981 Y14.9509
G01 X1.6841 Y14.9411
G01 X1.6280 Y14.8993
G01 X1.6083 Y14.8827
G01 X1.5565 Y14.8356
G01 X1.5103 Y14.7897
G01 X1.4985 Y14.7772
G01 X1.4573 Y14.7317
G01 X1.4407 Y14.7120
G01 X1.3989 Y14.6559
G01 X1.3891 Y14.6419
G01 X1.3799 Y14.6273
G01 X1.3483 Y14.5747
G01 X1.3399 Y14.5598
G01 X1.3321 Y14.5444
G01 X1.3059 Y14.4889
G01 X1.2989 Y14.4732
G01 X1.2927 Y14.4572
G01 X1.2721 Y14.3994
G01 X1.2667 Y14.3831
G01 X1.2621 Y14.3666
G01 X1.2472 Y14.3070
G01 X1.2434 Y14.2903
G01 X1.2405 Y14.2733
G01 X1.2315 Y14.2126
G01 X1.2294 Y14.1956
G01 X1.2281 Y14.1785
G01 X1.2251 Y14.1172
G01 X1.2247 Y14.1000
G01 X1.2248 Y1.5914
G01 X1.2281 Y1.5215
G01 X1.2303 Y1.4959
G01 X1.2419 Y1.4182
G01 X1.2472 Y1.3930
G01 X1.2621 Y1.3334
G01 X1.2667 Y1.3169
G01 X1.2721 Y1.3006
G01 X1.2927 Y1.2428
G01 X1.3023 Y1.2189
G01 X1.3321 Y1.1556
G01 X1.3399 Y1.1402
G01 X1.3483 Y1.1253
G01 X1.3799 Y1.0727
G01 X1.3891 Y1.0581
G01 X1.3989 Y1.0441
G01 X1.4355 Y0.9948
G01 X1.4461 Y0.9813
G01 X1.4573 Y0.9683
G01 X1.4985 Y0.9228
G01 X1.5103 Y0.9103
G01 X1.5228 Y0.8985
G01 X1.5683 Y0.8573
G01 X1.5813 Y0.8461
G01 X1.5948 Y0.8355
G01 X1.6441 Y0.7989
G01 X1.6581 Y0.7891
G01 X1.6727 Y0.7799
G01 X1.7253 Y0.7483
G01 X1.7402 Y0.7399
G01 X1.7556 Y0.7321
G01 X1.8111 Y0.7059
G01 X1.8268 Y0.6989
G01 X1.8428 Y0.6927
G01 X1.9006 Y0.6721
G01 X1.9169 Y0.6667
G01 X1.9334 Y0.6621
G01 X2.0013 Y0.6452
G01 X2.0267 Y0.6405
G01 X2.0874 Y0.6315
G01 X2.1044 Y0.6294
G01 X2.1215 Y0.6281
G01 X2.1828 Y0.6251
G01 X2.2000 Y0.6247
G01 X20.2000 Y0.6247
G01 X20.2172 Y0.6251
G01 X20.2785 Y0.6281
G01 X20.2956 Y0.6294
G01 X20.3126 Y0.6315
G01 X20.3733 Y0.6405
G01 X20.3903 Y0.6434
G01 X20.4070 Y0.6472
G01 X20.4666 Y0.6621
G01 X20.4831 Y0.6667
G01 X20.4994 Y0.6721
G01 X20.5572 Y0.6927
G01 X20.5732 Y0.6989
G01 X20.5889 Y0.7059
G01 X20.6521 Y0.7359
G01 X20.6747 Y0.7483
G01 X20.7273 Y0.7799
G01 X20.7419 Y0.7891
G01 X20.7559 Y0.7989
G01 X20.8052 Y0.8355
G01 X20.8187 Y0.8461
G01 X20.8317 Y0.8573
G01 X20.8772 Y0.8985
G01 X20.8897 Y0.9103
G01 X20.9015 Y0.9228
G01 X20.9427 Y0.9683
G01 X20.9539 Y0.9813
G01 X20.9645 Y0.9948
G01 X21.0011 Y1.0441
G01 X21.0109 Y1.0581
G01 X21.0201 Y1.0727
G01 X21.0517 Y1.1253
G01 X21.0601 Y1.1402
G01 X21.0679 Y1.1556
G01 X21.0977 Y1.2189
G01 X21.1073 Y1.2428
G01 X21.1279 Y1.3006
G01 X21.1333 Y1.3169
G01 X21.1379 Y1.3334
G01 X21.1528 Y1.3930
G01 X21.1566 Y1.4097
G01 X21.1595 Y1.4267
G01 X21.1685 Y1.4874
G01 X21.1706 Y1.5044
G01 X21.1719 Y1.5215
G01 X21.1749 Y1.5828
G01 X21.1753 Y1.6000
G01 X21.1753 Y6.6000
G01 X21.1749 Y6.6172
G01 X21.1714 Y6.6870
G01 X21.1685 Y6.7126
G01 X21.1595 Y6.7733
G01 X21.1566 Y6.7903
G01 X21.1528 Y6.8070
G01 X21.1379 Y6.8666
G01 X21.1333 Y6.8831
G01 X21.1279 Y6.8994
G01 X21.1073 Y6.9572
G01 X21.1011 Y6.9732
G01 X21.0941 Y6.9889
G01 X21.0679 Y7.0444
G01 X21.0601 Y7.0598
G01 X21.0517 Y7.0747
G01 X21.0201 Y7.1273
G01 X21.0109 Y7.1419
G01 X21.0011 Y7.1559
G01 X20.9593 Y7.2120
G01 X20.9427 Y7.2317
G01 X20.9015 Y7.2772
G01 X20.8897 Y7.2897
G01 X20.8772 Y7.3015
G01 X20.8317 Y7.3427
G01 X20.8187 Y7.3539
G01 X20.8052 Y7.3645
G01 X20.7489 Y7.4061
G01 X20.7273 Y7.4201
G01 X20.6747 Y7.4517
G01 X20.6521 Y7.4641
G01 X20.5889 Y7.4941
G01 X20.5732 Y7.5011
G01 X20.5572 Y7.5073
G01 X20.4994 Y7.5279
G01 X20.4831 Y7.5333
G01 X20.4666 Y7.5379
G01 X20.4070 Y7.5528
G01 X20.3818 Y7.5581
G01 X20.3126 Y7.5685
G01 X20.2956 Y7.5706
G01 X20.2785 Y7.5719
G01 X20.2086 Y7.5752
G01 X19.1102 Y7.5753
G01 X19.1017 Y7.5949
G01 X19.0660 Y7.6703
G01 X19.0583 Y7.6857
G01 X19.0498 Y7.7006
G01 X19.0070 Y7.7722
G01 X18.9978 Y7.7867
G01 X18.9879 Y7.8007
G01 X18.9382 Y7.8677
G01 X18.9276 Y7.8813
G01 X18.9164 Y7.8943
G01 X18.8604 Y7.9561
G01 X18.8485 Y7.9685
G01 X18.8361 Y7.9804
G01 X18.7743 Y8.0364
G01 X18.7613 Y8.0476
G01 X18.7477 Y8.0582
G01 X18.6807 Y8.1079
G01 X18.6667 Y8.1178
G01 X18.6522 Y8.1270
G01 X18.5806 Y8.1698
G01 X18.5657 Y8.1783
G01 X18.5503 Y8.1860
G01 X18.4749 Y8.2217
G01 X18.4592 Y8.2287
G01 X18.4432 Y8.2348
G01 X18.3647 Y8.2629
G01 X18.3483 Y8.2683
G01 X18.3318 Y8.2729
G01 X18.2509 Y8.2932
G01 X18.2341 Y8.2969
G01 X18.2172 Y8.2999
G01 X18.1347 Y8.3121
G01 X18.1176 Y8.3142
G01 X18.1005 Y8.3155
G01 X18.0172 Y8.3196
G01 X18.0000 Y8.3200
G01 X17.9828 Y8.3196
G01 X17.8995 Y8.3155
G01 X17.8824 Y8.3142
G01 X17.8653 Y8.3121
G01 X17.7828 Y8.2999
G01 X17.7659 Y8.2969
G01 X17.7491 Y8.2932
G01 X17.6682 Y8.2729
G01 X17.6517 Y8.2683
G01 X17.6353 Y8.2629
G01 X17.5568 Y8.2348
G01 X17.5408 Y8.2287
G01 X17.5251 Y8.2217
G01 X17.4497 Y8.1860
G01 X17.4343 Y8.1783
G01 X17.4194 Y8.1698
G01 X17.3405 Y8.1224
G01 X17.3193 Y8.1079
G01 X17.2523 Y8.0582
G01 X17.2387 Y8.0476
G01 X17.2257 Y8.0364
G01 X17.1639 Y7.9804
G01 X17.1515 Y7.9685
G01 X17.1396 Y7.9561
G01 X17.0836 Y7.8943
G01 X17.0724 Y7.8813
G01 X17.0618 Y7.8677
G01 X17.0121 Y7.8007
G01 X17.0022 Y7.7867
G01 X16.9930 Y7.7722
G01 X16.9502 Y7.7006
G01 X16.9417 Y7.6857
G01 X16.9340 Y7.6703
G01 X16.8947 Y7.5871
G01 X16.8852 Y7.5632
G01 X16.8571 Y7.4847
G01 X16.8517 Y7.4683
G01 X16.8471 Y7.4518
G01 X16.8268 Y7.3709
G01 X16.8231 Y7.3541
G01 X16.8201 Y7.3372
G01 X16.8079 Y7.2547
G01 X16.8058 Y7.2376
G01 X16.8045 Y7.2205
G01 X16.8004 Y7.1372
G01 X16.8001 Y7.1114
G01 X16.8045 Y7.0195
G01 X16.8058 Y7.0024
G01 X16.8079 Y6.9853
G01 X16.8201 Y6.9028
G01 X16.8231 Y6.8859
G01 X16.8268 Y6.8691
G01 X16.8493 Y6.7799
G01 X16.8571 Y6.7553
G01 X16.8852 Y6.6768
G01 X16.8913 Y6.6608
G01 X16.8983 Y6.6451
G01 X16.9340 Y6.5697
G01 X16.9417 Y6.5543
G01 X16.9502 Y6.5394
G01 X16.9930 Y6.4678
G01 X17.0022 Y6.4533
G01 X17.0121 Y6.4393
G01 X17.0618 Y6.3723
G01 X17.0724 Y6.3587
G01 X17.0836 Y6.3457
G01 X17.1396 Y6.2839
G01 X17.1515 Y6.2715
G01 X17.1639 Y6.2596
G01 X17.2322 Y6.1979
G01 X17.2523 Y6.1818
G01 X17.3193 Y6.1321
G01 X17.3333 Y6.1222
G01 X17.3478 Y6.1130
G01 X17.4194 Y6.0702
G01 X17.4343 Y6.0617
G01 X17.4497 Y6.0540
G01 X17.5329 Y6.0147
G01 X17.5568 Y6.0052
G01 X17.6353 Y5.9771
G01 X17.6599 Y5.9693
G01 X17.7575 Y5.9448
G01 X17.7743 Y5.9415
G01 X17.8037 Y5.9370
G01 X17.8365 Y5.9044
G01 X17.8883 Y5.8573
G01 X17.9013 Y5.8461
G01 X17.9148 Y5.8355
G01 X17.9641 Y5.7989
G01 X17.9781 Y5.7891
G01 X17.9926 Y5.7799
G01 X17.8995 Y5.7755
G01 X17.8824 Y5.7742
G01 X17.8653 Y5.7721
G01 X17.7828 Y5.7599
G01 X17.7659 Y5.7569
G01 X17.7491 Y5.7532
G01 X17.6682 Y5.7329
G01 X17.6435 Y5.7257
G01 X17.5568 Y5.6948
G01 X17.5408 Y5.6887
G01 X17.5251 Y5.6817
G01 X17.4419 Y5.6423
G01 X17.4194 Y5.6298
G01 X17.3405 Y5.5824
G01 X17.3262 Y5.5729
G01 X17.3023 Y5.5553
G01 X7.9153 Y5.5553
G01 X7.9153 Y11.0023
G01 X7.9329 Y11.0262
G01 X7.9424 Y11.0405
G01 X7.9898 Y11.1194
G01 X8.0023 Y11.1419
G01 X8.0417 Y11.2251
G01 X8.0487 Y11.2408
G01 X8.0548 Y11.2568
G01 X8.0829 Y11.3353
G01 X8.0907 Y11.3599
G01 X8.1132 Y11.4491
G01 X8.1169 Y11.4659
G01 X8.1199 Y11.4828
G01 X8.1321 Y11.5653
G01 X8.1342 Y11.5824
G01 X8.1355 Y11.5995
G01 X8.1396 Y11.6828
G01 X8.1400 Y11.7000
G01 X8.1396 Y11.7172
G01 X8.1355 Y11.8005
G01 X8.1333 Y11.8262
G01 X8.1199 Y11.9172
G01 X8.1169 Y11.9341
G01 X8.1132 Y11.9509
G01 X8.0929 Y12.0318
G01 X8.0883 Y12.0483
G01 X8.0829 Y12.0647
G01 X8.0548 Y12.1432
G01 X8.0487 Y12.1592
G01 X8.0417 Y12.1749
G01 X8.0060 Y12.2503
G01 X7.9942 Y12.2732
G01 X7.9470 Y12.3522
G01 X7.9378 Y12.3667
G01 X7.9279 Y12.3807
G01 X7.8782 Y12.4477
G01 X7.8676 Y12.4613
G01 X7.8564 Y12.4743
G01 X7.8004 Y12.5361
G01 X7.7885 Y12.5485
G01 X7.7761 Y12.5604
G01 X7.7143 Y12.6164
G01 X7.7013 Y12.6276
G01 X7.6877 Y12.6382
G01 X7.6207 Y12.6879
G01 X7.6067 Y12.6978
G01 X7.5922 Y12.7070
G01 X7.5132 Y12.7542
G01 X7.4903 Y12.7660
G01 X7.4149 Y12.8017
G01 X7.3992 Y12.8087
G01 X7.3832 Y12.8148
G01 X7.3047 Y12.8429
G01 X7.2883 Y12.8483
G01 X7.2718 Y12.8529
G01 X7.1909 Y12.8732
G01 X7.1741 Y12.8769
G01 X7.1572 Y12.8799
G01 X7.0747 Y12.8921
G01 X7.0576 Y12.8942
G01 X7.0405 Y12.8955
G01 X6.9572 Y12.8996
G01 X6.9400 Y12.9000
G01 X6.9228 Y12.8996
G01 X6.8395 Y12.8955
G01 X6.8224 Y12.8942
G01 X6.8053 Y12.8921
G01 X6.7228 Y12.8799
G01 X6.7059 Y12.8769
G01 X6.6891 Y12.8732
G01 X6.5999 Y12.8507
G01 X6.5753 Y12.8429
G01 X6.4968 Y12.8148
G01 X6.4808 Y12.8087
G01 X6.4651 Y12.8017
G01 X6.3819 Y12.7623
G01 X6.3594 Y12.7498
G01 X6.2805 Y12.7024
G01 X6.2662 Y12.6929
G01 X6.2423 Y12.6753
G01 X5.4681 Y12.6753
G01 X5.4583 Y12.6872
G01 X5.4303 Y12.7181
G01 X5.4181 Y12.7303
G01 X5.3872 Y12.7583
G01 X5.3739 Y12.7692
G01 X5.3404 Y12.7940
G01 X5.3261 Y12.8036
G01 X5.2904 Y12.8250
G01 X5.2752 Y12.8331
G01 X5.2375 Y12.8509
G01 X5.2216 Y12.8575
G01 X5.1824 Y12.8716
G01 X5.1659 Y12.8766
G01 X5.1255 Y12.8867
G01 X5.1086 Y12.8900
G01 X5.0673 Y12.8962
G01 X5.0417 Y12.8984
G01 X5.0000 Y12.9000
G01 X3.8000 Y12.9000
G01 X3.7828 Y12.8996
G01 X3.7497 Y12.8978
G01 X3.7241 Y12.8950
G01 X3.6914 Y12.8900
G01 X3.6745 Y12.8867
G01 X3.6424 Y12.8787
G01 X3.6258 Y12.8742
G01 X3.5864 Y12.8605
G01 X3.5704 Y12.8543
G01 X3.5547 Y12.8474
G01 X3.5248 Y12.8331
G01 X3.5096 Y12.8250
G01 X3.4812 Y12.8081
G01 X3.4667 Y12.7989
G01 X3.4526 Y12.7890
G01 X3.4261 Y12.7692
G01 X3.4128 Y12.7583
G01 X3.3819 Y12.7303
G01 X3.3697 Y12.7181
G01 X3.3474 Y12.6936
G01 X3.3362 Y12.6806
G01 X3.3110 Y12.6474
G01 X3.3011 Y12.6333
G01 X3.2919 Y12.6188
G01 X3.2708 Y12.5828
G01 X3.2631 Y12.5675
G01 X3.2491 Y12.5375
G01 X3.2425 Y12.5216
G01 X3.2284 Y12.4824
G01 X3.2234 Y12.4659
G01 X3.2153 Y12.4338
G01 X3.2115 Y12.4171
G01 X3.2086 Y12.4001
G01 X3.2038 Y12.3673
G01 X3.2022 Y12.3503
G01 X3.2004 Y12.3172
G01 X3.2000 Y12.3000
G01 X3.2000 Y11.1000
G01 X3.2016 Y11.0583
G01 X3.2029 Y11.0412
G01 X3.2050 Y11.0241
G01 X3.2100 Y10.9914
G01 X3.2153 Y10.9662
G01 X3.2258 Y10.9258
G01 X3.2395 Y10.8864
G01 X3.2457 Y10.8704
G01 X3.2526 Y10.8547
G01 X3.2708 Y10.8172
G01 X3.2919 Y10.7812
G01 X3.3060 Y10.7596
G01 X3.3308 Y10.7261
G01 X3.3417 Y10.7128
G01 X3.3697 Y10.6819
G01 X3.3882 Y10.6639
G01 X3.4194 Y10.6362
G01 X3.4526 Y10.6110
G01 X3.4739 Y10.5964
G01 X3.5022 Y10.5793
G01 X3.5248 Y10.5669
G01 X3.5625 Y10.5491
G01 X3.5864 Y10.5395
G01 X3.6258 Y10.5258
G01 X3.6662 Y10.5153
G01 X3.6914 Y10.5100
G01 X3.7327 Y10.5038
G01 X3.7583 Y10.5016
G01 X3.8000 Y10.5000
G01 X5.0000 Y10.5000
G01 X5.0417 Y10.5016
G01 X5.0673 Y10.5038
G01 X5.1086 Y10.5100
G01 X5.1255 Y10.5133
G01 X5.1659 Y10.5234
G01 X5.1905 Y10.5312
G01 X5.2296 Y10.5457
G01 X5.2453 Y10.5526
G01 X5.2828 Y10.5708
G01 X5.3188 Y10.5919
G01 X5.3333 Y10.6011
G01 X5.3474 Y10.6110
G01 X5.3806 Y10.6362
G01 X5.4118 Y10.6639
G01 X5.4243 Y10.6757
G01 X5.4526 Y10.7064
G01 X5.4681 Y10.7247
G01 X5.9647 Y10.7247
G01 X5.9647 Y4.5600
G01 X5.9651 Y4.5428
G01 X5.9681 Y4.4815
G01 X5.9703 Y4.4559
G01 X5.9819 Y4.3782
G01 X5.9872 Y4.3530
G01 X6.0043 Y4.2851
G01 X6.0121 Y4.2606
G01 X6.0327 Y4.2028
G01 X6.0389 Y4.1868
G01 X6.0459 Y4.1711
G01 X6.0759 Y4.1079
G01 X6.0883 Y4.0853
G01 X6.1199 Y4.0327
G01 X6.1291 Y4.0181
G01 X6.1389 Y4.0041
G01 X6.1755 Y3.9548
G01 X6.1861 Y3.9413
G01 X6.1973 Y3.9283
G01 X6.2385 Y3.8828
G01 X6.2503 Y3.8703
G01 X6.2628 Y3.8585
G01 X6.3147 Y3.8116
G01 X6.3348 Y3.7955
G01 X6.3841 Y3.7589
G01 X6.3981 Y3.7491
G01 X6.4127 Y3.7399
G01 X6.4653 Y3.7083
G01 X6.4802 Y3.6999
G01 X6.4956 Y3.6921
G01 X6.5589 Y3.6623
G01 X6.5828 Y3.6527
G01 X6.6406 Y3.6321
G01 X6.6569 Y3.6267
G01 X6.6734 Y3.6221
G01 X6.7330 Y3.6072
G01 X6.7497 Y3.6034
G01 X6.7667 Y3.6005
G01 X6.8274 Y3.5915
G01 X6.8444 Y3.5894
G01 X6.8615 Y3.5881
G01 X6.9314 Y3.5848
G01 X6.9572 Y3.5851
G01 X7.0185 Y3.5881
G01 X7.0356 Y3.5894
G01 X7.0526 Y3.5915
G01 X7.1133 Y3.6005
G01 X7.1362 Y3.6047
G01 X17.3023 Y3.6047
G01 X17.3262 Y3.5871
G01 X17.3478 Y3.5730
G01 X17.4268 Y3.5258
G01 X17.4497 Y3.5140
G01 X17.5251 Y3.4783
G01 X17.5488 Y3.4682
G01 X17.6435 Y3.4343
G01 X17.6682 Y3.4271
G01 X17.7491 Y3.4068
G01 X17.7659 Y3.4031
G01 X17.7828 Y3.4001
G01 X17.8653 Y3.3879
G01 X17.8909 Y3.3850
G01 X17.9828 Y3.3804
G01 X18.0000 Y3.3800
G01 X18.0172 Y3.3804
G01 X18.1005 Y3.3845
G01 X18.1176 Y3.3858
G01 X18.1347 Y3.3879
G01 X18.2172 Y3.4001
G01 X18.2341 Y3.4031
G01 X18.2509 Y3.4068
G01 X18.3318 Y3.4271
G01 X18.3483 Y3.4317
G01 X18.3647 Y3.4371
G01 X18.4432 Y3.4652
G01 X18.4592 Y3.4713
G01 X18.4749 Y3.4783
G01 X18.5503 Y3.5140
G01 X18.5657 Y3.5217
G01 X18.5806 Y3.5302
G01 X18.6522 Y3.5730
G01 X18.6738 Y3.5871
G01 X18.7477 Y3.6418
G01 X18.7613 Y3.6524
G01 X18.7743 Y3.6636
G01 X18.8361 Y3.7196
G01 X18.8545 Y3.7376
G01 X18.9164 Y3.8057
G01 X18.9276 Y3.8187
G01 X18.9382 Y3.8323
G01 X18.9879 Y3.8993
G01 X18.9978 Y3.9133
G01 X19.0070 Y3.9278
G01 X19.0498 Y3.9994
G01 X19.0583 Y4.0143
G01 X19.0660 Y4.0297
G01 X19.1017 Y4.1051
G01 X19.1087 Y4.1208
G01 X19.1148 Y4.1368
G01 X19.1429 Y4.2153
G01 X19.1483 Y4.2317
G01 X19.1529 Y4.2482
G01 X19.1732 Y4.3291
G01 X19.1769 Y4.3459
G01 X19.1799 Y4.3628
G01 X19.1921 Y4.4453
G01 X19.1942 Y4.4624
G01 X19.1955 Y4.4795
G01 X19.1996 Y4.5628
G01 X19.2000 Y4.5800
G01 X19.1996 Y4.5972
G01 X19.1955 Y4.6805
G01 X19.1942 Y4.6976
G01 X19.1921 Y4.7147
G01 X19.1799 Y4.7972
G01 X19.1769 Y4.8141
G01 X19.1732 Y4.8309
G01 X19.1529 Y4.9118
G01 X19.1483 Y4.9283
G01 X19.1429 Y4.9447
G01 X19.1118 Y5.0312
G01 X19.1017 Y5.0549
G01 X19.0660 Y5.1303
G01 X19.0583 Y5.1457
G01 X19.0498 Y5.1606
G01 X19.0024 Y5.2395
G01 X18.9879 Y5.2607
G01 X18.9382 Y5.3277
G01 X18.9276 Y5.3413
G01 X18.9164 Y5.3543
G01 X18.8604 Y5.4161
G01 X18.8485 Y5.4285
G01 X18.8361 Y5.4404
G01 X18.7743 Y5.4964
G01 X18.7613 Y5.5076
G01 X18.7477 Y5.5182
G01 X18.6807 Y5.5679
G01 X18.6667 Y5.5778
G01 X18.6522 Y5.5870
G01 X18.5892 Y5.6247
G01 X19.2247 Y5.6247
G01 X19.2247 Y2.5753
G01 X3.1753 Y2.5753
G01 X3.1753 Y13.1647
G01 X3.8693 Y13.1647
G01 X3.9251 Y13.1383
G01 X3.9408 Y13.1313
G01 X3.9568 Y13.1252
G01 X4.0353 Y13.0971
G01 X4.0599 Y13.0893
G01 X4.1491 Y13.0668
G01 X4.1659 Y13.0631
G01 X4.1828 Y13.0601
G01 X4.2653 Y13.0479
G01 X4.2824 Y13.0458
G01 X4.2995 Y13.0445
G01 X4.3914 Y13.0401
G01 X4.4172 Y13.0404
G01 X4.5005 Y13.0445
G01 X4.5176 Y13.0458
G01 X4.5347 Y13.0479
G01 X4.6172 Y13.0601
G01 X4.6341 Y13.0631
G01 X4.6509 Y13.0668
G01 X4.7318 Y13.0871
G01 X4.7483 Y13.0917
G01 X4.7647 Y13.0971
G01 X4.8432 Y13.1252
G01 X4.8671 Y13.1347
G01 X4.9503 Y13.1740
G01 X4.9657 Y13.1817
G01 X4.9806 Y13.1902
G01 X5.0522 Y13.2330
G01 X5.0667 Y13.2422
G01 X5.0807 Y13.2521
G01 X5.1477 Y13.3018
G01 X5.1613 Y13.3124
G01 X5.1743 Y13.3236
G01 X5.2361 Y13.3796
G01 X5.2485 Y13.3915
G01 X5.2604 Y13.4039
G01 X5.3164 Y13.4657
G01 X5.3276 Y13.4787
G01 X5.3382 Y13.4923
G01 X5.3879 Y13.5593
G01 X5.3978 Y13.5733
G01 X5.4070 Y13.5878
G01 X5.4498 Y13.6594
G01 X5.4583 Y13.6743
G01 X5.4660 Y13.6897
G01 X5.5017 Y13.7651
G01 X5.5087 Y13.7808
G01 X5.5148 Y13.7968
G01 X5.5429 Y13.8753
G01 X5.5483 Y13.8917
G01 X5.5529 Y13.9082
G01 X5.5732 Y13.9891
G01 X5.5769 Y14.0059
G01 X5.5799 Y14.0228
G01 X5.5921 Y14.1053
G01 X5.5942 Y14.1224
G01 X5.5955 Y14.1395
G01 X5.5999 Y14.2314
G01 X5.5996 Y14.2572
G01 X5.5955 Y14.3405
G01 X5.5942 Y14.3576
G01 X5.5921 Y14.3747
G01 X5.5799 Y14.4572
G01 X5.5769 Y14.4741
G01 X5.5732 Y14.4909
G01 X5.5529 Y14.5718
G01 X5.5483 Y14.5883
G01 X5.5429 Y14.6047
G01 X5.5148 Y14.6832
G01 X5.5087 Y14.6992
G01 X5.5017 Y14.7149
G01 X5.4660 Y14.7903
G01 X5.4583 Y14.8057
G01 X5.4498 Y14.8206
G01 X5.4070 Y14.8922
G01 X5.3978 Y14.9067
G01 X5.3879 Y14.9207
G01 X5.3382 Y14.9877
G01 X5.3276 Y15.0013
G01 X5.3164 Y15.0143
G01 X5.2604 Y15.0761
G01 X5.2485 Y15.0885
G01 X5.2361 Y15.1004
G01 X5.1743 Y15.1564
G01 X5.1613 Y15.1676
G01 X5.1477 Y15.1782
G01 X5.0807 Y15.2279
G01 X5.0667 Y15.2378
G01 X5.0522 Y15.2470
G01 X4.9806 Y15.2898
G01 X4.9657 Y15.2983
G01 X4.9503 Y15.3060
G01 X4.8671 Y15.3453
G01 X4.8432 Y15.3548
G01 X4.7647 Y15.3829
G01 X4.7483 Y15.3883
G01 X4.7318 Y15.3929
G01 X4.6509 Y15.4132
G01 X4.6341 Y15.4169
G01 X4.6172 Y15.4199
G01 X4.5347 Y15.4321
G01 X4.5176 Y15.4342
G01 X4.5005 Y15.4355
G01 X4.4172 Y15.4396
G01 X4.4000 Y15.4400
G01 X4.3828 Y15.4396
G01 X4.2995 Y15.4355
G01 X4.2824 Y15.4342
G01 X4.2653 Y15.4321
G01 X4.1743 Y15.4185
G01 X4.1491 Y15.4132
G01 X4.0682 Y15.3929
G01 X4.0517 Y15.3883
G01 X4.0353 Y15.3829
G01 X3.9568 Y15.3548
G01 X3.9408 Y15.3487
G01 X3.9251 Y15.3417
G01 X3.8419 Y15.3023
G01 X3.8194 Y15.2898
G01 X3.7478 Y15.2470
G01 X3.7262 Y15.2329
G01 X3.6523 Y15.1782
G01 X3.6387 Y15.1676
G01 X3.6257 Y15.1564
G01 X3.5804 Y15.1153
G00 Z1.7000
G00 X3.2004 Y16.7972
F60.00
G01 Z-0.2800
F100.00
G01 X3.2000 Y16.7800
G01 X3.2004 Y16.7628
G01 X3.2045 Y16.6795
G01 X3.2058 Y16.6624
G01 X3.2079 Y16.6453
G01 X3.2201 Y16.5628
G01 X3.2231 Y16.5459
G01 X3.2268 Y16.5291
G01 X3.2471 Y16.4482
G01 X3.2517 Y16.4317
G01 X3.2571 Y16.4153
G01 X3.2852 Y16.3368
G01 X3.2913 Y16.3208
G01 X3.2983 Y16.3051
G01 X3.3340 Y16.2297
G01 X3.3417 Y16.2143
G01 X3.3502 Y16.1994
G01 X3.3930 Y16.1278
G01 X3.4022 Y16.1133
G01 X3.4121 Y16.0993
G01 X3.4618 Y16.0323
G01 X3.4724 Y16.0187
G01 X3.4836 Y16.0057
G01 X3.5396 Y15.9439
G01 X3.5515 Y15.9315
G01 X3.5639 Y15.9196
G01 X3.6257 Y15.8636
G01 X3.6387 Y15.8524
G01 X3.6523 Y15.8418
G01 X3.7193 Y15.7921
G01 X3.7333 Y15.7822
G01 X3.7478 Y15.7730
G01 X3.8194 Y15.7302
G01 X3.8343 Y15.7217
G01 X3.8497 Y15.7140
G01 X3.9251 Y15.6783
G01 X3.9408 Y15.6713
G01 X3.9568 Y15.6652
G01 X4.0353 Y15.6371
G01 X4.0517 Y15.6317
G01 X4.0682 Y15.6271
G01 X4.1491 Y15.6068
G01 X4.1659 Y15.6031
G01 X4.1828 Y15.6001
G01 X4.2653 Y15.5879
G01 X4.2824 Y15.5858
G01 X4.2995 Y15.5845
G01 X4.3828 Y15.5804
G01 X4.4000 Y15.5800
G01 X4.4172 Y15.5804
G01 X4.5005 Y15.5845
G01 X4.5176 Y15.5858
G01 X4.5347 Y15.5879
G01 X4.6172 Y15.6001
G01 X4.6341 Y15.6031
G01 X4.6509 Y15.6068
G01 X4.7318 Y15.6271
G01 X4.7483 Y15.6317
G01 X4.7647 Y15.6371
G01 X4.8432 Y15.6652
G01 X4.8592 Y15.6713
G01 X4.8749 Y15.6783
G01 X4.9503 Y15.7140
G01 X4.9657 Y15.7217
G01 X4.9806 Y15.7302
G01 X5.0522 Y15.7730
G01 X5.0667 Y15.7822
G01 X5.0807 Y15.7921
G01 X5.1477 Y15.8418
G01 X5.1613 Y15.8524
G01 X5.1743 Y15.8636
G01 X5.2361 Y15.9196
G01 X5.2485 Y15.9315
G01 X5.2604 Y15.9439
G01 X5.3164 Y16.0057
G01 X5.3276 Y16.0187
G01 X5.3382 Y16.0323
G01 X5.3879 Y16.0993
G01 X5.3978 Y16.1133
G01 X5.4070 Y16.1278
G01 X5.4498 Y16.1994
G01 X5.4583 Y16.2143
G01 X5.4660 Y16.2297
G01 X5.5017 Y16.3051
G01 X5.5087 Y16.3208
G01 X5.5148 Y16.3368
G01 X5.5429 Y16.4153
G01 X5.5483 Y16.4317
G01 X5.5529 Y16.4482
G01 X5.5732 Y16.5291
G01 X5.5769 Y16.5459
G01 X5.5799 Y16.5628
G01 X5.5921 Y16.6453
G01 X5.5942 Y16.6624
G01 X5.5955 Y16.6795
G01 X5.5996 Y16.7628
G01 X5.6000 Y16.7800
G01 X5.5996 Y16.7972
G01 X5.5955 Y16.8805
G01 X5.5942 Y16.8976
G01 X5.5921 Y16.9147
G01 X5.5799 Y16.9972
G01 X5.5769 Y17.0141
G01 X5.5732 Y17.0309
G01 X5.5529 Y17.1118
G01 X5.5483 Y17.1283
G01 X5.5429 Y17.1447
G01 X5.5148 Y17.2232
G01 X5.5087 Y17.2392
G01 X5.5017 Y17.2549
G01 X5.4660 Y17.3303
G01 X5.4583 Y17.3457
G01 X5.4498 Y17.3606
G01 X5.4070 Y17.4322
G01 X5.3978 Y17.4467
G01 X5.3879 Y17.4607
G01 X5.3382 Y17.5277
G01 X5.3276 Y17.5413
G01 X5.3164 Y17.5543
G01 X5.2604 Y17.6161
G01 X5.2485 Y17.6285
G01 X5.2361 Y17.6404
G01 X5.1743 Y17.6964
G01 X5.1613 Y17.7076
G01 X5.1477 Y17.7182
G01 X5.0807 Y17.7679
G01 X5.0667 Y17.7778
G01 X5.0522 Y17.7870
G01 X4.9806 Y17.8298
G01 X4.9657 Y17.8383
G01 X4.9503 Y17.8460
G01 X4.8749 Y17.8817
G01 X4.8592 Y17.8887
G01 X4.8432 Y17.8948
G01 X4.7647 Y17.9229
G01 X4.7483 Y17.9283
G01 X4.7318 Y17.9329
G01 X4.6509 Y17.9532
G01 X4.6341 Y17.9569
G01 X4.6172 Y17.9599
G01 X4.5347 Y17.9721
G01 X4.5176 Y17.9742
G01 X4.5005 Y17.9755
G01 X4.4172 Y17.9796
G01 X4.4000 Y17.9800
G01 X4.3828 Y17.9796
G01 X4.2995 Y17.9755
G01 X4.2824 Y17.9742
G01 X4.2653 Y17.9721
G01 X4.1828 Y17.9599
G01 X4.1659 Y17.9569
G01 X4.1491 Y17.9532
G01 X4.0682 Y17.9329
G01 X4.0517 Y17.9283
G01 X4.0353 Y17.9229
G01 X3.9568 Y17.8948
G01 X3.9408 Y17.8887
G01 X3.9251 Y17.8817
G01 X3.8497 Y17.8460
G01 X3.8343 Y17.8383
G01 X3.8194 Y17.8298
G01 X3.7478 Y17.7870
G01 X3.7333 Y17.7778
G01 X3.7193 Y17.7679
G01 X3.6523 Y17.7182
G01 X3.6387 Y17.7076
G01 X3.6257 Y17.6964
G01 X3.5639 Y17.6404
G01 X3.5515 Y17.6285
G01 X3.5396 Y17.6161
G01 X3.4836 Y17.5543
G01 X3.4724 Y17.5413
G01 X3.4618 Y17.5277
G01 X3.4121 Y17.4607
G01 X3.4022 Y17.4467
G01 X3.3930 Y17.4322
G01 X3.3502 Y17.3606
G01 X3.3417 Y17.3457
G01 X3.3340 Y17.3303
G01 X3.2983 Y17.2549
G01 X3.2913 Y17.2392
G01 X3.2852 Y17.2232
G01 X3.2571 Y17.1447
G01 X3.2517 Y17.1283
G01 X3.2471 Y17.1118
G01 X3.2268 Y17.0309
G01 X3.2231 Y17.0141
G01 X3.2201 Y16.9972
G01 X3.2079 Y16.9147
G01 X3.2058 Y16.8976
G01 X3.2045 Y16.8805
G01 X3.2004 Y16.7972
G00 Z1.7000
G00 X3.2004 Y19.3372
F60.00
G01 Z-0.2800
F100.00
G01 X3.2000 Y19.3200
G01 X3.2004 Y19.3028
G01 X3.2045 Y19.2195
G01 X3.2058 Y19.2024
G01 X3.2079 Y19.1853
G01 X3.2201 Y19.1028
G01 X3.2231 Y19.0859
G01 X3.2268 Y19.0691
G01 X3.2471 Y18.9882
G01 X3.2517 Y18.9717
G01 X3.2571 Y18.9553
G01 X3.2852 Y18.8768
G01 X3.2913 Y18.8608
G01 X3.2983 Y18.8451
G01 X3.3340 Y18.7697
G01 X3.3417 Y18.7543
G01 X3.3502 Y18.7394
G01 X3.3930 Y18.6678
G01 X3.4022 Y18.6533
G01 X3.4121 Y18.6393
G01 X3.4618 Y18.5723
G01 X3.4724 Y18.5587
G01 X3.4836 Y18.5457
G01 X3.5396 Y18.4839
G01 X3.5515 Y18.4715
G01 X3.5639 Y18.4596
G01 X3.6257 Y18.4036
G01 X3.6387 Y18.3924
G01 X3.6523 Y18.3818
G01 X3.7193 Y18.3321
G01 X3.7333 Y18.3222
G01 X3.7478 Y18.3130
G01 X3.8194 Y18.2702
G01 X3.8343 Y18.2617
G01 X3.8497 Y18.2540
G01 X3.9251 Y18.2183
G01 X3.9408 Y18.2113
G01 X3.9568 Y18.2052
G01 X4.0353 Y18.1771
G01 X4.0517 Y18.1717
G01 X4.0682 Y18.1671
G01 X4.1491 Y18.1468
G01 X4.1659 Y18.1431
G01 X4.1828 Y18.1401
G01 X4.2653 Y18.1279
G01 X4.2824 Y18.1258
G01 X4.2995 Y18.1245
G01 X4.3828 Y18.1204
G01 X4.4000 Y18.1200
G01 X4.4172 Y18.1204
G01 X4.5005 Y18.1245
G01 X4.5176 Y18.1258
G01 X4.5347 Y18.1279
G01 X4.6172 Y18.1401
G01 X4.6341 Y18.1431
G01 X4.6509 Y18.1468
G01 X4.7318 Y18.1671
G01 X4.7483 Y18.1717
G01 X4.7647 Y18.1771
G01 X4.8432 Y18.2052
G01 X4.8592 Y18.2113
G01 X4.8749 Y18.2183
G01 X4.9503 Y18.2540
G01 X4.9657 Y18.2617
G01 X4.9806 Y18.2702
G01 X5.0522 Y18.3130
G01 X5.0667 Y18.3222
G01 X5.0807 Y18.3321
G01 X5.1477 Y18.3818
G01 X5.1613 Y18.3924
G01 X5.1743 Y18.4036
G01 X5.2361 Y18.4596
G01 X5.2485 Y18.4715
G01 X5.2604 Y18.4839
G01 X5.3164 Y18.5457
G01 X5.3276 Y18.5587
G01 X5.3382 Y18.5723
G01 X5.3879 Y18.6393
G01 X5.3978 Y18.6533
G01 X5.4070 Y18.6678
G01 X5.4498 Y18.7394
G01 X5.4583 Y18.7543
G01 X5.4660 Y18.7697
G01 X5.5017 Y18.8451
G01 X5.5087 Y18.8608
G01 X5.5148 Y18.8768
G01 X5.5429 Y18.9553
G01 X5.5483 Y18.9717
G01 X5.5529 Y18.9882
G01 X5.5732 Y19.0691
G01 X5.5769 Y19.0859
G01 X5.5799 Y19.1028
G01 X5.5921 Y19.1853
G01 X5.5942 Y19.2024
G01 X5.5955 Y19.2195
G01 X5.5996 Y19.3028
G01 X5.6000 Y19.3200
G01 X5.5996 Y19.3372
G01 X5.5955 Y19.4205
G01 X5.5942 Y19.4376
G01 X5.5921 Y19.4547
G01 X5.5799 Y19.5372
G01 X5.5769 Y19.5541
G01 X5.5732 Y19.5709
G01 X5.5529 Y19.6518
G01 X5.5483 Y19.6683
G01 X5.5429 Y19.6847
G01 X5.5148 Y19.7632
G01 X5.5087 Y19.7792
G01 X5.5017 Y19.7949
G01 X5.4660 Y19.8703
G01 X5.4583 Y19.8857
G01 X5.4498 Y19.9006
G01 X5.4070 Y19.9722
G01 X5.3978 Y19.9867
G01 X5.3879 Y20.0007
G01 X5.3382 Y20.0677
G01 X5.3276 Y20.0813
G01 X5.3164 Y20.0943
G01 X5.2604 Y20.1561
G01 X5.2485 Y20.1685
G01 X5.2361 Y20.1804
G01 X5.1743 Y20.2364
G01 X5.1613 Y20.2476
G01 X5.1477 Y20.2582
G01 X5.0807 Y20.3079
G01 X5.0667 Y20.3178
G01 X5.0522 Y20.3270
G01 X4.9806 Y20.3698
G01 X4.9657 Y20.3783
G01 X4.9503 Y20.3860
G01 X4.8749 Y20.4217
G01 X4.8592 Y20.4287
G01 X4.8432 Y20.4348
G01 X4.7647 Y20.4629
G01 X4.7483 Y20.4683
G01 X4.7318 Y20.4729
G01 X4.6509 Y20.4932
G01 X4.6341 Y20.4969
G01 X4.6172 Y20.4999
G01 X4.5347 Y20.5121
G01 X4.5176 Y20.5142
G01 X4.5005 Y20.5155
G01 X4.4172 Y20.5196
G01 X4.4000 Y20.5200
G01 X4.3828 Y20.5196
G01 X4.2995 Y20.5155
G01 X4.2824 Y20.5142
G01 X4.2653 Y20.5121
G01 X4.1828 Y20.4999
G01 X4.1659 Y20.4969
G01 X4.1491 Y20.4932
G01 X4.0682 Y20.4729
G01 X4.0517 Y20.4683
G01 X4.0353 Y20.4629
G01 X3.9568 Y20.4348
G01 X3.9408 Y20.4287
G01 X3.9251 Y20.4217
G01 X3.8497 Y20.3860
G01 X3.8343 Y20.3783
G01 X3.8194 Y20.3698
G01 X3.7478 Y20.3270
G01 X3.7333 Y20.3178
G01 X3.7193 Y20.3079
G01 X3.6523 Y20.2582
G01 X3.6387 Y20.2476
G01 X3.6257 Y20.2364
G01 X3.5639 Y20.1804
G01 X3.5515 Y20.1685
G01 X3.5396 Y20.1561
G01 X3.4836 Y20.0943
G01 X3.4724 Y20.0813
G01 X3.4618 Y20.0677
G01 X3.4121 Y20.0007
G01 X3.4022 Y19.9867
G01 X3.3930 Y19.9722
G01 X3.3502 Y19.9006
G01 X3.3417 Y19.8857
G01 X3.3340 Y19.8703
G01 X3.2983 Y19.7949
G01 X3.2913 Y19.7792
G01 X3.2852 Y19.7632
G01 X3.2571 Y19.6847
G01 X3.2517 Y19.6683
G01 X3.2471 Y19.6518
G01 X3.2268 Y19.5709
G01 X3.2231 Y19.5541
G01 X3.2201 Y19.5372
G01 X3.2079 Y19.4547
G01 X3.2058 Y19.4376
G01 X3.2045 Y19.4205
G01 X3.2004 Y19.3372
G00 Z1.7000
G00 X3.4247 Y30.1777
F60.00
G01 Z-0.2800
F100.00
G01 X3.4071 Y30.1538
G01 X3.3976 Y30.1395
G01 X3.3458 Y30.0532
G01 X3.3340 Y30.0303
G01 X3.2947 Y29.9471
G01 X3.2852 Y29.9232
G01 X3.2571 Y29.8447
G01 X3.2517 Y29.8283
G01 X3.2471 Y29.8118
G01 X3.2248 Y29.7225
G01 X3.2201 Y29.6972
G01 X3.2079 Y29.6147
G01 X3.2058 Y29.5976
G01 X3.2045 Y29.5805
G01 X3.2004 Y29.4972
G01 X3.2000 Y29.4800
G01 X3.2004 Y29.4628
G01 X3.2045 Y29.3795
G01 X3.2058 Y29.3624
G01 X3.2079 Y29.3453
G01 X3.2215 Y29.2543
G01 X3.2268 Y29.2291
G01 X3.2471 Y29.1482
G01 X3.2517 Y29.1317
G01 X3.2571 Y29.1153
G01 X3.2852 Y29.0368
G01 X3.2913 Y29.0208
G01 X3.2983 Y29.0051
G01 X3.3340 Y28.9297
G01 X3.3417 Y28.9143
G01 X3.3502 Y28.8994
G01 X3.3930 Y28.8278
G01 X3.4022 Y28.8133
G01 X3.4121 Y28.7993
G01 X3.4618 Y28.7323
G01 X3.4724 Y28.7187
G01 X3.4836 Y28.7057
G01 X3.5396 Y28.6439
G01 X3.5515 Y28.6315
G01 X3.5639 Y28.6196
G01 X3.6257 Y28.5636
G01 X3.6387 Y28.5524
G01 X3.6523 Y28.5418
G01 X3.7262 Y28.4871
G01 X3.7478 Y28.4730
G01 X3.8194 Y28.4302
G01 X3.8343 Y28.4217
G01 X3.8497 Y28.4140
G01 X3.9251 Y28.3783
G01 X3.9408 Y28.3713
G01 X3.9568 Y28.3652
G01 X4.0353 Y28.3371
G01 X4.0517 Y28.3317
G01 X4.0682 Y28.3271
G01 X4.1491 Y28.3068
G01 X4.1659 Y28.3031
G01 X4.1828 Y28.3001
G01 X4.2653 Y28.2879
G01 X4.2824 Y28.2858
G01 X4.2995 Y28.2845
G01 X4.3828 Y28.2804
G01 X4.4000 Y28.2800
G01 X4.4172 Y28.2804
G01 X4.5005 Y28.2845
G01 X4.5176 Y28.2858
G01 X4.5347 Y28.2879
G01 X4.6172 Y28.3001
G01 X4.6341 Y28.3031
G01 X4.6509 Y28.3068
G01 X4.7318 Y28.3271
G01 X4.7483 Y28.3317
G01 X4.7647 Y28.3371
G01 X4.8432 Y28.3652
G01 X4.8592 Y28.3713
G01 X4.8749 Y28.3783
G01 X4.9503 Y28.4140
G01 X4.9657 Y28.4217
G01 X4.9806 Y28.4302
G01 X5.0522 Y28.4730
G01 X5.0667 Y28.4822
G01 X5.0807 Y28.4921
G01 X5.1477 Y28.5418
G01 X5.1613 Y28.5524
G01 X5.1743 Y28.5636
G01 X5.2361 Y28.6196
G01 X5.2485 Y28.6315
G01 X5.2604 Y28.6439
G01 X5.3164 Y28.7057
G01 X5.3276 Y28.7187
G01 X5.3382 Y28.7323
G01 X5.3929 Y28.8062
G01 X5.4070 Y28.8278
G01 X5.4498 Y28.8994
G01 X5.4583 Y28.9143
G01 X5.4660 Y28.9297
G01 X5.5017 Y29.0051
G01 X5.5087 Y29.0208
G01 X5.5148 Y29.0368
G01 X5.5429 Y29.1153
G01 X5.5483 Y29.1317
G01 X5.5529 Y29.1482
G01 X5.5732 Y29.2291
G01 X5.5769 Y29.2459
G01 X5.5799 Y29.2628
G01 X5.5921 Y29.3453
G01 X5.5942 Y29.3624
G01 X5.5955 Y29.3795
G01 X5.5996 Y29.4628
G01 X5.6000 Y29.4800
G01 X5.5996 Y29.4972
G01 X5.5955 Y29.5805
G01 X5.5942 Y29.5976
G01 X5.5921 Y29.6147
G01 X5.5799 Y29.6972
G01 X5.5769 Y29.7141
G01 X5.5732 Y29.7309
G01 X5.5529 Y29.8118
G01 X5.5457 Y29.8365
G01 X5.5148 Y29.9232
G01 X5.5087 Y29.9392
G01 X5.5017 Y29.9549
G01 X5.4623 Y30.0381
G01 X5.4498 Y30.0606
G01 X5.4024 Y30.1395
G01 X5.3929 Y30.1538
G01 X5.3753 Y30.1777
G01 X5.3753 Y36.6247
G01 X16.8232 Y36.6247
G01 X16.8300 Y36.6082
G01 X16.8413 Y36.5850
G01 X16.8543 Y36.5628
G01 X16.8689 Y36.5415
G01 X16.8850 Y36.5214
G01 X16.9025 Y36.5025
G01 X16.9214 Y36.4850
G01 X16.9347 Y36.4741
G01 X16.9556 Y36.4590
G01 X16.9775 Y36.4455
G01 X17.0004 Y36.4336
G01 X17.0240 Y36.4235
G01 X17.0484 Y36.4151
G01 X17.0733 Y36.4085
G01 X17.0902 Y36.4052
G01 X17.1157 Y36.4017
G01 X17.1328 Y36.4004
G01 X17.1500 Y36.4000
G01 X18.8500 Y36.4000
G01 X18.8757 Y36.4009
G01 X18.9014 Y36.4038
G01 X18.9267 Y36.4085
G01 X18.9433 Y36.4127
G01 X18.9598 Y36.4177
G01 X18.9839 Y36.4266
G01 X19.0074 Y36.4374
G01 X19.0299 Y36.4498
G01 X19.0444 Y36.4590
G01 X19.0585 Y36.4689
G01 X19.0720 Y36.4794
G01 X19.0850 Y36.4907
G01 X19.1035 Y36.5087
G01 X19.1206 Y36.5280
G01 X19.1311 Y36.5415
G01 X19.1410 Y36.5556
G01 X19.1545 Y36.5775
G01 X19.1664 Y36.6004
G01 X19.1765 Y36.6240
G01 X19.1823 Y36.6402
G01 X19.1873 Y36.6567
G01 X19.1933 Y36.6817
G01 X19.1974 Y36.7072
G01 X19.1991 Y36.7243
G01 X19.2000 Y36.7500
G01 X19.1999 Y38.4586
G01 X19.1983 Y38.4843
G01 X19.1962 Y38.5014
G01 X19.1915 Y38.5267
G01 X19.1873 Y38.5433
G01 X19.1823 Y38.5598
G01 X19.1734 Y38.5839
G01 X19.1664 Y38.5996
G01 X19.1587 Y38.6150
G01 X19.1502 Y38.6299
G01 X19.1362 Y38.6515
G01 X19.1206 Y38.6720
G01 X19.1093 Y38.6850
G01 X19.0975 Y38.6975
G01 X19.0786 Y38.7150
G01 X19.0585 Y38.7311
G01 X19.0444 Y38.7410
G01 X19.0299 Y38.7502
G01 X19.0074 Y38.7626
G01 X18.9839 Y38.7734
G01 X18.9679 Y38.7795
G01 X18.9516 Y38.7849
G01 X18.9267 Y38.7915
G01 X18.9014 Y38.7962
G01 X18.8843 Y38.7983
G01 X18.8672 Y38.7996
G01 X18.8500 Y38.8000
G01 X17.1500 Y38.8000
G01 X17.1243 Y38.7991
G01 X17.0986 Y38.7962
G01 X17.0733 Y38.7915
G01 X17.0484 Y38.7849
G01 X17.0240 Y38.7765
G01 X17.0004 Y38.7664
G01 X16.9775 Y38.7545
G01 X16.9628 Y38.7457
G01 X16.9485 Y38.7362
G01 X16.9280 Y38.7206
G01 X16.9087 Y38.7035
G01 X16.8907 Y38.6850
G01 X16.8741 Y38.6653
G01 X16.8590 Y38.6444
G01 X16.8455 Y38.6225
G01 X16.8336 Y38.5996
G01 X16.8232 Y38.5753
G01 X4.4000 Y38.5753
G01 X4.3828 Y38.5749
G01 X4.3215 Y38.5719
G01 X4.3044 Y38.5706
G01 X4.2874 Y38.5685
G01 X4.2267 Y38.5595
G01 X4.2097 Y38.5566
G01 X4.1930 Y38.5528
G01 X4.1334 Y38.5379
G01 X4.1169 Y38.5333
G01 X4.1006 Y38.5279
G01 X4.0428 Y38.5073
G01 X4.0268 Y38.5011
G01 X4.0111 Y38.4941
G01 X3.9556 Y38.4679
G01 X3.9402 Y38.4601
G01 X3.9253 Y38.4517
G01 X3.8727 Y38.4201
G01 X3.8581 Y38.4109
G01 X3.8441 Y38.4011
G01 X3.7948 Y38.3645
G01 X3.7813 Y38.3539
G01 X3.7683 Y38.3427
G01 X3.7228 Y38.3015
G01 X3.7103 Y38.2897
G01 X3.6985 Y38.2772
G01 X3.6573 Y38.2317
G01 X3.6461 Y38.2187
G01 X3.6355 Y38.2052
G01 X3.5989 Y38.1559
G01 X3.5891 Y38.1419
G01 X3.5799 Y38.1273
G01 X3.5483 Y38.0747
G01 X3.5399 Y38.0598
G01 X3.5321 Y38.0444
G01 X3.5059 Y37.9889
G01 X3.4989 Y37.9732
G01 X3.4927 Y37.9572
G01 X3.4721 Y37.8994
G01 X3.4667 Y37.8831
G01 X3.4621 Y37.8666
G01 X3.4472 Y37.8070
G01 X3.4434 Y37.7903
G01 X3.4405 Y37.7733
G01 X3.4315 Y37.7126
G01 X3.4286 Y37.6870
G01 X3.4251 Y37.6172
G01 X3.4247 Y37.6000
G01 X3.4247 Y30.1777
G00 Z1.7000
G00 X17.1200 Y28.4200
F60.00
G01 Z-0.2800
F100.00
G01 X17.3800 Y28.4200
G01 X17.5300 Y28.5300
G01 X17.8300 Y28.6100
G01 X18.0300 Y28.6400
G01 X18.1800 Y28.6400
G00 Z1.7000
G00 X18.0900 Y26.1100
F60.00
G01 Z-0.2800
F100.00
G01 X18.0000 Y26.0700
G01 X17.7700 Y26.0700
G01 X17.5400 Y26.0100
G01 X17.3800 Y25.8700
G01 X17.0900 Y25.8600
G00 Z1.7000
G00 X19.0200 Y25.8500
F60.00
G01 Z-0.2800
F100.00
G01 X19.0300 Y21.4900
G00 Z1.7000
G00 X17.9828 Y21.1604
F60.00
G01 Z-0.2800
F100.00
G01 X18.0000 Y21.1600
G01 X18.0172 Y21.1604
G01 X18.1005 Y21.1645
G01 X18.1176 Y21.1658
G01 X18.1347 Y21.1679
G01 X18.2172 Y21.1801
G01 X18.2341 Y21.1831
G01 X18.2509 Y21.1868
G01 X18.3318 Y21.2071
G01 X18.3483 Y21.2117
G01 X18.3647 Y21.2171
G01 X18.4432 Y21.2452
G01 X18.4592 Y21.2513
G01 X18.4749 Y21.2583
G01 X18.5503 Y21.2940
G01 X18.5732 Y21.3058
G01 X18.6595 Y21.3576
G01 X18.6807 Y21.3721
G01 X18.7477 Y21.4218
G01 X18.7613 Y21.4324
G01 X18.7743 Y21.4436
G01 X18.8424 Y21.5055
G01 X18.8604 Y21.5239
G01 X18.9164 Y21.5857
G01 X18.9330 Y21.6054
G01 X18.9929 Y21.6862
G01 X19.0024 Y21.7005
G01 X19.0247 Y21.7374
G01 X19.0247 Y20.7953
G01 X18.6977 Y20.7953
G01 X18.6738 Y20.8129
G01 X18.6595 Y20.8224
G01 X18.5732 Y20.8742
G01 X18.5503 Y20.8860
G01 X18.4671 Y20.9253
G01 X18.4432 Y20.9348
G01 X18.3647 Y20.9629
G01 X18.3483 Y20.9683
G01 X18.3318 Y20.9729
G01 X18.2509 Y20.9932
G01 X18.2257 Y20.9985
G01 X18.1347 Y21.0121
G01 X18.1176 Y21.0142
G01 X18.1005 Y21.0155
G01 X18.0172 Y21.0196
G01 X18.0000 Y21.0200
G01 X17.9828 Y21.0196
G01 X17.8995 Y21.0155
G01 X17.8824 Y21.0142
G01 X17.8653 Y21.0121
G01 X17.7828 Y20.9999
G01 X17.7659 Y20.9969
G01 X17.7491 Y20.9932
G01 X17.6682 Y20.9729
G01 X17.6517 Y20.9683
G01 X17.6353 Y20.9629
G01 X17.5568 Y20.9348
G01 X17.5408 Y20.9287
G01 X17.5251 Y20.9217
G01 X17.4497 Y20.8860
G01 X17.4343 Y20.8783
G01 X17.4194 Y20.8698
G01 X17.3478 Y20.8270
G01 X17.3333 Y20.8178
G01 X17.3193 Y20.8079
G01 X17.2523 Y20.7582
G01 X17.2387 Y20.7476
G01 X17.2257 Y20.7364
G01 X17.1639 Y20.6804
G01 X17.1515 Y20.6685
G01 X17.1396 Y20.6561
G01 X17.0836 Y20.5943
G01 X17.0724 Y20.5813
G01 X17.0618 Y20.5677
G01 X17.0071 Y20.4938
G01 X16.9930 Y20.4722
G01 X16.9502 Y20.4006
G01 X16.9417 Y20.3857
G01 X16.9340 Y20.3703
G01 X16.8983 Y20.2949
G01 X16.8882 Y20.2712
G01 X16.8571 Y20.1847
G01 X16.8517 Y20.1683
G01 X16.8471 Y20.1518
G01 X16.8268 Y20.0709
G01 X16.8231 Y20.0541
G01 X16.8201 Y20.0372
G01 X16.8079 Y19.9547
G01 X16.8058 Y19.9376
G01 X16.8045 Y19.9205
G01 X16.8004 Y19.8372
G01 X16.8000 Y19.8200
G01 X16.8004 Y19.8028
G01 X16.8045 Y19.7195
G01 X16.8058 Y19.7024
G01 X16.8079 Y19.6853
G01 X16.8215 Y19.5943
G01 X16.8268 Y19.5691
G01 X16.8471 Y19.4882
G01 X16.8517 Y19.4717
G01 X16.8571 Y19.4553
G01 X16.8852 Y19.3768
G01 X16.8913 Y19.3608
G01 X16.8983 Y19.3451
G01 X16.9340 Y19.2697
G01 X16.9417 Y19.2543
G01 X16.9502 Y19.2394
G01 X16.9930 Y19.1678
G01 X17.0022 Y19.1533
G01 X17.0121 Y19.1393
G01 X17.0670 Y19.0654
G01 X17.0836 Y19.0457
G01 X17.1455 Y18.9776
G01 X17.1639 Y18.9596
G01 X17.2257 Y18.9036
G01 X17.2387 Y18.8924
G01 X17.2523 Y18.8818
G01 X17.3193 Y18.8321
G01 X17.3333 Y18.8222
G01 X17.3478 Y18.8130
G01 X17.4194 Y18.7702
G01 X17.4343 Y18.7617
G01 X17.4497 Y18.7540
G01 X17.5251 Y18.7183
G01 X17.5408 Y18.7113
G01 X17.5568 Y18.7052
G01 X17.6353 Y18.6771
G01 X17.6517 Y18.6717
G01 X17.6682 Y18.6671
G01 X17.7491 Y18.6468
G01 X17.7659 Y18.6431
G01 X17.7828 Y18.6401
G01 X17.8653 Y18.6279
G01 X17.8824 Y18.6258
G01 X17.8995 Y18.6245
G01 X17.9828 Y18.6204
G01 X18.0000 Y18.6200
G01 X18.0172 Y18.6204
G01 X18.1005 Y18.6245
G01 X18.1262 Y18.6267
G01 X18.2172 Y18.6401
G01 X18.2341 Y18.6431
G01 X18.2509 Y18.6468
G01 X18.3318 Y18.6671
G01 X18.3565 Y18.6743
G01 X18.4512 Y18.7082
G01 X18.4749 Y18.7183
G01 X18.5503 Y18.7540
G01 X18.5732 Y18.7658
G01 X18.6595 Y18.8176
G01 X18.6738 Y18.8271
G01 X18.6977 Y18.8447
G01 X19.7886 Y18.8448
G01 X19.8585 Y18.8481
G01 X19.8756 Y18.8494
G01 X19.8926 Y18.8515
G01 X19.9533 Y18.8605
G01 X19.9703 Y18.8634
G01 X19.9870 Y18.8672
G01 X20.0466 Y18.8821
G01 X20.0713 Y18.8893
G01 X20.1372 Y18.9127
G01 X20.1532 Y18.9189
G01 X20.1689 Y18.9259
G01 X20.2244 Y18.9521
G01 X20.2398 Y18.9599
G01 X20.2547 Y18.9683
G01 X20.3073 Y18.9999
G01 X20.3219 Y19.0091
G01 X20.3359 Y19.0189
G01 X20.3852 Y19.0555
G01 X20.3987 Y19.0661
G01 X20.4117 Y19.0773
G01 X20.4572 Y19.1185
G01 X20.4697 Y19.1303
G01 X20.6956 Y19.3565
G01 X20.7427 Y19.4083
G01 X20.7593 Y19.4280
G01 X20.8061 Y19.4911
G01 X20.8156 Y19.5053
G01 X20.8247 Y19.5203
G01 X20.8247 Y18.5040
G01 X20.5760 Y18.2553
G01 X18.6977 Y18.2553
G01 X18.6738 Y18.2729
G01 X18.6595 Y18.2824
G01 X18.5806 Y18.3298
G01 X18.5581 Y18.3423
G01 X18.4749 Y18.3817
G01 X18.4592 Y18.3887
G01 X18.4432 Y18.3948
G01 X18.3565 Y18.4257
G01 X18.3318 Y18.4329
G01 X18.2509 Y18.4532
G01 X18.2341 Y18.4569
G01 X18.2172 Y18.4599
G01 X18.1347 Y18.4721
G01 X18.1095 Y18.4749
G01 X18.0611 Y18.4977
G01 X18.0453 Y18.5043
G01 X17.9794 Y18.5279
G01 X17.9549 Y18.5357
G01 X17.8870 Y18.5528
G01 X17.8703 Y18.5566
G01 X17.8533 Y18.5595
G01 X17.7926 Y18.5685
G01 X17.7670 Y18.5714
G01 X17.6972 Y18.5749
G01 X17.6800 Y18.5753
G01 X15.5040 Y18.5753
G01 X11.6235 Y22.4556
G01 X11.5717 Y22.5027
G01 X11.5587 Y22.5139
G01 X11.5452 Y22.5245
G01 X11.4959 Y22.5611
G01 X11.4819 Y22.5709
G01 X11.4673 Y22.5801
G01 X11.4147 Y22.6117
G01 X11.3998 Y22.6201
G01 X11.3844 Y22.6279
G01 X11.3289 Y22.6541
G01 X11.3132 Y22.6611
G01 X11.2972 Y22.6673
G01 X11.2394 Y22.6879
G01 X11.2231 Y22.6933
G01 X11.2066 Y22.6979
G01 X11.1470 Y22.7128
G01 X11.1218 Y22.7181
G01 X11.0526 Y22.7285
G01 X11.0356 Y22.7306
G01 X11.0185 Y22.7319
G01 X10.9572 Y22.7349
G01 X10.9400 Y22.7353
G01 X7.7596 Y22.7353
G01 X7.7143 Y22.7764
G01 X7.6946 Y22.7930
G01 X7.6207 Y22.8479
G01 X7.5995 Y22.8624
G01 X7.5206 Y22.9098
G01 X7.5057 Y22.9183
G01 X7.4903 Y22.9260
G01 X7.4149 Y22.9617
G01 X7.3992 Y22.9687
G01 X7.3832 Y22.9748
G01 X7.3047 Y23.0029
G01 X7.2883 Y23.0083
G01 X7.2718 Y23.0129
G01 X7.1909 Y23.0332
G01 X7.1741 Y23.0369
G01 X7.1572 Y23.0399
G01 X7.0747 Y23.0521
G01 X7.0576 Y23.0542
G01 X7.0405 Y23.0555
G01 X6.9486 Y23.0599
G01 X6.9228 Y23.0596
G01 X6.8395 Y23.0555
G01 X6.8224 Y23.0542
G01 X6.8053 Y23.0521
G01 X6.7228 Y23.0399
G01 X6.7059 Y23.0369
G01 X6.6891 Y23.0332
G01 X6.6082 Y23.0129
G01 X6.5835 Y23.0057
G01 X6.4968 Y22.9748
G01 X6.4808 Y22.9687
G01 X6.4651 Y22.9617
G01 X6.3819 Y22.9223
G01 X6.3594 Y22.9098
G01 X6.2805 Y22.8624
G01 X6.2662 Y22.8529
G01 X6.2423 Y22.8353
G01 X5.0977 Y22.8353
G01 X5.0738 Y22.8529
G01 X5.0595 Y22.8624
G01 X4.9732 Y22.9142
G01 X4.9503 Y22.9260
G01 X4.8671 Y22.9653
G01 X4.8432 Y22.9748
G01 X4.7647 Y23.0029
G01 X4.7483 Y23.0083
G01 X4.7318 Y23.0129
G01 X4.6425 Y23.0352
G01 X4.6172 Y23.0399
G01 X4.5347 Y23.0521
G01 X4.5176 Y23.0542
G01 X4.5005 Y23.0555
G01 X4.4172 Y23.0596
G01 X4.4000 Y23.0600
G01 X4.3828 Y23.0596
G01 X4.2995 Y23.0555
G01 X4.2824 Y23.0542
G01 X4.2653 Y23.0521
G01 X4.1828 Y23.0399
G01 X4.1575 Y23.0352
G01 X4.0599 Y23.0107
G01 X4.0353 Y23.0029
G01 X3.9568 Y22.9748
G01 X3.9408 Y22.9687
G01 X3.9251 Y22.9617
G01 X3.8497 Y22.9260
G01 X3.8343 Y22.9183
G01 X3.8194 Y22.9098
G01 X3.7478 Y22.8670
G01 X3.7333 Y22.8578
G01 X3.7193 Y22.8479
G01 X3.6523 Y22.7982
G01 X3.6387 Y22.7876
G01 X3.6257 Y22.7764
G01 X3.5639 Y22.7204
G01 X3.5515 Y22.7085
G01 X3.5396 Y22.6961
G01 X3.4836 Y22.6343
G01 X3.4724 Y22.6213
G01 X3.4618 Y22.6077
G01 X3.4121 Y22.5407
G01 X3.4022 Y22.5267
G01 X3.3930 Y22.5122
G01 X3.3502 Y22.4406
G01 X3.3417 Y22.4257
G01 X3.3340 Y22.4103
G01 X3.2983 Y22.3349
G01 X3.2913 Y22.3192
G01 X3.2852 Y22.3032
G01 X3.2571 Y22.2247
G01 X3.2517 Y22.2083
G01 X3.2471 Y22.1918
G01 X3.2268 Y22.1109
G01 X3.2231 Y22.0941
G01 X3.2201 Y22.0772
G01 X3.2079 Y21.9947
G01 X3.2058 Y21.9776
G01 X3.2045 Y21.9605
G01 X3.2004 Y21.8772
G01 X3.2000 Y21.8600
G01 X3.2004 Y21.8428
G01 X3.2045 Y21.7595
G01 X3.2058 Y21.7424
G01 X3.2079 Y21.7253
G01 X3.2201 Y21.6428
G01 X3.2231 Y21.6259
G01 X3.2268 Y21.6091
G01 X3.2471 Y21.5282
G01 X3.2517 Y21.5117
G01 X3.2571 Y21.4953
G01 X3.2852 Y21.4168
G01 X3.2913 Y21.4008
G01 X3.2983 Y21.3851
G01 X3.3340 Y21.3097
G01 X3.3417 Y21.2943
G01 X3.3502 Y21.2794
G01 X3.3930 Y21.2078
G01 X3.4022 Y21.1933
G01 X3.4121 Y21.1793
G01 X3.4618 Y21.1123
G01 X3.4724 Y21.0987
G01 X3.4836 Y21.0857
G01 X3.5396 Y21.0239
G01 X3.5515 Y21.0115
G01 X3.5639 Y20.9996
G01 X3.6257 Y20.9436
G01 X3.6387 Y20.9324
G01 X3.6523 Y20.9218
G01 X3.7193 Y20.8721
G01 X3.7333 Y20.8622
G01 X3.7478 Y20.8530
G01 X3.8194 Y20.8102
G01 X3.8343 Y20.8017
G01 X3.8497 Y20.7940
G01 X3.9251 Y20.7583
G01 X3.9488 Y20.7482
G01 X4.0435 Y20.7143
G01 X4.0682 Y20.7071
G01 X4.1491 Y20.6868
G01 X4.1659 Y20.6831
G01 X4.1828 Y20.6801
G01 X4.2653 Y20.6679
G01 X4.2909 Y20.6650
G01 X4.3828 Y20.6604
G01 X4.4086 Y20.6601
G01 X4.5005 Y20.6645
G01 X4.5176 Y20.6658
G01 X4.5347 Y20.6679
G01 X4.6172 Y20.6801
G01 X4.6341 Y20.6831
G01 X4.6509 Y20.6868
G01 X4.7318 Y20.7071
G01 X4.7483 Y20.7117
G01 X4.7647 Y20.7171
G01 X4.8432 Y20.7452
G01 X4.8592 Y20.7513
G01 X4.8749 Y20.7583
G01 X4.9581 Y20.7977
G01 X4.9806 Y20.8102
G01 X5.0595 Y20.8576
G01 X5.0738 Y20.8671
G01 X5.0977 Y20.8847
G01 X6.2423 Y20.8847
G01 X6.2662 Y20.8671
G01 X6.2805 Y20.8576
G01 X6.3594 Y20.8102
G01 X6.3819 Y20.7977
G01 X6.4651 Y20.7583
G01 X6.4808 Y20.7513
G01 X6.4968 Y20.7452
G01 X6.5835 Y20.7143
G01 X6.6082 Y20.7071
G01 X6.6891 Y20.6868
G01 X6.7059 Y20.6831
G01 X6.7228 Y20.6801
G01 X6.8053 Y20.6679
G01 X6.8224 Y20.6658
G01 X6.8395 Y20.6645
G01 X6.9314 Y20.6601
G01 X6.9572 Y20.6604
G01 X7.0405 Y20.6645
G01 X7.0576 Y20.6658
G01 X7.0747 Y20.6679
G01 X7.1572 Y20.6801
G01 X7.1825 Y20.6848
G01 X7.2801 Y20.7093
G01 X7.3047 Y20.7171
G01 X7.3832 Y20.7452
G01 X7.3992 Y20.7513
G01 X7.4149 Y20.7583
G01 X7.4707 Y20.7847
G01 X10.5360 Y20.7847
G01 X14.4165 Y16.9044
G01 X14.4683 Y16.8573
G01 X14.4813 Y16.8461
G01 X14.4948 Y16.8355
G01 X14.5441 Y16.7989
G01 X14.5581 Y16.7891
G01 X14.5727 Y16.7799
G01 X14.6253 Y16.7483
G01 X14.6402 Y16.7399
G01 X14.6556 Y16.7321
G01 X14.7111 Y16.7059
G01 X14.7268 Y16.6989
G01 X14.7428 Y16.6927
G01 X14.8006 Y16.6721
G01 X14.8169 Y16.6667
G01 X14.8334 Y16.6621
G01 X14.8930 Y16.6472
G01 X14.9097 Y16.6434
G01 X14.9267 Y16.6405
G01 X14.9874 Y16.6315
G01 X15.0044 Y16.6294
G01 X15.0215 Y16.6281
G01 X15.0914 Y16.6248
G01 X16.9950 Y16.6247
G01 X17.0022 Y16.6133
G01 X17.0121 Y16.5993
G01 X17.0618 Y16.5323
G01 X17.0724 Y16.5187
G01 X17.0836 Y16.5057
G01 X17.1396 Y16.4439
G01 X17.1515 Y16.4315
G01 X17.1639 Y16.4196
G01 X17.2257 Y16.3636
G01 X17.2387 Y16.3524
G01 X17.2523 Y16.3418
G01 X17.3193 Y16.2921
G01 X17.3405 Y16.2776
G01 X17.4268 Y16.2258
G01 X17.4497 Y16.2140
G01 X17.5251 Y16.1783
G01 X17.5408 Y16.1713
G01 X17.5568 Y16.1652
G01 X17.6353 Y16.1371
G01 X17.6517 Y16.1317
G01 X17.6682 Y16.1271
G01 X17.7491 Y16.1068
G01 X17.7659 Y16.1031
G01 X17.7828 Y16.1001
G01 X17.8653 Y16.0879
G01 X17.8909 Y16.0850
G01 X17.9828 Y16.0804
G01 X18.0086 Y16.0801
G01 X18.1005 Y16.0845
G01 X18.1176 Y16.0858
G01 X18.1347 Y16.0879
G01 X18.2172 Y16.1001
G01 X18.2341 Y16.1031
G01 X18.2509 Y16.1068
G01 X18.3318 Y16.1271
G01 X18.3483 Y16.1317
G01 X18.3647 Y16.1371
G01 X18.4432 Y16.1652
G01 X18.4592 Y16.1713
G01 X18.4749 Y16.1783
G01 X18.5581 Y16.2177
G01 X18.5806 Y16.2302
G01 X18.6595 Y16.2776
G01 X18.6738 Y16.2871
G01 X18.6977 Y16.3047
G01 X20.9800 Y16.3047
G01 X20.9972 Y16.3051
G01 X21.0670 Y16.3086
G01 X21.0926 Y16.3115
G01 X21.1533 Y16.3205
G01 X21.1703 Y16.3234
G01 X21.1870 Y16.3272
G01 X21.2466 Y16.3421
G01 X21.2631 Y16.3467
G01 X21.2794 Y16.3521
G01 X21.3372 Y16.3727
G01 X21.3532 Y16.3789
G01 X21.3689 Y16.3859
G01 X21.4244 Y16.4121
G01 X21.4398 Y16.4199
G01 X21.4547 Y16.4283
G01 X21.5073 Y16.4599
G01 X21.5219 Y16.4691
G01 X21.5359 Y16.4789
G01 X21.5852 Y16.5155
G01 X21.5987 Y16.5261
G01 X21.6117 Y16.5373
G01 X21.6635 Y16.5844
G01 X22.4897 Y17.4103
G01 X22.5015 Y17.4228
G01 X22.5427 Y17.4683
G01 X22.5539 Y17.4813
G01 X22.5645 Y17.4948
G01 X22.6011 Y17.5441
G01 X22.6109 Y17.5581
G01 X22.6201 Y17.5727
G01 X22.6517 Y17.6253
G01 X22.6601 Y17.6402
G01 X22.6679 Y17.6556
G01 X22.6941 Y17.7111
G01 X22.7011 Y17.7268
G01 X22.7073 Y17.7428
G01 X22.7279 Y17.8006
G01 X22.7333 Y17.8169
G01 X22.7379 Y17.8334
G01 X22.7528 Y17.8930
G01 X22.7566 Y17.9097
G01 X22.7595 Y17.9267
G01 X22.7685 Y17.9874
G01 X22.7706 Y18.0044
G01 X22.7719 Y18.0215
G01 X22.7749 Y18.0828
G01 X22.7753 Y18.1000
G01 X22.7752 Y31.5086
G01 X22.7719 Y31.5785
G01 X22.7706 Y31.5956
G01 X22.7685 Y31.6126
G01 X22.7595 Y31.6733
G01 X22.7566 Y31.6903
G01 X22.7528 Y31.7070
G01 X22.7379 Y31.7666
G01 X22.7333 Y31.7831
G01 X22.7279 Y31.7994
G01 X22.7043 Y31.8653
G01 X22.6941 Y31.8889
G01 X22.6679 Y31.9444
G01 X22.6601 Y31.9598
G01 X22.6517 Y31.9747
G01 X22.6201 Y32.0273
G01 X22.6061 Y32.0489
G01 X22.5645 Y32.1052
G01 X22.5539 Y32.1187
G01 X22.5427 Y32.1317
G01 X22.5015 Y32.1772
G01 X22.4897 Y32.1897
G01 X21.4697 Y33.2097
G01 X21.4572 Y33.2215
G01 X21.4117 Y33.2627
G01 X21.3987 Y33.2739
G01 X21.3852 Y33.2845
G01 X21.3359 Y33.3211
G01 X21.3219 Y33.3309
G01 X21.3073 Y33.3401
G01 X21.2547 Y33.3717
G01 X21.2398 Y33.3801
G01 X21.2244 Y33.3879
G01 X21.1689 Y33.4141
G01 X21.1532 Y33.4211
G01 X21.1372 Y33.4273
G01 X21.0794 Y33.4479
G01 X21.0631 Y33.4533
G01 X21.0466 Y33.4579
G01 X20.9870 Y33.4728
G01 X20.9703 Y33.4766
G01 X20.9533 Y33.4795
G01 X20.8926 Y33.4885
G01 X20.8670 Y33.4914
G01 X20.7886 Y33.4952
G01 X18.6977 Y33.4953
G01 X18.6738 Y33.5129
G01 X18.6595 Y33.5224
G01 X18.5806 Y33.5698
G01 X18.5581 Y33.5823
G01 X18.4749 Y33.6217
G01 X18.4592 Y33.6287
G01 X18.4432 Y33.6348
G01 X18.3647 Y33.6629
G01 X18.3401 Y33.6707
G01 X18.2509 Y33.6932
G01 X18.2341 Y33.6969
G01 X18.2172 Y33.6999
G01 X18.1347 Y33.7121
G01 X18.1176 Y33.7142
G01 X18.1005 Y33.7155
G01 X18.0172 Y33.7196
G01 X18.0000 Y33.7200
G01 X17.9828 Y33.7196
G01 X17.8995 Y33.7155
G01 X17.8738 Y33.7133
G01 X17.7743 Y33.6985
G01 X17.7491 Y33.6932
G01 X17.6682 Y33.6729
G01 X17.6517 Y33.6683
G01 X17.6353 Y33.6629
G01 X17.5568 Y33.6348
G01 X17.5408 Y33.6287
G01 X17.5251 Y33.6217
G01 X17.4497 Y33.5860
G01 X17.4343 Y33.5783
G01 X17.4194 Y33.5698
G01 X17.3478 Y33.5270
G01 X17.3333 Y33.5178
G01 X17.3193 Y33.5079
G01 X17.2523 Y33.4582
G01 X17.2387 Y33.4476
G01 X17.2257 Y33.4364
G01 X17.1639 Y33.3804
G01 X17.1515 Y33.3685
G01 X17.1396 Y33.3561
G01 X17.0836 Y33.2943
G01 X17.0724 Y33.2813
G01 X17.0618 Y33.2677
G01 X17.0121 Y33.2007
G01 X17.0022 Y33.1867
G01 X16.9930 Y33.1722
G01 X16.9502 Y33.1006
G01 X16.9417 Y33.0857
G01 X16.9340 Y33.0703
G01 X16.8947 Y32.9871
G01 X16.8852 Y32.9632
G01 X16.8571 Y32.8847
G01 X16.8517 Y32.8683
G01 X16.8471 Y32.8518
G01 X16.8268 Y32.7709
G01 X16.8231 Y32.7541
G01 X16.8201 Y32.7372
G01 X16.8079 Y32.6547
G01 X16.8058 Y32.6376
G01 X16.8045 Y32.6205
G01 X16.8004 Y32.5372
G01 X16.8000 Y32.5200
G01 X16.8004 Y32.5028
G01 X16.8045 Y32.4195
G01 X16.8058 Y32.4024
G01 X16.8079 Y32.3853
G01 X16.8201 Y32.3028
G01 X16.8231 Y32.2859
G01 X16.8268 Y32.2691
G01 X16.8471 Y32.1882
G01 X16.8517 Y32.1717
G01 X16.8571 Y32.1553
G01 X16.8852 Y32.0768
G01 X16.8947 Y32.0529
G01 X16.9377 Y31.9619
G01 X16.9502 Y31.9394
G01 X16.9930 Y31.8678
G01 X17.0022 Y31.8533
G01 X17.0121 Y31.8393
G01 X17.0670 Y31.7654
G01 X17.0836 Y31.7457
G01 X17.1396 Y31.6839
G01 X17.1515 Y31.6715
G01 X17.1639 Y31.6596
G01 X17.2257 Y31.6036
G01 X17.2454 Y31.5870
G01 X17.3193 Y31.5321
G01 X17.3333 Y31.5222
G01 X17.3478 Y31.5130
G01 X17.4194 Y31.4702
G01 X17.4343 Y31.4617
G01 X17.4497 Y31.4540
G01 X17.5251 Y31.4183
G01 X17.5408 Y31.4113
G01 X17.5568 Y31.4052
G01 X17.6353 Y31.3771
G01 X17.6599 Y31.3693
G01 X17.7491 Y31.3468
G01 X17.7659 Y31.3431
G01 X17.7828 Y31.3401
G01 X17.8653 Y31.3279
G01 X17.8824 Y31.3258
G01 X17.8995 Y31.3245
G01 X17.9828 Y31.3204
G01 X18.0086 Y31.3201
G01 X18.1005 Y31.3245
G01 X18.1176 Y31.3258
G01 X18.1347 Y31.3279
G01 X18.2172 Y31.3401
G01 X18.2341 Y31.3431
G01 X18.2509 Y31.3468
G01 X18.3318 Y31.3671
G01 X18.3565 Y31.3743
G01 X18.4432 Y31.4052
G01 X18.4592 Y31.4113
G01 X18.4749 Y31.4183
G01 X18.5581 Y31.4577
G01 X18.5806 Y31.4702
G01 X18.6595 Y31.5176
G01 X18.6738 Y31.5271
G01 X18.6977 Y31.5447
G01 X20.3760 Y31.5447
G01 X20.8247 Y31.0960
G01 X20.8247 Y27.0197
G01 X20.8156 Y27.0347
G01 X20.8061 Y27.0489
G01 X20.7593 Y27.1120
G01 X20.7427 Y27.1317
G01 X20.6956 Y27.1835
G01 X19.7497 Y28.1297
G01 X19.7372 Y28.1415
G01 X19.6917 Y28.1827
G01 X19.6787 Y28.1939
G01 X19.6652 Y28.2045
G01 X19.6159 Y28.2411
G01 X19.6019 Y28.2509
G01 X19.5873 Y28.2601
G01 X19.5273 Y28.2960
G01 X19.5044 Y28.3079
G01 X19.4489 Y28.3341
G01 X19.4332 Y28.3411
G01 X19.4172 Y28.3473
G01 X19.3513 Y28.3707
G01 X19.3266 Y28.3779
G01 X19.2670 Y28.3928
G01 X19.2503 Y28.3966
G01 X19.2333 Y28.3995
G01 X19.1726 Y28.4085
G01 X19.1470 Y28.4114
G01 X19.0686 Y28.4152
G01 X18.6977 Y28.4153
G01 X18.6738 Y28.4329
G01 X18.6595 Y28.4424
G01 X18.5806 Y28.4898
G01 X18.5581 Y28.5023
G01 X18.4749 Y28.5417
G01 X18.4592 Y28.5487
G01 X18.4432 Y28.5548
G01 X18.3565 Y28.5857
G01 X18.3318 Y28.5929
G01 X18.2509 Y28.6132
G01 X18.2257 Y28.6185
G01 X18.1347 Y28.6321
G01 X18.1176 Y28.6342
G01 X18.1005 Y28.6355
G01 X18.0334 Y28.6388
G01 X18.0835 Y28.6844
G01 X18.1963 Y28.7970
G01 X18.2257 Y28.8015
G01 X18.2425 Y28.8048
G01 X18.3401 Y28.8293
G01 X18.3647 Y28.8371
G01 X18.4512 Y28.8682
G01 X18.4749 Y28.8783
G01 X18.5503 Y28.9140
G01 X18.5657 Y28.9217
G01 X18.5806 Y28.9302
G01 X18.6595 Y28.9776
G01 X18.6807 Y28.9921
G01 X18.7477 Y29.0418
G01 X18.7613 Y29.0524
G01 X18.7743 Y29.0636
G01 X18.8361 Y29.1196
G01 X18.8485 Y29.1315
G01 X18.8604 Y29.1439
G01 X18.9221 Y29.2122
G01 X18.9382 Y29.2323
G01 X18.9879 Y29.2993
G01 X18.9978 Y29.3133
G01 X19.0070 Y29.3278
G01 X19.0498 Y29.3994
G01 X19.0583 Y29.4143
G01 X19.0660 Y29.4297
G01 X19.1017 Y29.5051
G01 X19.1087 Y29.5208
G01 X19.1148 Y29.5368
G01 X19.1429 Y29.6153
G01 X19.1483 Y29.6317
G01 X19.1529 Y29.6482
G01 X19.1752 Y29.7375
G01 X19.1799 Y29.7628
G01 X19.1921 Y29.8453
G01 X19.1942 Y29.8624
G01 X19.1955 Y29.8795
G01 X19.1996 Y29.9628
G01 X19.1999 Y29.9886
G01 X19.1955 Y30.0805
G01 X19.1942 Y30.0976
G01 X19.1921 Y30.1147
G01 X19.1799 Y30.1972
G01 X19.1769 Y30.2141
G01 X19.1732 Y30.2309
G01 X19.1529 Y30.3118
G01 X19.1483 Y30.3283
G01 X19.1429 Y30.3447
G01 X19.1148 Y30.4232
G01 X19.1087 Y30.4392
G01 X19.1017 Y30.4549
G01 X19.0660 Y30.5303
G01 X19.0583 Y30.5457
G01 X19.0498 Y30.5606
G01 X19.0070 Y30.6322
G01 X18.9978 Y30.6467
G01 X18.9879 Y30.6607
G01 X18.9382 Y30.7277
G01 X18.9276 Y30.7413
G01 X18.9164 Y30.7543
G01 X18.8604 Y30.8161
G01 X18.8485 Y30.8285
G01 X18.8361 Y30.8404
G01 X18.7743 Y30.8964
G01 X18.7613 Y30.9076
G01 X18.7477 Y30.9182
G01 X18.6807 Y30.9679
G01 X18.6667 Y30.9778
G01 X18.6522 Y30.9870
G01 X18.5806 Y31.0298
G01 X18.5657 Y31.0383
G01 X18.5503 Y31.0460
G01 X18.4749 Y31.0817
G01 X18.4592 Y31.0887
G01 X18.4432 Y31.0948
G01 X18.3647 Y31.1229
G01 X18.3483 Y31.1283
G01 X18.3318 Y31.1329
G01 X18.2509 Y31.1532
G01 X18.2341 Y31.1569
G01 X18.2172 Y31.1599
G01 X18.1347 Y31.1721
G01 X18.1176 Y31.1742
G01 X18.1005 Y31.1755
G01 X18.0172 Y31.1796
G01 X18.0000 Y31.1800
G01 X17.9828 Y31.1796
G01 X17.8995 Y31.1755
G01 X17.8824 Y31.1742
G01 X17.8653 Y31.1721
G01 X17.7828 Y31.1599
G01 X17.7659 Y31.1569
G01 X17.7491 Y31.1532
G01 X17.6682 Y31.1329
G01 X17.6517 Y31.1283
G01 X17.6353 Y31.1229
G01 X17.5568 Y31.0948
G01 X17.5408 Y31.0887
G01 X17.5251 Y31.0817
G01 X17.4497 Y31.0460
G01 X17.4268 Y31.0342
G01 X17.3478 Y30.9870
G01 X17.3333 Y30.9778
G01 X17.3193 Y30.9679
G01 X17.2523 Y30.9182
G01 X17.2387 Y30.9076
G01 X17.2257 Y30.8964
G01 X17.1576 Y30.8345
G01 X17.1396 Y30.8161
G01 X17.0836 Y30.7543
G01 X17.0724 Y30.7413
G01 X17.0618 Y30.7277
G01 X17.0121 Y30.6607
G01 X17.0022 Y30.6467
G01 X16.9930 Y30.6322
G01 X16.9502 Y30.5606
G01 X16.9417 Y30.5457
G01 X16.9340 Y30.5303
G01 X16.8983 Y30.4549
G01 X16.8913 Y30.4392
G01 X16.8852 Y30.4232
G01 X16.8609 Y30.3553
G01 X7.7596 Y30.3553
G01 X7.7143 Y30.3964
G01 X7.7013 Y30.4076
G01 X7.6877 Y30.4182
G01 X7.6207 Y30.4679
G01 X7.5995 Y30.4824
G01 X7.5206 Y30.5298
G01 X7.5057 Y30.5383
G01 X7.4903 Y30.5460
G01 X7.4149 Y30.5817
G01 X7.3992 Y30.5887
G01 X7.3832 Y30.5948
G01 X7.2965 Y30.6257
G01 X7.2718 Y30.6329
G01 X7.1909 Y30.6532
G01 X7.1741 Y30.6569
G01 X7.1572 Y30.6599
G01 X7.0747 Y30.6721
G01 X7.0576 Y30.6742
G01 X7.0405 Y30.6755
G01 X6.9572 Y30.6796
G01 X6.9400 Y30.6800
G01 X6.9228 Y30.6796
G01 X6.8395 Y30.6755
G01 X6.8138 Y30.6733
G01 X6.7228 Y30.6599
G01 X6.7059 Y30.6569
G01 X6.6891 Y30.6532
G01 X6.6082 Y30.6329
G01 X6.5917 Y30.6283
G01 X6.5753 Y30.6229
G01 X6.4888 Y30.5918
G01 X6.4651 Y30.5817
G01 X6.3897 Y30.5460
G01 X6.3743 Y30.5383
G01 X6.3594 Y30.5298
G01 X6.2878 Y30.4870
G01 X6.2733 Y30.4778
G01 X6.2593 Y30.4679
G01 X6.1923 Y30.4182
G01 X6.1787 Y30.4076
G01 X6.1657 Y30.3964
G01 X6.1039 Y30.3404
G01 X6.0855 Y30.3224
G01 X6.0236 Y30.2543
G01 X6.0124 Y30.2413
G01 X6.0018 Y30.2277
G01 X5.9521 Y30.1607
G01 X5.9422 Y30.1467
G01 X5.9330 Y30.1322
G01 X5.8902 Y30.0606
G01 X5.8817 Y30.0457
G01 X5.8740 Y30.0303
G01 X5.8383 Y29.9549
G01 X5.8313 Y29.9392
G01 X5.8252 Y29.9232
G01 X5.7971 Y29.8447
G01 X5.7917 Y29.8283
G01 X5.7871 Y29.8118
G01 X5.7668 Y29.7309
G01 X5.7615 Y29.7057
G01 X5.7479 Y29.6147
G01 X5.7458 Y29.5976
G01 X5.7445 Y29.5805
G01 X5.7404 Y29.4972
G01 X5.7400 Y29.4800
G01 X5.7404 Y29.4628
G01 X5.7445 Y29.3795
G01 X5.7458 Y29.3624
G01 X5.7479 Y29.3453
G01 X5.7601 Y29.2628
G01 X5.7631 Y29.2459
G01 X5.7668 Y29.2291
G01 X5.7871 Y29.1482
G01 X5.7917 Y29.1317
G01 X5.7971 Y29.1153
G01 X5.8252 Y29.0368
G01 X5.8313 Y29.0208
G01 X5.8383 Y29.0051
G01 X5.8740 Y28.9297
G01 X5.8817 Y28.9143
G01 X5.8902 Y28.8994
G01 X5.9330 Y28.8278
G01 X5.9422 Y28.8133
G01 X5.9521 Y28.7993
G01 X6.0018 Y28.7323
G01 X6.0124 Y28.7187
G01 X6.0236 Y28.7057
G01 X6.0796 Y28.6439
G01 X6.0915 Y28.6315
G01 X6.1039 Y28.6196
G01 X6.1657 Y28.5636
G01 X6.1787 Y28.5524
G01 X6.1923 Y28.5418
G01 X6.2593 Y28.4921
G01 X6.2733 Y28.4822
G01 X6.2878 Y28.4730
G01 X6.3594 Y28.4302
G01 X6.3743 Y28.4217
G01 X6.3897 Y28.4140
G01 X6.4651 Y28.3783
G01 X6.4808 Y28.3713
G01 X6.4968 Y28.3652
G01 X6.5753 Y28.3371
G01 X6.5917 Y28.3317
G01 X6.6082 Y28.3271
G01 X6.6891 Y28.3068
G01 X6.7143 Y28.3015
G01 X6.8053 Y28.2879
G01 X6.8224 Y28.2858
G01 X6.8395 Y28.2845
G01 X6.9228 Y28.2804
G01 X6.9486 Y28.2801
G01 X7.0405 Y28.2845
G01 X7.0576 Y28.2858
G01 X7.0747 Y28.2879
G01 X7.1572 Y28.3001
G01 X7.1741 Y28.3031
G01 X7.1909 Y28.3068
G01 X7.2718 Y28.3271
G01 X7.2883 Y28.3317
G01 X7.3047 Y28.3371
G01 X7.3832 Y28.3652
G01 X7.3992 Y28.3713
G01 X7.4149 Y28.3783
G01 X7.4707 Y28.4047
G01 X17.2880 Y28.4047
G01 X17.2454 Y28.3730
G01 X17.2322 Y28.3621
G01 X17.1639 Y28.3004
G01 X17.1455 Y28.2824
G01 X17.0836 Y28.2143
G01 X17.0724 Y28.2013
G01 X17.0618 Y28.1877
G01 X17.0121 Y28.1207
G01 X17.0022 Y28.1067
G01 X16.9930 Y28.0922
G01 X16.9502 Y28.0206
G01 X16.9377 Y27.9981
G01 X16.8983 Y27.9149
G01 X16.8913 Y27.8992
G01 X16.8852 Y27.8832
G01 X16.8609 Y27.8153
G01 X7.7596 Y27.8153
G01 X7.7143 Y27.8564
G01 X7.7013 Y27.8676
G01 X7.6877 Y27.8782
G01 X7.6207 Y27.9279
G01 X7.6067 Y27.9378
G01 X7.5922 Y27.9470
G01 X7.5206 Y27.9898
G01 X7.5057 Y27.9983
G01 X7.4903 Y28.0060
G01 X7.4071 Y28.0453
G01 X7.3832 Y28.0548
G01 X7.3047 Y28.0829
G01 X7.2883 Y28.0883
G01 X7.2718 Y28.0929
G01 X7.1909 Y28.1132
G01 X7.1741 Y28.1169
G01 X7.1572 Y28.1199
G01 X7.0747 Y28.1321
G01 X7.0576 Y28.1342
G01 X7.0405 Y28.1355
G01 X6.9572 Y28.1396
G01 X6.9400 Y28.1400
G01 X6.9228 Y28.1396
G01 X6.8395 Y28.1355
G01 X6.8224 Y28.1342
G01 X6.8053 Y28.1321
G01 X6.7228 Y28.1199
G01 X6.7059 Y28.1169
G01 X6.6891 Y28.1132
G01 X6.5999 Y28.0907
G01 X6.5753 Y28.0829
G01 X6.4968 Y28.0548
G01 X6.4808 Y28.0487
G01 X6.4651 Y28.0417
G01 X6.3819 Y28.0023
G01 X6.3594 Y27.9898
G01 X6.2805 Y27.9424
G01 X6.2662 Y27.9329
G01 X6.2423 Y27.9153
G01 X5.0977 Y27.9153
G01 X5.0738 Y27.9329
G01 X5.0595 Y27.9424
G01 X4.9806 Y27.9898
G01 X4.9581 Y28.0023
G01 X4.8749 Y28.0417
G01 X4.8592 Y28.0487
G01 X4.8432 Y28.0548
G01 X4.7647 Y28.0829
G01 X4.7401 Y28.0907
G01 X4.6509 Y28.1132
G01 X4.6341 Y28.1169
G01 X4.6172 Y28.1199
G01 X4.5347 Y28.1321
G01 X4.5176 Y28.1342
G01 X4.5005 Y28.1355
G01 X4.4172 Y28.1396
G01 X4.4000 Y28.1400
G01 X4.3828 Y28.1396
G01 X4.2995 Y28.1355
G01 X4.2738 Y28.1333
G01 X4.1743 Y28.1185
G01 X4.1491 Y28.1132
G01 X4.0682 Y28.0929
G01 X4.0517 Y28.0883
G01 X4.0353 Y28.0829
G01 X3.9488 Y28.0518
G01 X3.9251 Y28.0417
G01 X3.8497 Y28.0060
G01 X3.8343 Y27.9983
G01 X3.8194 Y27.9898
G01 X3.7478 Y27.9470
G01 X3.7333 Y27.9378
G01 X3.7193 Y27.9279
G01 X3.6523 Y27.8782
G01 X3.6387 Y27.8676
G01 X3.6257 Y27.8564
G01 X3.5639 Y27.8004
G01 X3.5515 Y27.7885
G01 X3.5396 Y27.7761
G01 X3.4836 Y27.7143
G01 X3.4724 Y27.7013
G01 X3.4618 Y27.6877
G01 X3.4121 Y27.6207
G01 X3.4022 Y27.6067
G01 X3.3930 Y27.5922
G01 X3.3458 Y27.5132
G01 X3.3340 Y27.4903
G01 X3.2983 Y27.4149
G01 X3.2913 Y27.3992
G01 X3.2852 Y27.3832
G01 X3.2571 Y27.3047
G01 X3.2517 Y27.2883
G01 X3.2471 Y27.2718
G01 X3.2268 Y27.1909
G01 X3.2231 Y27.1741
G01 X3.2201 Y27.1572
G01 X3.2067 Y27.0662
G01 X3.2045 Y27.0405
G01 X3.2004 Y26.9572
G01 X3.2000 Y26.9400
G01 X3.2004 Y26.9228
G01 X3.2045 Y26.8395
G01 X3.2058 Y26.8224
G01 X3.2079 Y26.8053
G01 X3.2201 Y26.7228
G01 X3.2231 Y26.7059
G01 X3.2268 Y26.6891
G01 X3.2471 Y26.6082
G01 X3.2517 Y26.5917
G01 X3.2571 Y26.5753
G01 X3.2852 Y26.4968
G01 X3.2913 Y26.4808
G01 X3.2983 Y26.4651
G01 X3.3340 Y26.3897
G01 X3.3417 Y26.3743
G01 X3.3502 Y26.3594
G01 X3.3930 Y26.2878
G01 X3.4022 Y26.2733
G01 X3.4121 Y26.2593
G01 X3.4618 Y26.1923
G01 X3.4724 Y26.1787
G01 X3.4836 Y26.1657
G01 X3.5396 Y26.1039
G01 X3.5515 Y26.0915
G01 X3.5639 Y26.0796
G01 X3.6257 Y26.0236
G01 X3.6387 Y26.0124
G01 X3.6523 Y26.0018
G01 X3.7193 Y25.9521
G01 X3.7333 Y25.9422
G01 X3.7478 Y25.9330
G01 X3.8194 Y25.8902
G01 X3.8343 Y25.8817
G01 X3.8497 Y25.8740
G01 X3.9251 Y25.8383
G01 X3.9408 Y25.8313
G01 X3.9568 Y25.8252
G01 X4.0353 Y25.7971
G01 X4.0517 Y25.7917
G01 X4.0682 Y25.7871
G01 X4.1491 Y25.7668
G01 X4.1659 Y25.7631
G01 X4.1828 Y25.7601
G01 X4.2738 Y25.7467
G01 X4.2995 Y25.7445
G01 X4.3828 Y25.7404
G01 X4.4000 Y25.7400
G01 X4.4172 Y25.7404
G01 X4.5005 Y25.7445
G01 X4.5176 Y25.7458
G01 X4.5347 Y25.7479
G01 X4.6172 Y25.7601
G01 X4.6341 Y25.7631
G01 X4.6509 Y25.7668
G01 X4.7401 Y25.7893
G01 X4.7647 Y25.7971
G01 X4.8432 Y25.8252
G01 X4.8592 Y25.8313
G01 X4.8749 Y25.8383
G01 X4.9581 Y25.8777
G01 X4.9806 Y25.8902
G01 X5.0595 Y25.9376
G01 X5.0738 Y25.9471
G01 X5.0977 Y25.9647
G01 X6.2423 Y25.9647
G01 X6.2662 Y25.9471
G01 X6.2805 Y25.9376
G01 X6.3594 Y25.8902
G01 X6.3819 Y25.8777
G01 X6.4651 Y25.8383
G01 X6.4808 Y25.8313
G01 X6.4968 Y25.8252
G01 X6.5835 Y25.7943
G01 X6.6082 Y25.7871
G01 X6.6891 Y25.7668
G01 X6.7059 Y25.7631
G01 X6.7228 Y25.7601
G01 X6.8053 Y25.7479
G01 X6.8224 Y25.7458
G01 X6.8395 Y25.7445
G01 X6.9228 Y25.7404
G01 X6.9400 Y25.7400
G01 X6.9572 Y25.7404
G01 X7.0405 Y25.7445
G01 X7.0576 Y25.7458
G01 X7.0747 Y25.7479
G01 X7.1572 Y25.7601
G01 X7.1825 Y25.7648
G01 X7.2801 Y25.7893
G01 X7.3047 Y25.7971
G01 X7.3832 Y25.8252
G01 X7.3992 Y25.8313
G01 X7.4149 Y25.8383
G01 X7.4707 Y25.8647
G01 X17.2880 Y25.8647
G01 X17.2454 Y25.8330
G01 X17.2322 Y25.8221
G01 X17.1639 Y25.7604
G01 X17.1455 Y25.7424
G01 X17.0836 Y25.6743
G01 X17.0724 Y25.6613
G01 X17.0618 Y25.6477
G01 X17.0121 Y25.5807
G01 X17.0022 Y25.5667
G01 X16.9930 Y25.5522
G01 X16.9502 Y25.4806
G01 X16.9377 Y25.4581
G01 X16.8983 Y25.3749
G01 X16.8913 Y25.3592
G01 X16.8852 Y25.3432
G01 X16.8609 Y25.2753
G01 X7.7596 Y25.2753
G01 X7.7143 Y25.3164
G01 X7.7013 Y25.3276
G01 X7.6877 Y25.3382
G01 X7.6207 Y25.3879
G01 X7.6067 Y25.3978
G01 X7.5922 Y25.4070
G01 X7.5206 Y25.4498
G01 X7.5057 Y25.4583
G01 X7.4903 Y25.4660
G01 X7.4071 Y25.5053
G01 X7.3832 Y25.5148
G01 X7.3047 Y25.5429
G01 X7.2883 Y25.5483
G01 X7.2718 Y25.5529
G01 X7.1909 Y25.5732
G01 X7.1741 Y25.5769
G01 X7.1572 Y25.5799
G01 X7.0747 Y25.5921
G01 X7.0576 Y25.5942
G01 X7.0405 Y25.5955
G01 X6.9572 Y25.5996
G01 X6.9400 Y25.6000
G01 X6.9228 Y25.5996
G01 X6.8395 Y25.5955
G01 X6.8224 Y25.5942
G01 X6.8053 Y25.5921
G01 X6.7228 Y25.5799
G01 X6.7059 Y25.5769
G01 X6.6891 Y25.5732
G01 X6.5999 Y25.5507
G01 X6.5753 Y25.5429
G01 X6.4968 Y25.5148
G01 X6.4808 Y25.5087
G01 X6.4651 Y25.5017
G01 X6.3819 Y25.4623
G01 X6.3594 Y25.4498
G01 X6.2805 Y25.4024
G01 X6.2662 Y25.3929
G01 X6.2423 Y25.3753
G01 X5.0977 Y25.3753
G01 X5.0738 Y25.3929
G01 X5.0595 Y25.4024
G01 X4.9806 Y25.4498
G01 X4.9581 Y25.4623
G01 X4.8749 Y25.5017
G01 X4.8592 Y25.5087
G01 X4.8432 Y25.5148
G01 X4.7565 Y25.5457
G01 X4.7318 Y25.5529
G01 X4.6509 Y25.5732
G01 X4.6341 Y25.5769
G01 X4.6172 Y25.5799
G01 X4.5347 Y25.5921
G01 X4.5176 Y25.5942
G01 X4.5005 Y25.5955
G01 X4.4172 Y25.5996
G01 X4.4000 Y25.6000
G01 X4.3828 Y25.5996
G01 X4.2995 Y25.5955
G01 X4.2824 Y25.5942
G01 X4.2653 Y25.5921
G01 X4.1828 Y25.5799
G01 X4.1659 Y25.5769
G01 X4.1491 Y25.5732
G01 X4.0682 Y25.5529
G01 X4.0517 Y25.5483
G01 X4.0353 Y25.5429
G01 X3.9488 Y25.5118
G01 X3.9251 Y25.5017
G01 X3.8497 Y25.4660
G01 X3.8343 Y25.4583
G01 X3.8194 Y25.4498
G01 X3.7405 Y25.4024
G01 X3.7193 Y25.3879
G01 X3.6454 Y25.3330
G01 X3.6257 Y25.3164
G01 X3.5804 Y25.2753
G01 X2.8753 Y25.2753
G01 X2.8753 Y39.7247
G01 X18.7960 Y39.7247
G01 X19.5247 Y38.9960
G01 X19.5247 Y36.2040
G01 X19.3560 Y36.0353
G01 X18.6977 Y36.0353
G01 X18.6738 Y36.0529
G01 X18.6595 Y36.0624
G01 X18.5732 Y36.1142
G01 X18.5503 Y36.1260
G01 X18.4749 Y36.1617
G01 X18.4512 Y36.1718
G01 X18.3647 Y36.2029
G01 X18.3483 Y36.2083
G01 X18.3318 Y36.2129
G01 X18.2509 Y36.2332
G01 X18.2341 Y36.2369
G01 X18.2172 Y36.2399
G01 X18.1347 Y36.2521
G01 X18.1091 Y36.2550
G01 X18.0172 Y36.2596
G01 X18.0000 Y36.2600
G01 X17.9828 Y36.2596
G01 X17.8995 Y36.2555
G01 X17.8824 Y36.2542
G01 X17.8653 Y36.2521
G01 X17.7828 Y36.2399
G01 X17.7659 Y36.2369
G01 X17.7491 Y36.2332
G01 X17.6682 Y36.2129
G01 X17.6435 Y36.2057
G01 X17.5488 Y36.1718
G01 X17.5251 Y36.1617
G01 X17.4497 Y36.1260
G01 X17.4343 Y36.1183
G01 X17.4194 Y36.1098
G01 X17.3478 Y36.0670
G01 X17.3333 Y36.0578
G01 X17.3193 Y36.0479
G01 X17.2523 Y35.9982
G01 X17.2387 Y35.9876
G01 X17.2257 Y35.9764
G01 X17.1639 Y35.9204
G01 X17.1515 Y35.9085
G01 X17.1396 Y35.8961
G01 X17.0836 Y35.8343
G01 X17.0724 Y35.8213
G01 X17.0618 Y35.8077
G01 X17.0121 Y35.7407
G01 X17.0022 Y35.7267
G01 X16.9930 Y35.7122
G01 X16.9502 Y35.6406
G01 X16.9417 Y35.6257
G01 X16.9340 Y35.6103
G01 X16.8983 Y35.5349
G01 X16.8913 Y35.5192
G01 X16.8852 Y35.5032
G01 X16.8571 Y35.4247
G01 X16.8517 Y35.4083
G01 X16.8471 Y35.3918
G01 X16.8268 Y35.3109
G01 X16.8231 Y35.2941
G01 X16.8201 Y35.2772
G01 X16.8067 Y35.1862
G01 X16.8045 Y35.1605
G01 X16.8004 Y35.0772
G01 X16.8000 Y35.0600
G01 X16.8004 Y35.0428
G01 X16.8045 Y34.9595
G01 X16.8058 Y34.9424
G01 X16.8079 Y34.9253
G01 X16.8201 Y34.8428
G01 X16.8231 Y34.8259
G01 X16.8268 Y34.8091
G01 X16.8471 Y34.7282
G01 X16.8517 Y34.7117
G01 X16.8571 Y34.6953
G01 X16.8852 Y34.6168
G01 X16.8913 Y34.6008
G01 X16.8983 Y34.5851
G01 X16.9340 Y34.5097
G01 X16.9417 Y34.4943
G01 X16.9502 Y34.4794
G01 X16.9930 Y34.4078
G01 X17.0022 Y34.3933
G01 X17.0121 Y34.3793
G01 X17.0618 Y34.3123
G01 X17.0724 Y34.2987
G01 X17.0836 Y34.2857
G01 X17.1455 Y34.2176
G01 X17.1639 Y34.1996
G01 X17.2257 Y34.1436
G01 X17.2387 Y34.1324
G01 X17.2523 Y34.1218
G01 X17.3193 Y34.0721
G01 X17.3405 Y34.0576
G01 X17.4268 Y34.0058
G01 X17.4497 Y33.9940
G01 X17.5251 Y33.9583
G01 X17.5408 Y33.9513
G01 X17.5568 Y33.9452
G01 X17.6353 Y33.9171
G01 X17.6517 Y33.9117
G01 X17.6682 Y33.9071
G01 X17.7491 Y33.8868
G01 X17.7659 Y33.8831
G01 X17.7828 Y33.8801
G01 X17.8653 Y33.8679
G01 X17.8824 Y33.8658
G01 X17.8995 Y33.8645
G01 X17.9828 Y33.8604
G01 X18.0086 Y33.8601
G01 X18.1005 Y33.8645
G01 X18.1176 Y33.8658
G01 X18.1347 Y33.8679
G01 X18.2172 Y33.8801
G01 X18.2341 Y33.8831
G01 X18.2509 Y33.8868
G01 X18.3318 Y33.9071
G01 X18.3565 Y33.9143
G01 X18.4432 Y33.9452
G01 X18.4592 Y33.9513
G01 X18.4749 Y33.9583
G01 X18.5581 Y33.9977
G01 X18.5806 Y34.0102
G01 X18.6595 Y34.0576
G01 X18.6738 Y34.0671
G01 X18.6977 Y34.0847
G01 X19.7600 Y34.0847
G01 X19.7772 Y34.0851
G01 X19.8385 Y34.0881
G01 X19.8556 Y34.0894
G01 X19.8726 Y34.0915
G01 X19.9418 Y34.1019
G01 X19.9670 Y34.1072
G01 X20.0266 Y34.1221
G01 X20.0431 Y34.1267
G01 X20.0594 Y34.1321
G01 X20.1172 Y34.1527
G01 X20.1411 Y34.1623
G01 X20.2044 Y34.1921
G01 X20.2198 Y34.1999
G01 X20.2347 Y34.2083
G01 X20.2873 Y34.2399
G01 X20.3019 Y34.2491
G01 X20.3159 Y34.2589
G01 X20.3652 Y34.2955
G01 X20.3787 Y34.3061
G01 X20.3917 Y34.3173
G01 X20.4435 Y34.3644
G01 X21.1956 Y35.1165
G01 X21.2427 Y35.1683
G01 X21.2539 Y35.1813
G01 X21.2645 Y35.1948
G01 X21.3011 Y35.2441
G01 X21.3109 Y35.2581
G01 X21.3201 Y35.2727
G01 X21.3517 Y35.3253
G01 X21.3601 Y35.3402
G01 X21.3679 Y35.3556
G01 X21.3941 Y35.4111
G01 X21.4011 Y35.4268
G01 X21.4073 Y35.4428
G01 X21.4279 Y35.5006
G01 X21.4333 Y35.5169
G01 X21.4379 Y35.5334
G01 X21.4528 Y35.5930
G01 X21.4566 Y35.6097
G01 X21.4595 Y35.6267
G01 X21.4685 Y35.6874
G01 X21.4714 Y35.7130
G01 X21.4752 Y35.7914
G01 X21.4752 Y39.4086
G01 X21.4719 Y39.4785
G01 X21.4706 Y39.4956
G01 X21.4685 Y39.5126
G01 X21.4581 Y39.5818
G01 X21.4528 Y39.6070
G01 X21.4379 Y39.6666
G01 X21.4333 Y39.6831
G01 X21.4279 Y39.6994
G01 X21.4073 Y39.7572
G01 X21.4011 Y39.7732
G01 X21.3941 Y39.7889
G01 X21.3679 Y39.8444
G01 X21.3601 Y39.8598
G01 X21.3517 Y39.8747
G01 X21.3201 Y39.9273
G01 X21.3109 Y39.9419
G01 X21.3011 Y39.9559
G01 X21.2593 Y40.0120
G01 X21.2427 Y40.0317
G01 X21.2015 Y40.0772
G01 X21.1897 Y40.0897
G01 X19.8897 Y41.3897
G01 X19.8772 Y41.4015
G01 X19.8317 Y41.4427
G01 X19.8187 Y41.4539
G01 X19.8052 Y41.4645
G01 X19.7559 Y41.5011
G01 X19.7419 Y41.5109
G01 X19.7273 Y41.5201
G01 X19.6747 Y41.5517
G01 X19.6598 Y41.5601
G01 X19.6444 Y41.5679
G01 X19.5889 Y41.5941
G01 X19.5732 Y41.6011
G01 X19.5572 Y41.6073
G01 X19.4994 Y41.6279
G01 X19.4831 Y41.6333
G01 X19.4666 Y41.6379
G01 X19.4070 Y41.6528
G01 X19.3903 Y41.6566
G01 X19.3733 Y41.6595
G01 X19.3126 Y41.6685
G01 X19.2870 Y41.6714
G01 X19.2172 Y41.6749
G01 X19.2000 Y41.6753
G01 X2.4000 Y41.6753
G01 X2.3828 Y41.6749
G01 X2.3215 Y41.6719
G01 X2.3044 Y41.6706
G01 X2.2874 Y41.6685
G01 X2.2267 Y41.6595
G01 X2.2097 Y41.6566
G01 X2.1930 Y41.6528
G01 X2.1251 Y41.6357
G01 X2.1006 Y41.6279
G01 X2.0428 Y41.6073
G01 X2.0268 Y41.6011
G01 X2.0111 Y41.5941
G01 X1.9556 Y41.5679
G01 X1.9402 Y41.5601
G01 X1.9253 Y41.5517
G01 X1.8727 Y41.5201
G01 X1.8581 Y41.5109
G01 X1.8441 Y41.5011
G01 X1.7880 Y41.4593
G01 X1.7683 Y41.4427
G01 X1.7228 Y41.4015
G01 X1.7103 Y41.3897
G01 X1.2103 Y40.8897
G01 X1.1985 Y40.8772
G01 X1.1573 Y40.8317
G01 X1.1461 Y40.8187
G01 X1.1355 Y40.8052
G01 X1.0939 Y40.7489
G01 X1.0799 Y40.7273
G01 X1.0483 Y40.6747
G01 X1.0399 Y40.6598
G01 X1.0321 Y40.6444
G01 X1.0059 Y40.5889
G01 X0.9989 Y40.5732
G01 X0.9927 Y40.5572
G01 X0.9721 Y40.4994
G01 X0.9667 Y40.4831
G01 X0.9621 Y40.4666
G01 X0.9472 Y40.4070
G01 X0.9434 Y40.3903
G01 X0.9405 Y40.3733
G01 X0.9315 Y40.3126
G01 X0.9294 Y40.2956
G01 X0.9281 Y40.2785
G01 X0.9248 Y40.2086
G01 X0.9248 Y24.2914
G01 X0.9281 Y24.2215
G01 X0.9294 Y24.2044
G01 X0.9315 Y24.1874
G01 X0.9419 Y24.1182
G01 X0.9472 Y24.0930
G01 X0.9621 Y24.0334
G01 X0.9667 Y24.0169
G01 X0.9721 Y24.0006
G01 X0.9927 Y23.9428
G01 X0.9989 Y23.9268
G01 X1.0059 Y23.9111
G01 X1.0321 Y23.8556
G01 X1.0399 Y23.8402
G01 X1.0483 Y23.8253
G01 X1.0799 Y23.7727
G01 X1.0891 Y23.7581
G01 X1.0989 Y23.7441
G01 X1.1407 Y23.6880
G01 X1.1573 Y23.6683
G01 X1.1985 Y23.6228
G01 X1.2103 Y23.6103
G01 X1.2228 Y23.5985
G01 X1.2747 Y23.5516
G01 X1.2948 Y23.5355
G01 X1.3441 Y23.4989
G01 X1.3581 Y23.4891
G01 X1.3727 Y23.4799
G01 X1.4253 Y23.4483
G01 X1.4479 Y23.4359
G01 X1.5189 Y23.4023
G01 X1.5428 Y23.3927
G01 X1.6006 Y23.3721
G01 X1.6169 Y23.3667
G01 X1.6334 Y23.3621
G01 X1.7013 Y23.3452
G01 X1.7267 Y23.3405
G01 X1.7874 Y23.3315
G01 X1.8044 Y23.3294
G01 X1.8215 Y23.3281
G01 X1.8828 Y23.3251
G01 X1.9000 Y23.3247
G01 X3.8693 Y23.3247
G01 X3.9251 Y23.2983
G01 X3.9408 Y23.2913
G01 X3.9568 Y23.2852
G01 X4.0353 Y23.2571
G01 X4.0599 Y23.2493
G01 X4.1491 Y23.2268
G01 X4.1659 Y23.2231
G01 X4.1828 Y23.2201
G01 X4.2653 Y23.2079
G01 X4.2824 Y23.2058
G01 X4.2995 Y23.2045
G01 X4.3914 Y23.2001
G01 X4.4172 Y23.2004
G01 X4.5005 Y23.2045
G01 X4.5176 Y23.2058
G01 X4.5347 Y23.2079
G01 X4.6172 Y23.2201
G01 X4.6341 Y23.2231
G01 X4.6509 Y23.2268
G01 X4.7318 Y23.2471
G01 X4.7565 Y23.2543
G01 X4.8432 Y23.2852
G01 X4.8592 Y23.2913
G01 X4.8749 Y23.2983
G01 X4.9581 Y23.3377
G01 X4.9806 Y23.3502
G01 X5.0595 Y23.3976
G01 X5.0738 Y23.4071
G01 X5.0977 Y23.4247
G01 X6.2423 Y23.4247
G01 X6.2662 Y23.4071
G01 X6.2805 Y23.3976
G01 X6.3594 Y23.3502
G01 X6.3819 Y23.3377
G01 X6.4651 Y23.2983
G01 X6.4808 Y23.2913
G01 X6.4968 Y23.2852
G01 X6.5835 Y23.2543
G01 X6.6082 Y23.2471
G01 X6.6891 Y23.2268
G01 X6.7059 Y23.2231
G01 X6.7228 Y23.2201
G01 X6.8053 Y23.2079
G01 X6.8224 Y23.2058
G01 X6.8395 Y23.2045
G01 X6.9228 Y23.2004
G01 X6.9400 Y23.2000
G01 X6.9572 Y23.2004
G01 X7.0405 Y23.2045
G01 X7.0576 Y23.2058
G01 X7.0747 Y23.2079
G01 X7.1572 Y23.2201
G01 X7.1825 Y23.2248
G01 X7.2801 Y23.2493
G01 X7.3047 Y23.2571
G01 X7.3832 Y23.2852
G01 X7.3992 Y23.2913
G01 X7.4149 Y23.2983
G01 X7.4707 Y23.3247
G01 X17.2880 Y23.3247
G01 X17.2454 Y23.2930
G01 X17.2322 Y23.2821
G01 X17.1639 Y23.2204
G01 X17.1455 Y23.2024
G01 X17.0836 Y23.1343
G01 X17.0724 Y23.1213
G01 X17.0618 Y23.1077
G01 X17.0071 Y23.0338
G01 X16.9930 Y23.0122
G01 X16.9502 Y22.9406
G01 X16.9417 Y22.9257
G01 X16.9340 Y22.9103
G01 X16.8983 Y22.8349
G01 X16.8913 Y22.8192
G01 X16.8852 Y22.8032
G01 X16.8543 Y22.7165
G01 X16.8471 Y22.6918
G01 X16.8268 Y22.6109
G01 X16.8231 Y22.5941
G01 X16.8201 Y22.5772
G01 X16.8079 Y22.4947
G01 X16.8058 Y22.4776
G01 X16.8045 Y22.4605
G01 X16.8004 Y22.3772
G01 X16.8000 Y22.3600
G01 X16.8004 Y22.3428
G01 X16.8045 Y22.2595
G01 X16.8058 Y22.2424
G01 X16.8079 Y22.2253
G01 X16.8201 Y22.1428
G01 X16.8231 Y22.1259
G01 X16.8268 Y22.1091
G01 X16.8471 Y22.0282
G01 X16.8543 Y22.0035
G01 X16.8852 Y21.9168
G01 X16.8913 Y21.9008
G01 X16.8983 Y21.8851
G01 X16.9340 Y21.8097
G01 X16.9417 Y21.7943
G01 X16.9502 Y21.7794
G01 X16.9930 Y21.7078
G01 X17.0022 Y21.6933
G01 X17.0121 Y21.6793
G01 X17.0618 Y21.6123
G01 X17.0724 Y21.5987
G01 X17.0836 Y21.5857
G01 X17.1396 Y21.5239
G01 X17.1576 Y21.5055
G01 X17.2257 Y21.4436
G01 X17.2387 Y21.4324
G01 X17.2523 Y21.4218
G01 X17.3193 Y21.3721
G01 X17.3333 Y21.3622
G01 X17.3478 Y21.3530
G01 X17.4194 Y21.3102
G01 X17.4343 Y21.3017
G01 X17.4497 Y21.2940
G01 X17.5251 Y21.2583
G01 X17.5408 Y21.2513
G01 X17.5568 Y21.2452
G01 X17.6353 Y21.2171
G01 X17.6517 Y21.2117
G01 X17.6682 Y21.2071
G01 X17.7491 Y21.1868
G01 X17.7743 Y21.1815
G01 X17.8653 Y21.1679
G01 X17.8824 Y21.1658
G01 X17.8995 Y21.1645
G01 X17.9828 Y21.1604
G00 Z1.7000
G00 X17.0300 Y23.3300
F60.00
G01 Z-0.2800
F100.00
G01 X17.5100 Y23.3200
G01 X17.6500 Y23.4200
G01 X17.8800 Y23.5400
G01 X18.1200 Y23.5600
G00 Z1.7000
G00 X18.0334 Y23.5588
F60.00
G01 Z-0.2800
F100.00
G01 X18.0835 Y23.6044
G01 X18.1963 Y23.7170
G01 X18.2257 Y23.7215
G01 X18.2425 Y23.7248
G01 X18.3401 Y23.7493
G01 X18.3647 Y23.7571
G01 X18.4432 Y23.7852
G01 X18.4592 Y23.7913
G01 X18.4749 Y23.7983
G01 X18.5503 Y23.8340
G01 X18.5657 Y23.8417
G01 X18.5806 Y23.8502
G01 X18.6522 Y23.8930
G01 X18.6667 Y23.9022
G01 X18.6807 Y23.9121
G01 X18.7477 Y23.9618
G01 X18.7613 Y23.9724
G01 X18.7743 Y23.9836
G01 X18.8361 Y24.0396
G01 X18.8545 Y24.0576
G01 X18.9164 Y24.1257
G01 X18.9330 Y24.1454
G01 X18.9929 Y24.2262
G01 X19.0024 Y24.2405
G01 X19.0247 Y24.2774
G01 X19.0247 Y22.9826
G01 X19.0024 Y23.0195
G01 X18.9929 Y23.0338
G01 X18.9330 Y23.1146
G01 X18.9164 Y23.1343
G01 X18.8604 Y23.1961
G01 X18.8424 Y23.2145
G01 X18.7743 Y23.2764
G01 X18.7613 Y23.2876
G01 X18.7477 Y23.2982
G01 X18.6807 Y23.3479
G01 X18.6595 Y23.3624
G01 X18.5732 Y23.4142
G01 X18.5503 Y23.4260
G01 X18.4749 Y23.4617
G01 X18.4592 Y23.4687
G01 X18.4432 Y23.4748
G01 X18.3647 Y23.5029
G01 X18.3401 Y23.5107
G01 X18.2425 Y23.5352
G01 X18.2172 Y23.5399
G01 X18.1347 Y23.5521
G01 X18.1176 Y23.5542
G01 X18.1005 Y23.5555
G01 X18.0334 Y23.5588
G00 Z1.7000
G00 X19.0247 Y25.5226
F60.00
G01 Z-0.2800
F100.00
G01 X19.0024 Y25.5595
G01 X18.9929 Y25.5738
G01 X18.9330 Y25.6546
G01 X18.9164 Y25.6743
G01 X18.8604 Y25.7361
G01 X18.8424 Y25.7545
G01 X18.7743 Y25.8164
G01 X18.7613 Y25.8276
G01 X18.7477 Y25.8382
G01 X18.6807 Y25.8879
G01 X18.6595 Y25.9024
G01 X18.5732 Y25.9542
G01 X18.5503 Y25.9660
G01 X18.4749 Y26.0017
G01 X18.4592 Y26.0087
G01 X18.4432 Y26.0148
G01 X18.3647 Y26.0429
G01 X18.3401 Y26.0507
G01 X18.2425 Y26.0752
G01 X18.2172 Y26.0799
G01 X18.1347 Y26.0921
G01 X18.1176 Y26.0942
G01 X18.1005 Y26.0955
G01 X18.0334 Y26.0988
G01 X18.0835 Y26.1444
G01 X18.1963 Y26.2570
G01 X18.2257 Y26.2615
G01 X18.2425 Y26.2648
G01 X18.3401 Y26.2893
G01 X18.3647 Y26.2971
G01 X18.4512 Y26.3282
G01 X18.4749 Y26.3383
G01 X18.5503 Y26.3740
G01 X18.5657 Y26.3817
G01 X18.5806 Y26.3902
G01 X18.6522 Y26.4330
G01 X18.6737 Y26.4470
G01 X19.0247 Y26.0960
G01 X19.0247 Y25.5226
G00 Z1.7000
G00 X20.8000 Y27.0600
F60.00
G01 Z-0.2800
F100.00
G01 X20.8200 Y27.0600
G01 X20.8800 Y26.6000
G01 X20.9000 Y20.2200
G01 X20.8400 Y19.5100
G01 X20.8400 Y19.3200
G00 Z1.7000
G00 X17.9300 Y5.7700
F60.00
G01 Z-0.2800
F100.00
G01 X18.0700 Y5.7700
G01 X18.2900 Y5.7200
G01 X18.4800 Y5.6300
G01 X18.7000 Y5.6200
M05
G00 Z15.00


