(G-CODE GENERATED BY FLATCAM v8.994 - www.flatcam.org - Version Date: 2020/11/7)

(Name: TFT.drl_cnc)
(Type: G-code from Geometry)
(Units: MM)

(Created on Tuesday, 30 March 2021 at 17:47)

(This preprocessor is the default preprocessor used by FlatCAM.)
(It is made to work with MACH3 compatible motion controllers.)


(TOOLS DIAMETER: )
(Tool: 1 -> Dia: 1.0)

(FEEDRATE Z: )
(Tool: 1 -> Feedrate: 65.0)

(FEEDRATE RAPIDS: )
(Tool: 1 -> Feedrate Rapids: 1500.0)

(Z_CUT: )
(Tool: 1 -> Z_Cut: -2.1)

(Tools Offset: )
(Tool: 1 -> Offset Z: 0.0)

(Z_MOVE: )
(Tool: 1 -> Z_Move: 0.8)

(Z Toolchange: 15 mm)
(X,Y Toolchange: 0.0000, 0.0000 mm)
(Z Start: None mm)
(Z End: 0.5 mm)
(X,Y End: None mm)
(Steps per circle: 64)
(Preprocessor Excellon: default)

(X range:    3.9000 ...   18.5000  mm)
(Y range:    4.0800 ...   38.1000  mm)

(Spindle Speed: 20000 RPM)
G21
G90
G94


F65.00
M03 S20000
G4 P2.0
G00 X6.9400 Y29.4800
G01 Z-2.1000
G01 Z0
G00 Z0.8000
G00 X4.4000 Y29.4800
G01 Z-2.1000
G01 Z0
G00 Z0.8000
G00 X4.4000 Y26.9400
G01 Z-2.1000
G01 Z0
G00 Z0.8000
G00 X4.4000 Y24.4000
G01 Z-2.1000
G01 Z0
G00 Z0.8000
G00 X6.9400 Y26.9400
G01 Z-2.1000
G01 Z0
G00 Z0.8000
G00 X6.9400 Y24.4000
G01 Z-2.1000
G01 Z0
G00 Z0.8000
G00 X6.9400 Y21.8600
G01 Z-2.1000
G01 Z0
G00 Z0.8000
G00 X4.4000 Y21.8600
G01 Z-2.1000
G01 Z0
G00 Z0.8000
G00 X4.4000 Y19.3200
G01 Z-2.1000
G01 Z0
G00 Z0.8000
G00 X6.9400 Y19.3200
G01 Z-2.1000
G01 Z0
G00 Z0.8000
G00 X6.9400 Y16.7800
G01 Z-2.1000
G01 Z0
G00 Z0.8000
G00 X4.4000 Y16.7800
G01 Z-2.1000
G01 Z0
G00 Z0.8000
G00 X4.4000 Y14.2400
G01 Z-2.1000
G01 Z0
G00 Z0.8000
G00 X4.4000 Y11.7000
G01 Z-2.1000
G01 Z0
G00 Z0.8000
G00 X6.9400 Y11.7000
G01 Z-2.1000
G01 Z0
G00 Z0.8000
G00 X6.9400 Y14.2400
G01 Z-2.1000
G01 Z0
G00 Z0.8000
G00 X18.0000 Y4.5800
G01 Z-2.1000
G01 Z0
G00 Z0.8000
G00 X18.0000 Y7.1200
G01 Z-2.1000
G01 Z0
G00 Z0.8000
G00 X18.0000 Y9.6600
G01 Z-2.1000
G01 Z0
G00 Z0.8000
G00 X18.0000 Y12.2000
G01 Z-2.1000
G01 Z0
G00 Z0.8000
G00 X18.0000 Y14.7400
G01 Z-2.1000
G01 Z0
G00 Z0.8000
G00 X18.0000 Y17.2800
G01 Z-2.1000
G01 Z0
G00 Z0.8000
G00 X18.0000 Y19.8200
G01 Z-2.1000
G01 Z0
G00 Z0.8000
G00 X18.0000 Y22.3600
G01 Z-2.1000
G01 Z0
G00 Z0.8000
G00 X18.0000 Y24.9000
G01 Z-2.1000
G01 Z0
G00 Z0.8000
G00 X18.0000 Y27.4400
G01 Z-2.1000
G01 Z0
G00 Z0.8000
G00 X18.0000 Y29.9800
G01 Z-2.1000
G01 Z0
G00 Z0.8000
G00 X18.0000 Y32.5200
G01 Z-2.1000
G01 Z0
G00 Z0.8000
G00 X18.0000 Y35.0600
G01 Z-2.1000
G01 Z0
G00 Z0.8000
G00 X18.0000 Y37.6000
G01 Z-2.1000
G01 Z0
G00 Z0.8000
M05
G00 Z0.50


G00 Z15
M05


